( Made using CamBam - http://www.cambam.co.uk )
( midi_cv_panel 12/15/2014 11:03:45 PM )
( T3 : 3.175 )
( T10 : 0.0 )
G21 G90 G61 G40
G0 Z3.0
( T10 : 0.0 )
T10 M6
( Engrave1 )
G17
M3 S1000
G0 X20.7253 Y121.2595
G0 Z0.4
G1 F1000.0 Z-0.01
G1 F2000.0 X17.3892
G1 Y108.9914
G1 X20.7253
G1 Y121.2595
G0 Z3.0
G0 X16.0822 Y120.0928
G0 Z0.4
G1 F1000.0 Z-0.01
G3 F2000.0 X14.9114 Y121.2622 I-1.1699 J-0.0005
G1 X12.7406 Y121.2595
G1 X2.7045
G1 Y108.99
G1 X6.0392
G1 Y118.3122
G1 X7.7225
G1 Y108.99
G1 X11.06
G1 Y118.3122
G1 X12.7406
G1 Y108.99
G1 X16.0795
G1 X16.0822 Y120.0928
G0 Z3.0
G0 X25.3711 Y111.9358
G0 Z0.4
G1 F1000.0 Z-0.01
G1 F2000.0 X29.7781
G1 Y118.3122
G1 X22.035
G1 Y121.2595
G1 X31.9503 Y121.2622
G2 X33.117 Y120.0928 I-0.0025 J-1.1692
G1 X33.1142 Y110.1567
G2 X31.9447 Y108.99 I-1.1656 J-0.0011
G1 X22.035
G1 Y116.6275
G1 X25.3711
G1 Y111.9358
G0 Z3.0
G0 X34.4253
G0 Z0.4
G1 F1000.0 Z-0.01
G1 F2000.0 Y108.9914
G1 X37.7628
G1 Y121.2595
G1 X34.4253
G1 Y111.9358
G0 Z3.0
G0 X21.1532 Y102.1544
G0 Z0.4
G1 F1000.0 Z-0.01
G2 F2000.0 X21.2974 Y101.8896 I-0.8925 J-0.6578
G1 X19.2049 Y100.7295
G1 X21.2974 Y101.8896
G3 X20.7405 Y102.5098 I-1.1164 J-0.4424
G3 X19.8208 Y102.746 I-0.8937 J-1.5708
G3 X19.1163 Y102.6152 I-0.0172 J-1.8706
G3 X18.5594 Y102.244 I0.5821 J-1.4764
G3 X18.1924 Y101.6745 I1.2416 J-1.2031
G3 X18.0574 Y100.9488 I1.762 J-0.7032
G3 X18.1924 Y100.2148 I1.9408 J-0.0225
G3 X18.5594 Y99.6452 I1.6597 J0.6665
G3 X19.1163 Y99.2782 I1.1487 J1.137
G3 X19.8208 Y99.1516 I0.6868 J1.799
G3 X20.377 Y99.224 I0.0158 J2.0517
G3 X20.8839 Y99.4638 I-0.4402 J1.5864
G3 X21.2779 Y99.8739 I-0.8765 J1.2363
G3 X21.5125 Y100.392 I-1.6406 J1.0552
G2 X21.2779 Y99.8739 I-1.8757 J0.5374
G2 X20.8839 Y99.4638 I-1.2703 J0.8261
G2 X19.8208 Y99.1516 I-1.0149 J1.4897
G2 X19.1163 Y99.2782 I-0.0177 J1.9258
G2 X18.5594 Y99.6452 I0.5918 J1.5039
G2 X18.1924 Y100.2148 I1.2925 J1.236
G2 X18.0574 Y100.9488 I1.8056 J0.7115
G2 X18.1924 Y101.6745 I1.8971 J0.0224
G2 X18.5594 Y102.244 I1.6087 J-0.6337
G2 X19.1163 Y102.6152 I1.139 J-1.1052
G2 X19.8208 Y102.746 I0.6873 J-1.7396
G2 X20.7405 Y102.5098 I0.026 J-1.8071
G2 X21.0745 Y102.2495 I-0.6624 J-1.1946
G2 X21.1532 Y102.1544 I-0.8138 J-0.753
G0 Z3.0
G0 X16.9099 Y102.6574
G0 Z0.4
G1 F1000.0 Z-0.01
G1 F2000.0 X15.4206
G1 X16.9099
G0 Z3.0
G0 X16.3192 Y99.2529
G0 Z0.4
G1 F1000.0 Z-0.01
G2 F2000.0 X15.9717 Y99.2974 I-0.0144 J1.2655
G2 X15.6611 Y99.4596 I0.2193 J0.7986
G2 X15.4659 Y99.7885 I0.4402 J0.4837
G2 X15.4206 Y100.1684 I1.389 J0.3579
G1 Y103.6784
G1 Y100.1684
G3 X15.4659 Y99.7885 I1.4339 J-0.0219
G3 X15.6611 Y99.4596 I0.6355 J0.1548
G3 X15.9717 Y99.2974 I0.5299 J0.6364
G3 X16.3192 Y99.2529 I0.3332 J1.221
G1 X16.9099
G1 X16.3192
G0 Z3.0
G0 X13.8049
G0 Z0.4
G1 F1000.0 Z-0.01
G1 F2000.0 Y101.1724
G3 X13.6783 Y101.8179 I-1.6044 J0.0205
G3 X13.3239 Y102.3199 I-1.2592 J-0.5128
G3 X12.7797 Y102.6448 I-1.1122 J-1.245
G3 X12.0878 Y102.7629 I-0.668 J-1.8272
G3 X11.3791 Y102.6279 I-0.0186 J-1.8305
G3 X10.8222 Y102.2524 I0.6488 J-1.563
G3 X10.4594 Y101.6871 I1.2076 J-1.1741
G3 X10.3328 Y100.9657 I1.8497 J-0.6963
G3 X10.4594 Y100.2316 I2.0557 J-0.0235
G3 X10.8222 Y99.6579 I1.6581 J0.6469
G3 X11.3791 Y99.2824 I1.2057 J1.1876
G3 X12.0878 Y99.1474 I0.6902 J1.6954
G3 X12.7333 Y99.3119 I0.0356 J1.2089
G2 X12.0878 Y99.1474 I-0.6099 J1.0443
G2 X11.3791 Y99.2824 I-0.0186 J1.8305
G2 X10.8222 Y99.6579 I0.6488 J1.563
G2 X10.4594 Y100.2316 I1.2954 J1.2207
G2 X10.3328 Y100.9657 I1.9294 J0.7106
G2 X10.4594 Y101.6871 I1.9762 J0.0251
G2 X10.8222 Y102.2524 I1.5705 J-0.6088
G2 X11.3791 Y102.6279 I1.2057 J-1.1876
G2 X12.0878 Y102.7629 I0.6902 J-1.6954
G2 X12.7797 Y102.6448 I0.0239 J-1.9453
G2 X13.3239 Y102.3199 I-0.568 J-1.5699
G2 X13.6783 Y101.8179 I-0.9048 J-1.0147
G2 X13.8049 Y101.1724 I-1.4779 J-0.6249
G1 Y99.2529
G0 Z3.0
G0 X6.3039 Y97.384
G0 Z0.4
G1 F1000.0 Z-0.01
G3 F2000.0 X7.1941 Y97.2659 I0.9424 J3.6888
G3 X8.0125 Y97.4093 I0.0491 J2.1263
G3 X8.5736 Y97.7974 I-0.5372 J1.3763
G3 X8.8942 Y98.3712 I-1.131 J1.0085
G3 X8.9997 Y99.0715 I-2.177 J0.686
G1 Y100.9615
G3 X8.8689 Y101.6491 I-2.0735 J-0.0381
G3 X8.5314 Y102.2145 I-1.5846 J-0.5626
G3 X8.0083 Y102.6026 I-1.1768 J-1.0396
G3 X7.3249 Y102.746 I-0.6591 J-1.4407
G3 X6.633 Y102.6195 I-0.0157 J-1.8686
G3 X6.0803 Y102.2524 I0.5598 J-1.4426
G3 X5.7133 Y101.666 I1.2244 J-1.1744
G3 X5.5783 Y100.8771 I2.0507 J-0.7569
G3 X5.7217 Y100.1557 I1.7519 J-0.0266
G3 X6.1014 Y99.6115 I1.6011 J0.7125
G3 X6.6625 Y99.2655 I1.1314 J1.2071
G3 X7.3502 Y99.1474 I0.6767 J1.879
G3 X7.9366 Y99.2487 I0.0039 J1.726
G2 X7.3502 Y99.1474 I-0.5825 J1.6246
G2 X6.6625 Y99.2655 I-0.0109 J1.997
G2 X6.1014 Y99.6115 I0.5703 J1.553
G2 X5.7217 Y100.1557 I1.2214 J1.2567
G2 X5.5783 Y100.8771 I1.6083 J0.6947
G2 X5.7133 Y101.666 I2.1859 J0.0319
G2 X6.0803 Y102.2524 I1.5916 J-0.5881
G2 X6.633 Y102.6195 I1.1125 J-1.0756
G2 X7.3249 Y102.746 I0.6762 J-1.7422
G2 X8.0083 Y102.6026 I0.0243 J-1.5841
G2 X8.5314 Y102.2145 I-0.6536 J-1.4276
G2 X8.8689 Y101.6491 I-1.2471 J-1.1279
G2 X8.9997 Y100.9615 I-1.9429 J-0.7258
G1 Y99.0715
G2 X8.8942 Y98.3712 I-2.2825 J-0.0143
G2 X8.5736 Y97.7974 I-1.4517 J0.4348
G2 X8.0125 Y97.4093 I-1.0983 J0.9881
G2 X7.1941 Y97.2659 I-0.7693 J1.9826
G2 X6.3039 Y97.384 I0.0523 J3.8074
G0 Z3.0
G0 X13.2277 Y84.293
G0 Z0.4
G1 F1000.0 Z-0.01
G1 F2000.0 Y79.0027
G1 Y84.293
G0 Z3.0
G0 X11.0693 Y82.0639
G0 Z0.4
G1 F1000.0 Z-0.01
G3 F2000.0 X10.7934 Y82.2638 I-0.8353 J-0.8627
G3 X9.8737 Y82.5 I-0.8937 J-1.5708
G3 X9.1692 Y82.3692 I-0.0172 J-1.8706
G3 X8.6123 Y81.998 I0.5821 J-1.4764
G3 X8.2453 Y81.4285 I1.2416 J-1.2031
G3 X8.1103 Y80.7028 I1.762 J-0.7032
G3 X8.2453 Y79.9688 I1.9408 J-0.0225
G3 X8.6123 Y79.3992 I1.6597 J0.6665
G3 X9.1692 Y79.0322 I1.1487 J1.137
G3 X9.8737 Y78.9056 I0.6868 J1.799
G3 X10.4299 Y78.978 I0.0158 J2.0517
G3 X10.9369 Y79.2178 I-0.4402 J1.5864
G3 X11.3309 Y79.6279 I-0.8765 J1.2363
G3 X11.5655 Y80.146 I-1.6406 J1.0552
G2 X11.3309 Y79.6279 I-1.8757 J0.5374
G2 X10.9369 Y79.2178 I-1.2703 J0.8261
G2 X9.8737 Y78.9056 I-1.0149 J1.4897
G2 X9.1692 Y79.0322 I-0.0177 J1.9258
G2 X8.6123 Y79.3992 I0.5918 J1.5039
G2 X8.2453 Y79.9688 I1.2925 J1.236
G2 X8.1103 Y80.7028 I1.8056 J0.7115
G2 X8.2453 Y81.4285 I1.8971 J0.0224
G2 X8.6123 Y81.998 I1.6087 J-0.6337
G2 X9.1692 Y82.3692 I1.139 J-1.1052
G2 X9.8737 Y82.5 I0.6873 J-1.7396
G2 X10.7934 Y82.2638 I0.026 J-1.8071
G2 X11.1274 Y82.0035 I-0.6624 J-1.1946
G2 X11.3503 Y81.6436 I-0.8138 J-0.753
G1 X9.2578 Y80.4835
G1 X11.3503 Y81.6436
G3 X11.0693 Y82.0639 I-1.1164 J-0.4424
G0 Z3.0
G0 X14.8862 Y81.1705
G0 Z0.4
G1 F1000.0 Z-0.01
G2 F2000.0 X14.9658 Y81.4285 I1.9 J-0.4447
G2 X15.3286 Y81.998 I1.5658 J-0.5971
G2 X15.8855 Y82.3692 I1.139 J-1.1052
G2 X16.59 Y82.5 I0.6873 J-1.7396
G2 X17.2945 Y82.3692 I0.0172 J-1.8706
G2 X17.8514 Y81.998 I-0.5821 J-1.4764
G2 X18.2142 Y81.4285 I-1.2028 J-1.1666
G2 X18.345 Y80.7028 I-1.8205 J-0.7027
G2 X18.2142 Y79.9688 I-1.9964 J-0.023
G2 X17.8514 Y79.3992 I-1.6137 J0.6276
G2 X17.2945 Y79.0322 I-1.1487 J1.137
G2 X16.59 Y78.9056 I-0.6868 J1.799
G2 X15.8855 Y79.0322 I-0.0177 J1.9258
G2 X15.3286 Y79.3992 I0.5918 J1.5039
G2 X14.9658 Y79.9688 I1.2507 J1.1971
G2 X14.835 Y80.7028 I1.8654 J0.711
G2 X14.8862 Y81.1705 I1.9512 J0.0229
G2 X14.9658 Y81.4285 I1.9 J-0.4447
G2 X15.3286 Y81.998 I1.5658 J-0.5971
G2 X15.8855 Y82.3692 I1.139 J-1.1052
G2 X16.59 Y82.5 I0.6873 J-1.7396
G2 X17.2945 Y82.3692 I0.0172 J-1.8706
G2 X17.8514 Y81.998 I-0.5821 J-1.4764
G2 X18.2142 Y81.4285 I-1.2028 J-1.1666
G2 X18.345 Y80.7028 I-1.8205 J-0.7027
G2 X18.2142 Y79.9688 I-1.9964 J-0.023
G2 X17.8514 Y79.3992 I-1.6137 J0.6276
G2 X17.2945 Y79.0322 I-1.1487 J1.137
G2 X16.59 Y78.9056 I-0.6868 J1.799
G2 X15.8855 Y79.0322 I-0.0177 J1.9258
G2 X15.3286 Y79.3992 I0.5918 J1.5039
G2 X14.9658 Y79.9688 I1.2507 J1.1971
G2 X14.835 Y80.7028 I1.8654 J0.711
G2 X14.8862 Y81.1705 I1.9512 J0.0229
G3 X14.835 Y80.7028 I1.9001 J-0.4447
G3 X14.9658 Y79.9688 I1.9964 J-0.023
G3 X15.3286 Y79.3992 I1.6137 J0.6276
G3 X15.8855 Y79.0322 I1.1487 J1.137
G3 X16.59 Y78.9056 I0.6868 J1.799
G3 X17.2945 Y79.0322 I0.0177 J1.9258
G3 X17.8514 Y79.3992 I-0.5918 J1.5039
G3 X18.2142 Y79.9688 I-1.2507 J1.1971
G3 X18.345 Y80.7028 I-1.8654 J0.711
G3 X18.2142 Y81.4285 I-1.9512 J0.0229
G3 X17.8514 Y81.998 I-1.5658 J-0.5971
G3 X17.2945 Y82.3692 I-1.139 J-1.1052
G3 X16.59 Y82.5 I-0.6873 J-1.7396
G3 X15.8855 Y82.3692 I-0.0172 J-1.8706
G3 X15.3286 Y81.998 I0.5821 J-1.4764
G3 X14.9658 Y81.4285 I1.2028 J-1.1666
G3 X14.8862 Y81.1705 I1.8205 J-0.7027
G3 X14.835 Y80.7028 I1.9001 J-0.4447
G3 X14.9658 Y79.9688 I1.9964 J-0.023
G3 X15.3286 Y79.3992 I1.6137 J0.6276
G3 X15.8855 Y79.0322 I1.1487 J1.137
G3 X16.59 Y78.9056 I0.6868 J1.799
G3 X17.2945 Y79.0322 I0.0177 J1.9258
G3 X17.8514 Y79.3992 I-0.5918 J1.5039
G3 X18.2142 Y79.9688 I-1.2507 J1.1971
G3 X18.345 Y80.7028 I-1.8654 J0.711
G3 X18.2142 Y81.4285 I-1.9512 J0.0229
G3 X17.8514 Y81.998 I-1.5658 J-0.5971
G3 X17.2945 Y82.3692 I-1.139 J-1.1052
G3 X16.59 Y82.5 I-0.6873 J-1.7396
G3 X15.8855 Y82.3692 I-0.0172 J-1.8706
G3 X15.3286 Y81.998 I0.5821 J-1.4764
G3 X14.9658 Y81.4285 I1.2028 J-1.1666
G3 X14.8862 Y81.1705 I1.8205 J-0.7027
G0 Z3.0
G0 X21.5175 Y79.0069
G0 Z0.4
G1 F1000.0 Z-0.01
G2 F2000.0 X20.8341 Y79.125 I-0.0128 J1.9621
G2 X20.273 Y79.4667 I0.6126 J1.6374
G2 X19.8975 Y80.0025 I1.0957 J1.1673
G2 X19.7625 Y80.6986 I1.6229 J0.6759
G2 X19.9017 Y81.3947 I1.7114 J0.0197
G2 X20.2772 Y81.9347 I1.5878 J-0.7035
G2 X20.8045 Y82.2849 I1.253 J-1.3149
G2 X21.412 Y82.4114 I0.6089 J-1.4014
G1 X21.7917
G1 X21.412
G3 X20.8045 Y82.2849 I0.0014 J-1.5279
G3 X20.2772 Y81.9347 I0.7255 J-1.6648
G3 X19.9017 Y81.3947 I1.2124 J-1.2435
G3 X19.7625 Y80.6986 I1.5722 J-0.6764
G3 X19.8975 Y80.0025 I1.7578 J-0.0202
G3 X20.273 Y79.4667 I1.4712 J0.6315
G3 X20.8341 Y79.125 I1.1737 J1.2957
G3 X21.5175 Y79.0069 I0.6706 J1.8439
G1 X21.7917
G1 X21.5175
G0 Z3.0
G0 X18.333 Y74.043
G0 Z0.4
G1 F1000.0 Z-0.01
G1 F2000.0 Y68.7527
G1 Y74.043
G0 Z3.0
G0 X21.1131 Y70.7945
G0 Z0.4
G1 F1000.0 Z-0.01
G3 F2000.0 X21.033 Y71.3092 I-1.7228 J-0.0047
G3 X20.7883 Y71.7775 I-1.2595 J-0.3601
G3 X20.3622 Y72.115 I-0.961 J-0.7755
G3 X19.7462 Y72.2458 I-0.5784 J-1.2081
G3 X19.1219 Y72.115 I-0.0283 J-1.4209
G3 X18.6831 Y71.7775 I0.5281 J-1.1405
G3 X18.4216 Y71.3092 I1.1091 J-0.9267
G3 X18.333 Y70.7945 I1.4846 J-0.5205
G1 Y68.7569
G1 Y70.7945
G2 X18.4216 Y71.3092 I1.5732 J-0.0058
G2 X18.6831 Y71.7775 I1.3707 J-0.4584
G2 X19.1219 Y72.115 I0.9668 J-0.8029
G2 X19.7462 Y72.2458 I0.5961 J-1.2901
G2 X20.3622 Y72.115 I0.0376 J-1.3389
G2 X20.7883 Y71.7775 I-0.5349 J-1.113
G2 X21.033 Y71.3092 I-1.0149 J-0.8284
G2 X21.1131 Y70.7945 I-1.6431 J-0.5195
G1 Y68.7569
G1 Y70.7945
G0 Z3.0
G0 X16.9998 Y72.1614
G0 Z0.4
G1 F1000.0 Z-0.01
G1 F2000.0 X16.6202
G3 X16.0127 Y72.0349 I0.0014 J-1.5279
G3 X15.4853 Y71.6847 I0.7255 J-1.6648
G3 X15.1098 Y71.1447 I1.2124 J-1.2435
G3 X14.9706 Y70.4486 I1.5722 J-0.6764
G3 X15.1056 Y69.7525 I1.7578 J-0.0202
G3 X15.4811 Y69.2167 I1.4712 J0.6315
G3 X16.0422 Y68.875 I1.1737 J1.2957
G3 X16.7256 Y68.7569 I0.6706 J1.8439
G1 X16.9998
G1 X16.7256
G2 X16.0422 Y68.875 I-0.0128 J1.9621
G2 X15.4811 Y69.2167 I0.6126 J1.6374
G2 X15.1056 Y69.7525 I1.0957 J1.1673
G2 X14.9706 Y70.4486 I1.6229 J0.6759
G2 X15.1098 Y71.1447 I1.7114 J0.0197
G2 X15.4853 Y71.6847 I1.5878 J-0.7035
G2 X16.0127 Y72.0349 I1.253 J-1.3149
G2 X16.6202 Y72.1614 I0.6089 J-1.4014
G1 X16.9998
G0 Z3.0
G0 X13.7008
G0 Z0.4
G1 F1000.0 Z-0.01
G1 F2000.0 X12.2116
G1 X13.7008
G0 Z3.0
G0 X13.1102 Y68.7569
G0 Z0.4
G1 F1000.0 Z-0.01
G2 F2000.0 X12.7626 Y68.8014 I-0.0144 J1.2655
G2 X12.452 Y68.9636 I0.2193 J0.7986
G2 X12.2568 Y69.2925 I0.4402 J0.4837
G2 X12.2116 Y69.6724 I1.389 J0.3579
G1 Y73.1824
G1 Y69.6724
G3 X12.2568 Y69.2925 I1.4339 J-0.0219
G3 X12.452 Y68.9636 I0.6355 J0.1548
G3 X12.7626 Y68.8014 I0.5299 J0.6364
G3 X13.1102 Y68.7569 I0.3332 J1.221
G1 X13.7008
G1 X13.1102
G0 Z3.0
G0 X10.1233
G0 Z0.4
G1 F1000.0 Z-0.01
G1 F2000.0 Y72.1403
G1 Y68.7569
G0 Z3.0
G0 X4.8456 Y70.2588
G0 Z0.4
G1 F1000.0 Z-0.01
G2 F2000.0 X4.968 Y71.1067 I2.7193 J0.0405
G2 X5.3181 Y71.7269 I1.6887 J-0.5446
G2 X5.8581 Y72.115 I1.1189 J-0.987
G2 X6.5542 Y72.25 I0.6759 J-1.6229
G2 X7.2461 Y72.1277 I0.0162 J-1.926
G2 X7.803 Y71.7691 I-0.5516 J-1.4683
G2 X8.1784 Y71.1869 I-1.2289 J-1.2047
G2 X8.3177 Y70.398 I-1.9679 J-0.754
G2 X8.1827 Y69.6766 I-1.8659 J-0.0242
G2 X7.8198 Y69.1281 I-1.5214 J0.6122
G2 X7.2841 Y68.778 I-1.1554 J1.183
G2 X6.6428 Y68.6556 I-0.6374 J1.5991
G2 X5.9045 Y68.7822 I-0.0355 J2.0098
G3 X6.6428 Y68.6556 I0.7029 J1.8834
G3 X7.2841 Y68.778 I0.0039 J1.7213
G3 X7.8198 Y69.1281 I-0.6196 J1.533
G3 X8.1827 Y69.6766 I-1.1587 J1.1607
G3 X8.3177 Y70.398 I-1.731 J0.6973
G3 X8.1784 Y71.1869 I-2.1072 J0.0349
G3 X7.803 Y71.7691 I-1.6044 J-0.6226
G3 X7.2461 Y72.1277 I-1.1085 J-1.1097
G3 X6.5542 Y72.25 I-0.6757 J-1.8036
G3 X5.8581 Y72.115 I-0.0202 J-1.7578
G3 X5.3181 Y71.7269 I0.5789 J-1.3752
G3 X4.968 Y71.1067 I1.3385 J-1.1647
G3 X4.8456 Y70.2588 I2.5968 J-0.8075
G1 Y66.8584
G1 Y70.2588
G0 Z3.0
G0 X10.0604 Y73.4033
G0 Z0.4
G1 F1000.0 Z-0.01
G3 F2000.0 X10.0642 Y73.3975 I0.078 J0.0471
G3 X10.1233 Y73.3722 I0.0526 J0.0413
G3 X10.1823 Y73.3975 I0.0064 J0.0666
G3 X10.2034 Y73.4481 I-0.0589 J0.0542
G3 X10.1233 Y73.5283 I-0.0701 J0.01
G3 X10.0473 Y73.4481 I-0.0078 J-0.0687
G3 X10.0604 Y73.4033 I0.0911 J0.0022
G3 X10.0642 Y73.3975 I0.078 J0.0471
G3 X10.1233 Y73.3722 I0.0526 J0.0413
G3 X10.1823 Y73.3975 I0.0064 J0.0666
G3 X10.2034 Y73.4481 I-0.0589 J0.0542
G3 X10.1233 Y73.5283 I-0.0701 J0.01
G3 X10.0473 Y73.4481 I-0.0078 J-0.0687
G3 X10.0604 Y73.4033 I0.0911 J0.0022
G2 X10.0473 Y73.4481 I0.0781 J0.0471
G2 X10.1233 Y73.5283 I0.0681 J0.0115
G2 X10.2034 Y73.4481 I0.01 J-0.0701
G2 X10.1823 Y73.3975 I-0.08 J0.0036
G2 X10.1233 Y73.3722 I-0.0526 J0.0413
G2 X10.0642 Y73.3975 I-0.0064 J0.0666
G2 X10.0604 Y73.4033 I0.0743 J0.0529
G2 X10.0473 Y73.4481 I0.0781 J0.0471
G2 X10.1233 Y73.5283 I0.0681 J0.0115
G2 X10.2034 Y73.4481 I0.01 J-0.0701
G2 X10.1823 Y73.3975 I-0.08 J0.0036
G2 X10.1233 Y73.3722 I-0.0526 J0.0413
G2 X10.0642 Y73.3975 I-0.0064 J0.0666
G2 X10.0604 Y73.4033 I0.0743 J0.0529
G0 Z3.0
G0 X5.2627 Y79.2389
G0 Z0.4
G1 F1000.0 Z-0.01
G3 F2000.0 X5.4019 Y78.9731 I0.7868 J0.2428
G3 X5.5453 Y78.9014 I0.1651 J0.1509
G3 X5.6972 Y78.9689 I-0.0185 J0.2462
G3 X5.7878 Y79.0956 I-0.3164 J0.3221
G3 X5.8491 Y79.2389 I-1.0902 J0.5507
G1 X7.0219 Y82.3945
G1 X5.8491 Y79.2389
G2 X5.7878 Y79.0956 I-1.1522 J0.4077
G2 X5.6972 Y78.9689 I-0.4072 J0.1955
G2 X5.5453 Y78.9014 I-0.1704 J0.1787
G2 X5.4019 Y78.9731 I0.0216 J0.2226
G2 X5.2627 Y79.2389 I0.6475 J0.5085
G1 X4.0772 Y82.3945
G1 X5.2627 Y79.2389
G0 Z3.0
G0 X3.7412 Y53.3774
G0 Z0.4
G1 F1000.0 Z-0.01
G1 F2000.0 Y49.9729
G3 X3.8636 Y49.1291 I2.6805 J-0.0421
G3 X4.2137 Y48.5047 I1.778 J0.5867
G3 X4.7537 Y48.1166 I1.1189 J0.987
G3 X5.4498 Y47.9858 I0.6753 J1.6767
G3 X6.1417 Y48.1039 I0.0167 J1.9877
G3 X6.6986 Y48.4625 I-0.5516 J1.4683
G3 X7.074 Y49.0447 I-1.277 J1.2357
G3 X7.2133 Y49.8421 I-1.9944 J0.7591
G3 X7.0783 Y50.5593 I-1.8353 J0.0258
G3 X6.7154 Y51.1077 I-1.5705 J-0.6447
G3 X6.1797 Y51.4579 I-1.107 J-1.1088
G3 X5.5384 Y51.5802 I-0.6374 J-1.5991
G3 X4.8001 Y51.4494 I-0.035 J-1.9516
G2 X5.5384 Y51.5802 I0.7032 J-1.8207
G2 X6.1797 Y51.4579 I0.0039 J-1.7213
G2 X6.7154 Y51.1077 I-0.5711 J-1.4589
G2 X7.0783 Y50.5593 I-1.2078 J-1.1932
G2 X7.2133 Y49.8421 I-1.7002 J-0.6913
G2 X7.074 Y49.0447 I-2.1336 J-0.0383
G2 X6.6986 Y48.4625 I-1.6524 J0.6535
G2 X6.1417 Y48.1039 I-1.1085 J1.1097
G2 X5.4498 Y47.9858 I-0.6752 J1.8695
G2 X4.7537 Y48.1166 I-0.0207 J1.8076
G2 X4.2137 Y48.5047 I0.5789 J1.3752
G2 X3.8636 Y49.1291 I1.4278 J1.2111
G2 X3.7412 Y49.9729 I2.5584 J0.8017
G1 Y53.3774
G0 Z3.0
G0 X8.6891 Y50.7016
G0 Z0.4
G1 F1000.0 Z-0.01
G3 F2000.0 X8.6012 Y50.5129 I1.5207 J-0.8224
G3 X8.4662 Y49.7872 I1.762 J-0.7032
G3 X8.6012 Y49.0532 I1.9408 J-0.0225
G3 X8.9683 Y48.4836 I1.6597 J0.6665
G3 X9.5251 Y48.1166 I1.1487 J1.137
G3 X10.2297 Y47.99 I0.6868 J1.799
G3 X10.7858 Y48.0624 I0.0158 J2.0517
G3 X11.2928 Y48.3022 I-0.4402 J1.5864
G3 X11.6868 Y48.7123 I-0.8765 J1.2363
G3 X11.9214 Y49.2304 I-1.6406 J1.0552
G2 X11.6868 Y48.7123 I-1.8757 J0.5374
G2 X11.2928 Y48.3022 I-1.2703 J0.8261
G2 X10.2297 Y47.99 I-1.0149 J1.4897
G2 X9.5251 Y48.1166 I-0.0177 J1.9258
G2 X8.9683 Y48.4836 I0.5918 J1.5039
G2 X8.6012 Y49.0532 I1.2925 J1.236
G2 X8.4662 Y49.7872 I1.8056 J0.7115
G2 X8.6012 Y50.5129 I1.8971 J0.0224
G2 X8.9683 Y51.0824 I1.6087 J-0.6337
G2 X9.5251 Y51.4536 I1.139 J-1.1052
G2 X10.2297 Y51.5844 I0.6873 J-1.7396
G2 X11.1494 Y51.3482 I0.026 J-1.8071
G2 X11.4833 Y51.0879 I-0.6624 J-1.1946
G2 X11.7062 Y50.728 I-0.8138 J-0.753
G1 X9.6137 Y49.5679
G1 X11.7062 Y50.728
G3 X11.1494 Y51.3482 I-1.1164 J-0.4424
G3 X10.2297 Y51.5844 I-0.8937 J-1.5708
G3 X9.5251 Y51.4536 I-0.0172 J-1.8706
G3 X8.9683 Y51.0824 I0.5821 J-1.4764
G3 X8.6891 Y50.7016 I1.2416 J-1.2031
G0 Z3.0
G0 X13.4006 Y50.2763
G0 Z0.4
G1 F1000.0 Z-0.01
G2 F2000.0 X13.4781 Y50.6521 I1.689 J-0.1525
G2 X13.7439 Y51.1246 I1.3277 J-0.4358
G2 X14.1784 Y51.4621 I1.0598 J-0.9161
G2 X14.7859 Y51.5929 I0.5795 J-1.2157
G2 X15.385 Y51.4621 I0.0278 J-1.3101
G2 X15.8195 Y51.1246 I-0.5865 J-1.2037
G2 X16.0811 Y50.6521 I-1.1039 J-0.9197
G2 X16.1739 Y50.1289 I-1.4634 J-0.5294
G1 Y48.0913
G1 Y50.1289
G3 X16.0811 Y50.6521 I-1.5562 J-0.0063
G3 X15.8195 Y51.1246 I-1.3654 J-0.4472
G3 X15.385 Y51.4621 I-1.021 J-0.8661
G3 X14.7859 Y51.5929 I-0.5713 J-1.1793
G3 X14.1784 Y51.4621 I-0.028 J-1.3464
G3 X13.7439 Y51.1246 I0.6252 J-1.2535
G3 X13.4781 Y50.6521 I1.062 J-0.9084
G3 X13.3937 Y50.1289 I1.6119 J-0.5283
G1 Y48.0913
G1 Y50.1289
G2 X13.4006 Y50.2763 I1.6958 J-0.0052
G0 Z3.0
G0 X21.0212 Y49.9729
G0 Z0.4
G1 F1000.0 Z-0.01
G2 F2000.0 X20.8947 Y49.1291 I-2.5977 J-0.0417
G2 X20.5445 Y48.5047 I-1.6952 J0.5403
G2 X20.0045 Y48.1166 I-1.1189 J0.987
G2 X19.3126 Y47.9858 I-0.6694 J1.6459
G2 X18.6208 Y48.1039 I-0.0167 J1.9877
G2 X18.0597 Y48.4625 I0.5681 J1.5073
G2 X17.6842 Y49.0447 I1.277 J1.2357
G2 X17.5492 Y49.8421 I2.0585 J0.7586
G2 X17.68 Y50.5593 I1.8875 J0.0263
G2 X18.0428 Y51.1077 I1.5705 J-0.6447
G2 X18.5786 Y51.4579 I1.1379 J-1.1562
G2 X19.2325 Y51.5802 I0.6439 J-1.6327
G2 X19.9581 Y51.4494 I0.0229 J-1.9512
G3 X19.2325 Y51.5802 I-0.7027 J-1.8205
G3 X18.5786 Y51.4579 I-0.01 J-1.7553
G3 X18.0428 Y51.1077 I0.6021 J-1.5063
G3 X17.68 Y50.5593 I1.2078 J-1.1932
G3 X17.5492 Y49.8421 I1.7567 J-0.6909
G3 X17.6842 Y49.0447 I2.1937 J-0.0387
G3 X18.0597 Y48.4625 I1.6524 J0.6535
G3 X18.6208 Y48.1039 I1.1293 J1.1487
G3 X19.3126 Y47.9858 I0.6752 J1.8695
G3 X20.0045 Y48.1166 I0.0225 J1.7766
G3 X20.5445 Y48.5047 I-0.5789 J1.3752
G3 X20.8947 Y49.1291 I-1.3449 J1.1646
G3 X21.0212 Y49.9729 I-2.4713 J0.8021
G1 Y53.3774
G1 Y49.9729
G0 Z3.0
G0 X20.8068 Y42.2286
G0 Z0.4
G1 F1000.0 Z-0.01
G1 F2000.0 Y38.8241
G2 X20.6802 Y37.9803 I-2.5977 J-0.0417
G2 X20.3301 Y37.3559 I-1.6952 J0.5403
G2 X19.7901 Y36.9678 I-1.1189 J0.987
G2 X19.0982 Y36.837 I-0.6694 J1.6459
G2 X18.4063 Y36.9551 I-0.0167 J1.9877
G2 X17.8452 Y37.3137 I0.5681 J1.5073
G2 X17.4698 Y37.8959 I1.277 J1.2357
G2 X17.3348 Y38.6933 I2.0585 J0.7586
G2 X17.4656 Y39.4105 I1.8875 J0.0263
G2 X17.8284 Y39.9589 I1.5705 J-0.6447
G2 X18.3641 Y40.3091 I1.1379 J-1.1562
G2 X19.0181 Y40.4314 I0.6439 J-1.6327
G2 X19.7437 Y40.3006 I0.0229 J-1.9512
G3 X19.0181 Y40.4314 I-0.7027 J-1.8205
G3 X18.3641 Y40.3091 I-0.01 J-1.7553
G3 X17.8284 Y39.9589 I0.6021 J-1.5063
G3 X17.4656 Y39.4105 I1.2078 J-1.1932
G3 X17.3348 Y38.6933 I1.7567 J-0.6909
G3 X17.4698 Y37.8959 I2.1937 J-0.0387
G3 X17.8452 Y37.3137 I1.6524 J0.6535
G3 X18.4063 Y36.9551 I1.1293 J1.1487
G3 X19.0982 Y36.837 I0.6752 J1.8695
G3 X19.7901 Y36.9678 I0.0225 J1.7766
G3 X20.3301 Y37.3559 I-0.5789 J1.3752
G3 X20.6802 Y37.9803 I-1.3449 J1.1646
G3 X20.8068 Y38.8241 I-2.4713 J0.8021
G1 Y42.2286
G0 Z3.0
G0 X15.8603 Y39.5621
G0 Z0.4
G1 F1000.0 Z-0.01
G2 F2000.0 X15.951 Y39.3641 I-1.475 J-0.7951
G2 X16.0818 Y38.6384 I-1.8205 J-0.7027
G2 X15.951 Y37.9044 I-1.9964 J-0.023
G2 X15.5882 Y37.3348 I-1.6137 J0.6276
G2 X15.0313 Y36.9678 I-1.1487 J1.137
G2 X14.3268 Y36.8412 I-0.6868 J1.799
G2 X13.6223 Y36.9678 I-0.0177 J1.9258
G2 X13.0654 Y37.3348 I0.5918 J1.5039
G2 X12.7026 Y37.9044 I1.2507 J1.1971
G2 X12.5718 Y38.6384 I1.8654 J0.711
G2 X12.7026 Y39.3641 I1.9512 J0.0229
G2 X13.0654 Y39.9336 I1.5658 J-0.5971
G2 X13.6223 Y40.3048 I1.139 J-1.1052
G2 X14.3268 Y40.4356 I0.6873 J-1.7396
G2 X15.0313 Y40.3048 I0.0172 J-1.8706
G2 X15.5882 Y39.9336 I-0.5821 J-1.4764
G2 X15.8603 Y39.5621 I-1.2028 J-1.1666
G2 X15.951 Y39.3641 I-1.475 J-0.7951
G2 X16.0818 Y38.6384 I-1.8205 J-0.7027
G2 X15.951 Y37.9044 I-1.9964 J-0.023
G2 X15.5882 Y37.3348 I-1.6137 J0.6276
G2 X15.0313 Y36.9678 I-1.1487 J1.137
G2 X14.3268 Y36.8412 I-0.6868 J1.799
G2 X13.6223 Y36.9678 I-0.0177 J1.9258
G2 X13.0654 Y37.3348 I0.5918 J1.5039
G2 X12.7026 Y37.9044 I1.2507 J1.1971
G2 X12.5718 Y38.6384 I1.8654 J0.711
G2 X12.7026 Y39.3641 I1.9512 J0.0229
G2 X13.0654 Y39.9336 I1.5658 J-0.5971
G2 X13.6223 Y40.3048 I1.139 J-1.1052
G2 X14.3268 Y40.4356 I0.6873 J-1.7396
G2 X15.0313 Y40.3048 I0.0172 J-1.8706
G2 X15.5882 Y39.9336 I-0.5821 J-1.4764
G2 X15.8603 Y39.5621 I-1.2028 J-1.1666
G3 X15.5882 Y39.9336 I-1.4751 J-0.7952
G3 X15.0313 Y40.3048 I-1.139 J-1.1052
G3 X14.3268 Y40.4356 I-0.6873 J-1.7396
G3 X13.6223 Y40.3048 I-0.0172 J-1.8706
G3 X13.0654 Y39.9336 I0.5821 J-1.4764
G3 X12.7026 Y39.3641 I1.2028 J-1.1666
G3 X12.5718 Y38.6384 I1.8205 J-0.7027
G3 X12.7026 Y37.9044 I1.9964 J-0.023
G3 X13.0654 Y37.3348 I1.6137 J0.6276
G3 X13.6223 Y36.9678 I1.1487 J1.137
G3 X14.3268 Y36.8412 I0.6868 J1.799
G3 X15.0313 Y36.9678 I0.0177 J1.9258
G3 X15.5882 Y37.3348 I-0.5918 J1.5039
G3 X15.951 Y37.9044 I-1.2507 J1.1971
G3 X16.0818 Y38.6384 I-1.8654 J0.711
G3 X15.951 Y39.3641 I-1.9512 J0.0229
G3 X15.8603 Y39.5621 I-1.5658 J-0.5971
G3 X15.5882 Y39.9336 I-1.4751 J-0.7952
G3 X15.0313 Y40.3048 I-1.139 J-1.1052
G3 X14.3268 Y40.4356 I-0.6873 J-1.7396
G3 X13.6223 Y40.3048 I-0.0172 J-1.8706
G3 X13.0654 Y39.9336 I0.5821 J-1.4764
G3 X12.7026 Y39.3641 I1.2028 J-1.1666
G3 X12.5718 Y38.6384 I1.8205 J-0.7027
G3 X12.7026 Y37.9044 I1.9964 J-0.023
G3 X13.0654 Y37.3348 I1.6137 J0.6276
G3 X13.6223 Y36.9678 I1.1487 J1.137
G3 X14.3268 Y36.8412 I0.6868 J1.799
G3 X15.0313 Y36.9678 I0.0177 J1.9258
G3 X15.5882 Y37.3348 I-0.5918 J1.5039
G3 X15.951 Y37.9044 I-1.2507 J1.1971
G3 X16.0818 Y38.6384 I-1.8654 J0.711
G3 X15.951 Y39.3641 I-1.9512 J0.0229
G3 X15.8603 Y39.5621 I-1.5658 J-0.5971
G0 Z3.0
G0 X6.4884 Y39.2923
G0 Z0.4
G1 F1000.0 Z-0.01
G2 F2000.0 X6.5685 Y39.7648 I1.3252 J0.0182
G2 X6.8048 Y40.1234 I0.9533 J-0.3709
G2 X7.1591 Y40.3512 I0.7418 J-0.7643
G2 X7.6021 Y40.4356 I0.4309 J-1.0572
G2 X8.0842 Y40.3563 I0.0209 J-1.3789
G2 X8.4881 Y40.0812 I-0.3453 J-0.9408
G2 X8.7376 Y39.6169 I-0.8836 J-0.7742
G2 X8.8045 Y39.0941 I-1.8303 J-0.4997
G1 Y36.9425
G1 Y39.0941
G2 X8.8702 Y39.6162 I1.9221 J0.0232
G2 X9.1166 Y40.0812 I1.1398 J-0.3062
G2 X9.5226 Y40.3567 I0.7479 J-0.6654
G2 X10.0068 Y40.4356 I0.463 J-1.316
G2 X10.4498 Y40.3512 I0.0121 J-1.1417
G2 X10.7999 Y40.1234 I-0.3693 J-0.9507
G2 X11.032 Y39.7648 I-0.7504 J-0.7399
G2 X11.1206 Y39.2923 I-1.1234 J-0.4552
G1 Y36.9425
G1 Y39.2923
G3 X11.032 Y39.7648 I-1.212 J0.0173
G3 X10.7999 Y40.1234 I-0.9824 J-0.3813
G3 X10.4498 Y40.3512 I-0.7194 J-0.7227
G3 X10.0068 Y40.4356 I-0.4309 J-1.0572
G3 X9.5226 Y40.3567 I-0.0212 J-1.395
G3 X9.1166 Y40.0812 I0.3419 J-0.9408
G3 X8.8702 Y39.6162 I0.8932 J-0.7712
G3 X8.8045 Y39.0941 I1.856 J-0.4989
G1 Y36.9425
G1 Y39.0941
G3 X8.7376 Y39.6169 I-1.8967 J0.0233
G3 X8.4881 Y40.0812 I-1.1331 J-0.3098
G3 X8.0842 Y40.3563 I-0.7492 J-0.6658
G3 X7.6021 Y40.4356 I-0.4613 J-1.2996
G3 X7.1591 Y40.3512 I-0.0121 J-1.1417
G3 X6.8048 Y40.1234 I0.3873 J-0.9921
G3 X6.5685 Y39.7648 I0.717 J-0.7295
G3 X6.4884 Y39.2923 I1.2451 J-0.4543
G1 Y36.9425
G1 Y39.2923
G0 Z3.0
G0 X17.1414 Y8.9495
G0 Z0.4
G1 F1000.0 Z-0.01
G2 F2000.0 X17.1841 Y8.9543 I0.0318 J-0.0906
G2 X17.2954 Y8.843 I0.0139 J-0.0974
G2 X17.2661 Y8.7727 I-0.1111 J0.005
G2 X17.1841 Y8.7375 I-0.0731 J0.0573
G2 X17.102 Y8.7727 I-0.0089 J0.0925
G2 X17.0786 Y8.843 I0.1032 J0.0734
G2 X17.1414 Y8.9495 I0.0946 J0.016
G2 X17.1841 Y8.9543 I0.0318 J-0.0906
G2 X17.2954 Y8.843 I0.0139 J-0.0974
G2 X17.2661 Y8.7727 I-0.1111 J0.005
G2 X17.1841 Y8.7375 I-0.0731 J0.0573
G2 X17.102 Y8.7727 I-0.0089 J0.0925
G2 X17.0786 Y8.843 I0.1032 J0.0734
G2 X17.1414 Y8.9495 I0.0946 J0.016
G3 X17.0786 Y8.843 I0.0318 J-0.0906
G3 X17.102 Y8.7727 I0.1265 J0.0031
G3 X17.1841 Y8.7375 I0.0731 J0.0573
G3 X17.2661 Y8.7727 I0.0089 J0.0925
G3 X17.2954 Y8.843 I-0.0818 J0.0753
G3 X17.1841 Y8.9543 I-0.0974 J0.0139
G3 X17.1414 Y8.9495 I-0.0108 J-0.0954
G3 X17.0786 Y8.843 I0.0318 J-0.0906
G3 X17.102 Y8.7727 I0.1265 J0.0031
G3 X17.1841 Y8.7375 I0.0731 J0.0573
G3 X17.2661 Y8.7727 I0.0089 J0.0925
G3 X17.2954 Y8.843 I-0.0818 J0.0753
G3 X17.1841 Y8.9543 I-0.0974 J0.0139
G3 X17.1414 Y8.9495 I-0.0108 J-0.0954
G0 Z3.0
G0 X17.1841 Y7.0266
G0 Z0.4
G1 F1000.0 Z-0.01
G1 F2000.0 Y2.3273
G1 Y7.0266
G0 Z3.0
G0 X19.9204 Y5.1574
G0 Z0.4
G1 F1000.0 Z-0.01
G2 F2000.0 X20.0376 Y5.884 I2.3553 J-0.0072
G2 X20.4067 Y6.5402 I1.844 J-0.6053
G2 X21.0102 Y7.009 I1.472 J-1.2723
G2 X21.854 Y7.1906 I0.8049 J-1.6885
G2 X22.686 Y7.009 I0.0386 J-1.8196
G2 X23.2895 Y6.5402 I-0.8146 J-1.6717
G2 X23.6528 Y5.884 I-1.5332 J-1.2774
G2 X23.7817 Y5.1574 I-2.0325 J-0.7353
G1 Y2.3273
G1 Y5.1574
G3 X23.6528 Y5.884 I-2.1614 J-0.0088
G3 X23.2895 Y6.5402 I-1.8963 J-0.6211
G3 X22.686 Y7.009 I-1.4181 J-1.2029
G3 X21.854 Y7.1906 I-0.7934 J-1.6379
G3 X21.0102 Y7.009 I-0.0388 J-1.87
G3 X20.4067 Y6.5402 I0.8684 J-1.7409
G3 X20.0376 Y5.884 I1.4749 J-1.2616
G3 X19.9204 Y5.1574 I2.2387 J-0.7338
G1 Y2.3273
G1 Y5.1574
( mounting )
G0 Z3.0
( T3 : 3.175 )
T3 M6
M3 S1000
G0 X9.46 Y20.29
G0 Z3.0
G0 X9.4725 Y20.29
G0 Z0.01
G1 F1000.0 Z0.0
G2 F2000.0 X9.4538 Y20.2792 Z-0.0333 I-0.0125 J0.0
G2 Y20.3008 Z-0.0667 I0.0062 J0.0108
G2 X9.4725 Y20.29 Z-0.1 I0.0063 J-0.0108
G2 X9.4538 Y20.2792 Z-0.1333 I-0.0125 J0.0
G2 Y20.3008 Z-0.1667 I0.0062 J0.0108
G2 X9.4725 Y20.29 Z-0.2 I0.0063 J-0.0108
G2 X9.4538 Y20.2792 Z-0.2333 I-0.0125 J0.0
G2 Y20.3008 Z-0.2667 I0.0062 J0.0108
G2 X9.4725 Y20.29 Z-0.3 I0.0063 J-0.0108
G2 X9.4538 Y20.2792 Z-0.3333 I-0.0125 J0.0
G2 Y20.3008 Z-0.3667 I0.0062 J0.0108
G2 X9.4725 Y20.29 Z-0.4 I0.0063 J-0.0108
G2 X9.4538 Y20.2792 Z-0.4333 I-0.0125 J0.0
G2 Y20.3008 Z-0.4667 I0.0062 J0.0108
G2 X9.4725 Y20.29 Z-0.5 I0.0063 J-0.0108
G2 X9.4538 Y20.2792 Z-0.5333 I-0.0125 J0.0
G2 Y20.3008 Z-0.5667 I0.0062 J0.0108
G2 X9.4725 Y20.29 Z-0.6 I0.0063 J-0.0108
G2 X9.4538 Y20.2792 Z-0.6333 I-0.0125 J0.0
G2 Y20.3008 Z-0.6667 I0.0062 J0.0108
G2 X9.4725 Y20.29 Z-0.7 I0.0063 J-0.0108
G2 X9.4538 Y20.2792 Z-0.7333 I-0.0125 J0.0
G2 Y20.3008 Z-0.7667 I0.0062 J0.0108
G2 X9.4725 Y20.29 Z-0.8 I0.0063 J-0.0108
G2 X9.4538 Y20.2792 Z-0.8333 I-0.0125 J0.0
G2 Y20.3008 Z-0.8667 I0.0062 J0.0108
G2 X9.4725 Y20.29 Z-0.9 I0.0063 J-0.0108
G2 X9.4538 Y20.2792 Z-0.9333 I-0.0125 J0.0
G2 Y20.3008 Z-0.9667 I0.0062 J0.0108
G2 X9.4725 Y20.29 Z-1.0 I0.0063 J-0.0108
G2 X9.4538 Y20.2792 Z-1.0333 I-0.0125 J0.0
G2 Y20.3008 Z-1.0667 I0.0062 J0.0108
G2 X9.4725 Y20.29 Z-1.1 I0.0063 J-0.0108
G2 X9.4538 Y20.2792 Z-1.1333 I-0.0125 J0.0
G2 Y20.3008 Z-1.1667 I0.0062 J0.0108
G2 X9.4725 Y20.29 Z-1.2 I0.0063 J-0.0108
G2 X9.4538 Y20.2792 Z-1.2333 I-0.0125 J0.0
G2 Y20.3008 Z-1.2667 I0.0062 J0.0108
G2 X9.4725 Y20.29 Z-1.3 I0.0063 J-0.0108
G2 X9.4538 Y20.2792 Z-1.3333 I-0.0125 J0.0
G2 Y20.3008 Z-1.3667 I0.0062 J0.0108
G2 X9.4725 Y20.29 Z-1.4 I0.0063 J-0.0108
G2 X9.4538 Y20.2792 Z-1.4333 I-0.0125 J0.0
G2 Y20.3008 Z-1.4667 I0.0062 J0.0108
G2 X9.4725 Y20.29 Z-1.5 I0.0063 J-0.0108
G2 X9.4538 Y20.2792 Z-1.5333 I-0.0125 J0.0
G2 Y20.3008 Z-1.5667 I0.0062 J0.0108
G2 X9.4725 Y20.29 Z-1.6 I0.0063 J-0.0108
G2 X9.4538 Y20.2792 Z-1.6333 I-0.0125 J0.0
G2 Y20.3008 Z-1.6667 I0.0062 J0.0108
G2 X9.4725 Y20.29 Z-1.7 I0.0063 J-0.0108
G2 X9.4538 Y20.2792 Z-1.7333 I-0.0125 J0.0
G2 Y20.3008 Z-1.7667 I0.0062 J0.0108
G2 X9.4725 Y20.29 Z-1.8 I0.0063 J-0.0108
G2 X9.4538 Y20.2792 Z-1.8333 I-0.0125 J0.0
G2 Y20.3008 Z-1.8667 I0.0062 J0.0108
G2 X9.4725 Y20.29 Z-1.9 I0.0063 J-0.0108
G2 X9.4538 Y20.2792 Z-1.9333 I-0.0125 J0.0
G2 Y20.3008 Z-1.9667 I0.0062 J0.0108
G2 X9.4725 Y20.29 Z-2.0 I0.0063 J-0.0108
G2 X9.4538 Y20.2792 Z-2.0333 I-0.0125 J0.0
G2 Y20.3008 Z-2.0667 I0.0062 J0.0108
G2 X9.4725 Y20.29 Z-2.1 I0.0063 J-0.0108
G2 X9.4538 Y20.2792 Z-2.1333 I-0.0125 J0.0
G2 Y20.3008 Z-2.1667 I0.0062 J0.0108
G2 X9.4725 Y20.29 Z-2.2 I0.0063 J-0.0108
G2 X9.4538 Y20.2792 Z-2.2333 I-0.0125 J0.0
G2 Y20.3008 Z-2.2667 I0.0062 J0.0108
G2 X9.4725 Y20.29 Z-2.3 I0.0063 J-0.0108
G2 X9.4538 Y20.2792 Z-2.3333 I-0.0125 J0.0
G2 Y20.3008 Z-2.3667 I0.0062 J0.0108
G2 X9.4725 Y20.29 Z-2.4 I0.0063 J-0.0108
G2 X9.4538 Y20.2792 Z-2.4333 I-0.0125 J0.0
G2 Y20.3008 Z-2.4667 I0.0062 J0.0108
G2 X9.4725 Y20.29 Z-2.5 I0.0063 J-0.0108
G2 X9.4538 Y20.2792 Z-2.5333 I-0.0125 J0.0
G2 Y20.3008 Z-2.5667 I0.0062 J0.0108
G2 X9.4725 Y20.29 Z-2.6 I0.0063 J-0.0108
G2 X9.4538 Y20.2792 Z-2.6333 I-0.0125 J0.0
G2 Y20.3008 Z-2.6667 I0.0063 J0.0108
G2 X9.4725 Y20.29 Z-2.7 I0.0062 J-0.0108
G2 X9.4538 Y20.2792 Z-2.7333 I-0.0125 J0.0
G2 Y20.3008 Z-2.7667 I0.0063 J0.0108
G2 X9.4725 Y20.29 Z-2.8 I0.0062 J-0.0108
G2 X9.4538 Y20.2792 Z-2.8333 I-0.0125 J0.0
G2 Y20.3008 Z-2.8667 I0.0063 J0.0108
G2 X9.4725 Y20.29 Z-2.9 I0.0062 J-0.0108
G2 X9.4538 Y20.2792 Z-2.9333 I-0.0125 J0.0
G2 Y20.3008 Z-2.9667 I0.0063 J0.0108
G2 X9.4725 Y20.29 Z-3.0 I0.0062 J-0.0108
G2 X9.4538 Y20.2792 Z-3.0333 I-0.0125 J0.0
G2 Y20.3008 Z-3.0667 I0.0063 J0.0108
G2 X9.4725 Y20.29 Z-3.1 I0.0062 J-0.0108
G2 X9.4538 Y20.2792 Z-3.1333 I-0.0125 J0.0
G2 Y20.3008 Z-3.1667 I0.0063 J0.0108
G2 X9.4725 Y20.29 Z-3.2 I0.0062 J-0.0108
G2 X9.4538 Y20.2792 I-0.0125 J0.0
G2 Y20.3008 I0.0063 J0.0108
G2 X9.4725 Y20.29 I0.0062 J-0.0108
G0 Z3.0
G0 X20.1825
G0 Z0.01
G1 F1000.0 Z0.0
G2 F2000.0 X20.1638 Y20.2792 Z-0.0333 I-0.0125 J0.0
G2 Y20.3008 Z-0.0667 I0.0062 J0.0108
G2 X20.1825 Y20.29 Z-0.1 I0.0063 J-0.0108
G2 X20.1638 Y20.2792 Z-0.1333 I-0.0125 J0.0
G2 Y20.3008 Z-0.1667 I0.0062 J0.0108
G2 X20.1825 Y20.29 Z-0.2 I0.0063 J-0.0108
G2 X20.1638 Y20.2792 Z-0.2333 I-0.0125 J0.0
G2 Y20.3008 Z-0.2667 I0.0062 J0.0108
G2 X20.1825 Y20.29 Z-0.3 I0.0063 J-0.0108
G2 X20.1638 Y20.2792 Z-0.3333 I-0.0125 J0.0
G2 Y20.3008 Z-0.3667 I0.0062 J0.0108
G2 X20.1825 Y20.29 Z-0.4 I0.0063 J-0.0108
G2 X20.1638 Y20.2792 Z-0.4333 I-0.0125 J0.0
G2 Y20.3008 Z-0.4667 I0.0062 J0.0108
G2 X20.1825 Y20.29 Z-0.5 I0.0063 J-0.0108
G2 X20.1638 Y20.2792 Z-0.5333 I-0.0125 J0.0
G2 Y20.3008 Z-0.5667 I0.0062 J0.0108
G2 X20.1825 Y20.29 Z-0.6 I0.0063 J-0.0108
G2 X20.1638 Y20.2792 Z-0.6333 I-0.0125 J0.0
G2 Y20.3008 Z-0.6667 I0.0062 J0.0108
G2 X20.1825 Y20.29 Z-0.7 I0.0063 J-0.0108
G2 X20.1638 Y20.2792 Z-0.7333 I-0.0125 J0.0
G2 Y20.3008 Z-0.7667 I0.0062 J0.0108
G2 X20.1825 Y20.29 Z-0.8 I0.0063 J-0.0108
G2 X20.1638 Y20.2792 Z-0.8333 I-0.0125 J0.0
G2 Y20.3008 Z-0.8667 I0.0062 J0.0108
G2 X20.1825 Y20.29 Z-0.9 I0.0063 J-0.0108
G2 X20.1638 Y20.2792 Z-0.9333 I-0.0125 J0.0
G2 Y20.3008 Z-0.9667 I0.0062 J0.0108
G2 X20.1825 Y20.29 Z-1.0 I0.0063 J-0.0108
G2 X20.1638 Y20.2792 Z-1.0333 I-0.0125 J0.0
G2 Y20.3008 Z-1.0667 I0.0062 J0.0108
G2 X20.1825 Y20.29 Z-1.1 I0.0063 J-0.0108
G2 X20.1638 Y20.2792 Z-1.1333 I-0.0125 J0.0
G2 Y20.3008 Z-1.1667 I0.0062 J0.0108
G2 X20.1825 Y20.29 Z-1.2 I0.0063 J-0.0108
G2 X20.1638 Y20.2792 Z-1.2333 I-0.0125 J0.0
G2 Y20.3008 Z-1.2667 I0.0062 J0.0108
G2 X20.1825 Y20.29 Z-1.3 I0.0063 J-0.0108
G2 X20.1638 Y20.2792 Z-1.3333 I-0.0125 J0.0
G2 Y20.3008 Z-1.3667 I0.0062 J0.0108
G2 X20.1825 Y20.29 Z-1.4 I0.0063 J-0.0108
G2 X20.1638 Y20.2792 Z-1.4333 I-0.0125 J0.0
G2 Y20.3008 Z-1.4667 I0.0062 J0.0108
G2 X20.1825 Y20.29 Z-1.5 I0.0063 J-0.0108
G2 X20.1638 Y20.2792 Z-1.5333 I-0.0125 J0.0
G2 Y20.3008 Z-1.5667 I0.0062 J0.0108
G2 X20.1825 Y20.29 Z-1.6 I0.0063 J-0.0108
G2 X20.1638 Y20.2792 Z-1.6333 I-0.0125 J0.0
G2 Y20.3008 Z-1.6667 I0.0062 J0.0108
G2 X20.1825 Y20.29 Z-1.7 I0.0063 J-0.0108
G2 X20.1638 Y20.2792 Z-1.7333 I-0.0125 J0.0
G2 Y20.3008 Z-1.7667 I0.0062 J0.0108
G2 X20.1825 Y20.29 Z-1.8 I0.0063 J-0.0108
G2 X20.1638 Y20.2792 Z-1.8333 I-0.0125 J0.0
G2 Y20.3008 Z-1.8667 I0.0062 J0.0108
G2 X20.1825 Y20.29 Z-1.9 I0.0063 J-0.0108
G2 X20.1638 Y20.2792 Z-1.9333 I-0.0125 J0.0
G2 Y20.3008 Z-1.9667 I0.0062 J0.0108
G2 X20.1825 Y20.29 Z-2.0 I0.0063 J-0.0108
G2 X20.1638 Y20.2792 Z-2.0333 I-0.0125 J0.0
G2 Y20.3008 Z-2.0667 I0.0062 J0.0108
G2 X20.1825 Y20.29 Z-2.1 I0.0063 J-0.0108
G2 X20.1638 Y20.2792 Z-2.1333 I-0.0125 J0.0
G2 Y20.3008 Z-2.1667 I0.0062 J0.0108
G2 X20.1825 Y20.29 Z-2.2 I0.0063 J-0.0108
G2 X20.1638 Y20.2792 Z-2.2333 I-0.0125 J0.0
G2 Y20.3008 Z-2.2667 I0.0062 J0.0108
G2 X20.1825 Y20.29 Z-2.3 I0.0063 J-0.0108
G2 X20.1638 Y20.2792 Z-2.3333 I-0.0125 J0.0
G2 Y20.3008 Z-2.3667 I0.0062 J0.0108
G2 X20.1825 Y20.29 Z-2.4 I0.0063 J-0.0108
G2 X20.1638 Y20.2792 Z-2.4333 I-0.0125 J0.0
G2 Y20.3008 Z-2.4667 I0.0063 J0.0108
G2 X20.1825 Y20.29 Z-2.5 I0.0062 J-0.0108
G2 X20.1638 Y20.2792 Z-2.5333 I-0.0125 J0.0
G2 Y20.3008 Z-2.5667 I0.0063 J0.0108
G2 X20.1825 Y20.29 Z-2.6 I0.0062 J-0.0108
G2 X20.1638 Y20.2792 Z-2.6333 I-0.0125 J0.0
G2 Y20.3008 Z-2.6667 I0.0063 J0.0108
G2 X20.1825 Y20.29 Z-2.7 I0.0062 J-0.0108
G2 X20.1638 Y20.2792 Z-2.7333 I-0.0125 J0.0
G2 Y20.3008 Z-2.7667 I0.0063 J0.0108
G2 X20.1825 Y20.29 Z-2.8 I0.0062 J-0.0108
G2 X20.1638 Y20.2792 Z-2.8333 I-0.0125 J0.0
G2 Y20.3008 Z-2.8667 I0.0063 J0.0108
G2 X20.1825 Y20.29 Z-2.9 I0.0062 J-0.0108
G2 X20.1638 Y20.2792 Z-2.9333 I-0.0125 J0.0
G2 Y20.3008 Z-2.9667 I0.0063 J0.0108
G2 X20.1825 Y20.29 Z-3.0 I0.0062 J-0.0108
G2 X20.1638 Y20.2792 Z-3.0333 I-0.0125 J0.0
G2 Y20.3008 Z-3.0667 I0.0063 J0.0108
G2 X20.1825 Y20.29 Z-3.1 I0.0062 J-0.0108
G2 X20.1638 Y20.2792 Z-3.1333 I-0.0125 J0.0
G2 Y20.3008 Z-3.1667 I0.0063 J0.0108
G2 X20.1825 Y20.29 Z-3.2 I0.0062 J-0.0108
G2 X20.1638 Y20.2792 I-0.0125 J0.0
G2 Y20.3008 I0.0063 J0.0108
G2 X20.1825 Y20.29 I0.0062 J-0.0108
G0 Z3.0
G0 X30.8925
G0 Z0.01
G1 F1000.0 Z0.0
G2 F2000.0 X30.8738 Y20.2792 Z-0.0333 I-0.0125 J0.0
G2 Y20.3008 Z-0.0667 I0.0062 J0.0108
G2 X30.8925 Y20.29 Z-0.1 I0.0063 J-0.0108
G2 X30.8738 Y20.2792 Z-0.1333 I-0.0125 J0.0
G2 Y20.3008 Z-0.1667 I0.0062 J0.0108
G2 X30.8925 Y20.29 Z-0.2 I0.0063 J-0.0108
G2 X30.8738 Y20.2792 Z-0.2333 I-0.0125 J0.0
G2 Y20.3008 Z-0.2667 I0.0062 J0.0108
G2 X30.8925 Y20.29 Z-0.3 I0.0063 J-0.0108
G2 X30.8738 Y20.2792 Z-0.3333 I-0.0125 J0.0
G2 Y20.3008 Z-0.3667 I0.0062 J0.0108
G2 X30.8925 Y20.29 Z-0.4 I0.0063 J-0.0108
G2 X30.8738 Y20.2792 Z-0.4333 I-0.0125 J0.0
G2 Y20.3008 Z-0.4667 I0.0062 J0.0108
G2 X30.8925 Y20.29 Z-0.5 I0.0063 J-0.0108
G2 X30.8738 Y20.2792 Z-0.5333 I-0.0125 J0.0
G2 Y20.3008 Z-0.5667 I0.0062 J0.0108
G2 X30.8925 Y20.29 Z-0.6 I0.0063 J-0.0108
G2 X30.8738 Y20.2792 Z-0.6333 I-0.0125 J0.0
G2 Y20.3008 Z-0.6667 I0.0062 J0.0108
G2 X30.8925 Y20.29 Z-0.7 I0.0063 J-0.0108
G2 X30.8738 Y20.2792 Z-0.7333 I-0.0125 J0.0
G2 Y20.3008 Z-0.7667 I0.0062 J0.0108
G2 X30.8925 Y20.29 Z-0.8 I0.0063 J-0.0108
G2 X30.8738 Y20.2792 Z-0.8333 I-0.0125 J0.0
G2 Y20.3008 Z-0.8667 I0.0062 J0.0108
G2 X30.8925 Y20.29 Z-0.9 I0.0063 J-0.0108
G2 X30.8738 Y20.2792 Z-0.9333 I-0.0125 J0.0
G2 Y20.3008 Z-0.9667 I0.0062 J0.0108
G2 X30.8925 Y20.29 Z-1.0 I0.0063 J-0.0108
G2 X30.8738 Y20.2792 Z-1.0333 I-0.0125 J0.0
G2 Y20.3008 Z-1.0667 I0.0062 J0.0108
G2 X30.8925 Y20.29 Z-1.1 I0.0063 J-0.0108
G2 X30.8738 Y20.2792 Z-1.1333 I-0.0125 J0.0
G2 Y20.3008 Z-1.1667 I0.0062 J0.0108
G2 X30.8925 Y20.29 Z-1.2 I0.0063 J-0.0108
G2 X30.8738 Y20.2792 Z-1.2333 I-0.0125 J0.0
G2 Y20.3008 Z-1.2667 I0.0062 J0.0108
G2 X30.8925 Y20.29 Z-1.3 I0.0063 J-0.0108
G2 X30.8738 Y20.2792 Z-1.3333 I-0.0125 J0.0
G2 Y20.3008 Z-1.3667 I0.0062 J0.0108
G2 X30.8925 Y20.29 Z-1.4 I0.0063 J-0.0108
G2 X30.8738 Y20.2792 Z-1.4333 I-0.0125 J0.0
G2 Y20.3008 Z-1.4667 I0.0062 J0.0108
G2 X30.8925 Y20.29 Z-1.5 I0.0063 J-0.0108
G2 X30.8738 Y20.2792 Z-1.5333 I-0.0125 J0.0
G2 Y20.3008 Z-1.5667 I0.0062 J0.0108
G2 X30.8925 Y20.29 Z-1.6 I0.0063 J-0.0108
G2 X30.8738 Y20.2792 Z-1.6333 I-0.0125 J0.0
G2 Y20.3008 Z-1.6667 I0.0062 J0.0108
G2 X30.8925 Y20.29 Z-1.7 I0.0063 J-0.0108
G2 X30.8738 Y20.2792 Z-1.7333 I-0.0125 J0.0
G2 Y20.3008 Z-1.7667 I0.0062 J0.0108
G2 X30.8925 Y20.29 Z-1.8 I0.0063 J-0.0108
G2 X30.8738 Y20.2792 Z-1.8333 I-0.0125 J0.0
G2 Y20.3008 Z-1.8667 I0.0062 J0.0108
G2 X30.8925 Y20.29 Z-1.9 I0.0063 J-0.0108
G2 X30.8738 Y20.2792 Z-1.9333 I-0.0125 J0.0
G2 Y20.3008 Z-1.9667 I0.0062 J0.0108
G2 X30.8925 Y20.29 Z-2.0 I0.0063 J-0.0108
G2 X30.8738 Y20.2792 Z-2.0333 I-0.0125 J0.0
G2 Y20.3008 Z-2.0667 I0.0062 J0.0108
G2 X30.8925 Y20.29 Z-2.1 I0.0063 J-0.0108
G2 X30.8738 Y20.2792 Z-2.1333 I-0.0125 J0.0
G2 Y20.3008 Z-2.1667 I0.0062 J0.0108
G2 X30.8925 Y20.29 Z-2.2 I0.0063 J-0.0108
G2 X30.8738 Y20.2792 Z-2.2333 I-0.0125 J0.0
G2 Y20.3008 Z-2.2667 I0.0062 J0.0108
G2 X30.8925 Y20.29 Z-2.3 I0.0063 J-0.0108
G2 X30.8738 Y20.2792 Z-2.3333 I-0.0125 J0.0
G2 Y20.3008 Z-2.3667 I0.0062 J0.0108
G2 X30.8925 Y20.29 Z-2.4 I0.0063 J-0.0108
G2 X30.8738 Y20.2792 Z-2.4333 I-0.0125 J0.0
G2 Y20.3008 Z-2.4667 I0.0063 J0.0108
G2 X30.8925 Y20.29 Z-2.5 I0.0062 J-0.0108
G2 X30.8738 Y20.2792 Z-2.5333 I-0.0125 J0.0
G2 Y20.3008 Z-2.5667 I0.0063 J0.0108
G2 X30.8925 Y20.29 Z-2.6 I0.0062 J-0.0108
G2 X30.8738 Y20.2792 Z-2.6333 I-0.0125 J0.0
G2 Y20.3008 Z-2.6667 I0.0063 J0.0108
G2 X30.8925 Y20.29 Z-2.7 I0.0062 J-0.0108
G2 X30.8738 Y20.2792 Z-2.7333 I-0.0125 J0.0
G2 Y20.3008 Z-2.7667 I0.0063 J0.0108
G2 X30.8925 Y20.29 Z-2.8 I0.0062 J-0.0108
G2 X30.8738 Y20.2792 Z-2.8333 I-0.0125 J0.0
G2 Y20.3008 Z-2.8667 I0.0063 J0.0108
G2 X30.8925 Y20.29 Z-2.9 I0.0062 J-0.0108
G2 X30.8738 Y20.2792 Z-2.9333 I-0.0125 J0.0
G2 Y20.3008 Z-2.9667 I0.0063 J0.0108
G2 X30.8925 Y20.29 Z-3.0 I0.0062 J-0.0108
G2 X30.8738 Y20.2792 Z-3.0333 I-0.0125 J0.0
G2 Y20.3008 Z-3.0667 I0.0063 J0.0108
G2 X30.8925 Y20.29 Z-3.1 I0.0062 J-0.0108
G2 X30.8738 Y20.2792 Z-3.1333 I-0.0125 J0.0
G2 Y20.3008 Z-3.1667 I0.0063 J0.0108
G2 X30.8925 Y20.29 Z-3.2 I0.0062 J-0.0108
G2 X30.8738 Y20.2792 I-0.0125 J0.0
G2 Y20.3008 I0.0063 J0.0108
G2 X30.8925 Y20.29 I0.0062 J-0.0108
G0 Z3.0
G0 X32.9125 Y3.0
G0 Z0.01
G1 F1000.0 Z0.0
G2 F2000.0 X32.8937 Y2.9892 Z-0.0333 I-0.0125 J0.0
G2 Y3.0108 Z-0.0667 I0.0063 J0.0108
G2 X32.9125 Y3.0 Z-0.1 I0.0063 J-0.0108
G2 X32.8937 Y2.9892 Z-0.1333 I-0.0125 J0.0
G2 Y3.0108 Z-0.1667 I0.0063 J0.0108
G2 X32.9125 Y3.0 Z-0.2 I0.0063 J-0.0108
G2 X32.8937 Y2.9892 Z-0.2333 I-0.0125 J0.0
G2 Y3.0108 Z-0.2667 I0.0063 J0.0108
G2 X32.9125 Y3.0 Z-0.3 I0.0063 J-0.0108
G2 X32.8937 Y2.9892 Z-0.3333 I-0.0125 J0.0
G2 Y3.0108 Z-0.3667 I0.0063 J0.0108
G2 X32.9125 Y3.0 Z-0.4 I0.0063 J-0.0108
G2 X32.8937 Y2.9892 Z-0.4333 I-0.0125 J0.0
G2 Y3.0108 Z-0.4667 I0.0063 J0.0108
G2 X32.9125 Y3.0 Z-0.5 I0.0063 J-0.0108
G2 X32.8937 Y2.9892 Z-0.5333 I-0.0125 J0.0
G2 Y3.0108 Z-0.5667 I0.0063 J0.0108
G2 X32.9125 Y3.0 Z-0.6 I0.0063 J-0.0108
G2 X32.8937 Y2.9892 Z-0.6333 I-0.0125 J0.0
G2 Y3.0108 Z-0.6667 I0.0063 J0.0108
G2 X32.9125 Y3.0 Z-0.7 I0.0063 J-0.0108
G2 X32.8937 Y2.9892 Z-0.7333 I-0.0125 J0.0
G2 Y3.0108 Z-0.7667 I0.0063 J0.0108
G2 X32.9125 Y3.0 Z-0.8 I0.0063 J-0.0108
G2 X32.8937 Y2.9892 Z-0.8333 I-0.0125 J0.0
G2 Y3.0108 Z-0.8667 I0.0063 J0.0108
G2 X32.9125 Y3.0 Z-0.9 I0.0063 J-0.0108
G2 X32.8937 Y2.9892 Z-0.9333 I-0.0125 J0.0
G2 Y3.0108 Z-0.9667 I0.0063 J0.0108
G2 X32.9125 Y3.0 Z-1.0 I0.0063 J-0.0108
G2 X32.8937 Y2.9892 Z-1.0333 I-0.0125 J0.0
G2 Y3.0108 Z-1.0667 I0.0063 J0.0108
G2 X32.9125 Y3.0 Z-1.1 I0.0063 J-0.0108
G2 X32.8937 Y2.9892 Z-1.1333 I-0.0125 J0.0
G2 Y3.0108 Z-1.1667 I0.0063 J0.0108
G2 X32.9125 Y3.0 Z-1.2 I0.0063 J-0.0108
G2 X32.8937 Y2.9892 Z-1.2333 I-0.0125 J0.0
G2 Y3.0108 Z-1.2667 I0.0063 J0.0108
G2 X32.9125 Y3.0 Z-1.3 I0.0063 J-0.0108
G2 X32.8937 Y2.9892 Z-1.3333 I-0.0125 J0.0
G2 Y3.0108 Z-1.3667 I0.0063 J0.0108
G2 X32.9125 Y3.0 Z-1.4 I0.0063 J-0.0108
G2 X32.8937 Y2.9892 Z-1.4333 I-0.0125 J0.0
G2 Y3.0108 Z-1.4667 I0.0063 J0.0108
G2 X32.9125 Y3.0 Z-1.5 I0.0063 J-0.0108
G2 X32.8937 Y2.9892 Z-1.5333 I-0.0125 J0.0
G2 Y3.0108 Z-1.5667 I0.0063 J0.0108
G2 X32.9125 Y3.0 Z-1.6 I0.0063 J-0.0108
G2 X32.8937 Y2.9892 Z-1.6333 I-0.0125 J0.0
G2 Y3.0108 Z-1.6667 I0.0063 J0.0108
G2 X32.9125 Y3.0 Z-1.7 I0.0063 J-0.0108
G2 X32.8937 Y2.9892 Z-1.7333 I-0.0125 J0.0
G2 Y3.0108 Z-1.7667 I0.0063 J0.0108
G2 X32.9125 Y3.0 Z-1.8 I0.0063 J-0.0108
G2 X32.8937 Y2.9892 Z-1.8333 I-0.0125 J0.0
G2 Y3.0108 Z-1.8667 I0.0063 J0.0108
G2 X32.9125 Y3.0 Z-1.9 I0.0063 J-0.0108
G2 X32.8937 Y2.9892 Z-1.9333 I-0.0125 J0.0
G2 Y3.0108 Z-1.9667 I0.0063 J0.0108
G2 X32.9125 Y3.0 Z-2.0 I0.0063 J-0.0108
G2 X32.8937 Y2.9892 Z-2.0333 I-0.0125 J0.0
G2 Y3.0108 Z-2.0667 I0.0063 J0.0108
G2 X32.9125 Y3.0 Z-2.1 I0.0063 J-0.0108
G2 X32.8937 Y2.9892 Z-2.1333 I-0.0125 J0.0
G2 Y3.0108 Z-2.1667 I0.0063 J0.0108
G2 X32.9125 Y3.0 Z-2.2 I0.0063 J-0.0108
G2 X32.8937 Y2.9892 Z-2.2333 I-0.0125 J0.0
G2 Y3.0108 Z-2.2667 I0.0063 J0.0108
G2 X32.9125 Y3.0 Z-2.3 I0.0063 J-0.0108
G2 X32.8937 Y2.9892 Z-2.3333 I-0.0125 J0.0
G2 Y3.0108 Z-2.3667 I0.0063 J0.0108
G2 X32.9125 Y3.0 Z-2.4 I0.0063 J-0.0108
G2 X32.8937 Y2.9892 Z-2.4333 I-0.0125 J0.0
G2 Y3.0108 Z-2.4667 I0.0063 J0.0108
G2 X32.9125 Y3.0 Z-2.5 I0.0063 J-0.0108
G2 X32.8937 Y2.9892 Z-2.5333 I-0.0125 J0.0
G2 Y3.0108 Z-2.5667 I0.0063 J0.0108
G2 X32.9125 Y3.0 Z-2.6 I0.0063 J-0.0108
G2 X32.8937 Y2.9892 Z-2.6333 I-0.0125 J0.0
G2 Y3.0108 Z-2.6667 I0.0063 J0.0108
G2 X32.9125 Y3.0 Z-2.7 I0.0063 J-0.0108
G2 X32.8937 Y2.9892 Z-2.7333 I-0.0125 J0.0
G2 Y3.0108 Z-2.7667 I0.0063 J0.0108
G2 X32.9125 Y3.0 Z-2.8 I0.0063 J-0.0108
G2 X32.8937 Y2.9892 Z-2.8333 I-0.0125 J0.0
G2 Y3.0108 Z-2.8667 I0.0063 J0.0108
G2 X32.9125 Y3.0 Z-2.9 I0.0063 J-0.0108
G2 X32.8937 Y2.9892 Z-2.9333 I-0.0125 J0.0
G2 Y3.0108 Z-2.9667 I0.0063 J0.0108
G2 X32.9125 Y3.0 Z-3.0 I0.0062 J-0.0108
G2 X32.8937 Y2.9892 Z-3.0333 I-0.0125 J0.0
G2 Y3.0108 Z-3.0667 I0.0063 J0.0108
G2 X32.9125 Y3.0 Z-3.1 I0.0062 J-0.0108
G2 X32.8937 Y2.9892 Z-3.1333 I-0.0125 J0.0
G2 Y3.0108 Z-3.1667 I0.0063 J0.0108
G2 X32.9125 Y3.0 Z-3.2 I0.0062 J-0.0108
G2 X32.8937 Y2.9892 I-0.0125 J0.0
G2 Y3.0108 I0.0063 J0.0108
G2 X32.9125 Y3.0 I0.0062 J-0.0108
G0 Z3.0
G0 X7.5125
G0 Z0.01
G1 F1000.0 Z0.0
G2 F2000.0 X7.4938 Y2.9892 Z-0.0333 I-0.0125 J0.0
G2 Y3.0108 Z-0.0667 I0.0062 J0.0108
G2 X7.5125 Y3.0 Z-0.1 I0.0063 J-0.0108
G2 X7.4938 Y2.9892 Z-0.1333 I-0.0125 J0.0
G2 Y3.0108 Z-0.1667 I0.0062 J0.0108
G2 X7.5125 Y3.0 Z-0.2 I0.0063 J-0.0108
G2 X7.4938 Y2.9892 Z-0.2333 I-0.0125 J0.0
G2 Y3.0108 Z-0.2667 I0.0062 J0.0108
G2 X7.5125 Y3.0 Z-0.3 I0.0063 J-0.0108
G2 X7.4938 Y2.9892 Z-0.3333 I-0.0125 J0.0
G2 Y3.0108 Z-0.3667 I0.0063 J0.0108
G2 X7.5125 Y3.0 Z-0.4 I0.0062 J-0.0108
G2 X7.4938 Y2.9892 Z-0.4333 I-0.0125 J0.0
G2 Y3.0108 Z-0.4667 I0.0063 J0.0108
G2 X7.5125 Y3.0 Z-0.5 I0.0062 J-0.0108
G2 X7.4938 Y2.9892 Z-0.5333 I-0.0125 J0.0
G2 Y3.0108 Z-0.5667 I0.0063 J0.0108
G2 X7.5125 Y3.0 Z-0.6 I0.0062 J-0.0108
G2 X7.4938 Y2.9892 Z-0.6333 I-0.0125 J0.0
G2 Y3.0108 Z-0.6667 I0.0062 J0.0108
G2 X7.5125 Y3.0 Z-0.7 I0.0063 J-0.0108
G2 X7.4938 Y2.9892 Z-0.7333 I-0.0125 J0.0
G2 Y3.0108 Z-0.7667 I0.0062 J0.0108
G2 X7.5125 Y3.0 Z-0.8 I0.0063 J-0.0108
G2 X7.4938 Y2.9892 Z-0.8333 I-0.0125 J0.0
G2 Y3.0108 Z-0.8667 I0.0062 J0.0108
G2 X7.5125 Y3.0 Z-0.9 I0.0063 J-0.0108
G2 X7.4938 Y2.9892 Z-0.9333 I-0.0125 J0.0
G2 Y3.0108 Z-0.9667 I0.0062 J0.0108
G2 X7.5125 Y3.0 Z-1.0 I0.0063 J-0.0108
G2 X7.4938 Y2.9892 Z-1.0333 I-0.0125 J0.0
G2 Y3.0108 Z-1.0667 I0.0062 J0.0108
G2 X7.5125 Y3.0 Z-1.1 I0.0063 J-0.0108
G2 X7.4938 Y2.9892 Z-1.1333 I-0.0125 J0.0
G2 Y3.0108 Z-1.1667 I0.0062 J0.0108
G2 X7.5125 Y3.0 Z-1.2 I0.0063 J-0.0108
G2 X7.4938 Y2.9892 Z-1.2333 I-0.0125 J0.0
G2 Y3.0108 Z-1.2667 I0.0062 J0.0108
G2 X7.5125 Y3.0 Z-1.3 I0.0063 J-0.0108
G2 X7.4938 Y2.9892 Z-1.3333 I-0.0125 J0.0
G2 Y3.0108 Z-1.3667 I0.0062 J0.0108
G2 X7.5125 Y3.0 Z-1.4 I0.0063 J-0.0108
G2 X7.4938 Y2.9892 Z-1.4333 I-0.0125 J0.0
G2 Y3.0108 Z-1.4667 I0.0062 J0.0108
G2 X7.5125 Y3.0 Z-1.5 I0.0063 J-0.0108
G2 X7.4938 Y2.9892 Z-1.5333 I-0.0125 J0.0
G2 Y3.0108 Z-1.5667 I0.0062 J0.0108
G2 X7.5125 Y3.0 Z-1.6 I0.0063 J-0.0108
G2 X7.4938 Y2.9892 Z-1.6333 I-0.0125 J0.0
G2 Y3.0108 Z-1.6667 I0.0062 J0.0108
G2 X7.5125 Y3.0 Z-1.7 I0.0063 J-0.0108
G2 X7.4938 Y2.9892 Z-1.7333 I-0.0125 J0.0
G2 Y3.0108 Z-1.7667 I0.0062 J0.0108
G2 X7.5125 Y3.0 Z-1.8 I0.0063 J-0.0108
G2 X7.4938 Y2.9892 Z-1.8333 I-0.0125 J0.0
G2 Y3.0108 Z-1.8667 I0.0062 J0.0108
G2 X7.5125 Y3.0 Z-1.9 I0.0063 J-0.0108
G2 X7.4938 Y2.9892 Z-1.9333 I-0.0125 J0.0
G2 Y3.0108 Z-1.9667 I0.0062 J0.0108
G2 X7.5125 Y3.0 Z-2.0 I0.0063 J-0.0108
G2 X7.4938 Y2.9892 Z-2.0333 I-0.0125 J0.0
G2 Y3.0108 Z-2.0667 I0.0062 J0.0108
G2 X7.5125 Y3.0 Z-2.1 I0.0063 J-0.0108
G2 X7.4938 Y2.9892 Z-2.1333 I-0.0125 J0.0
G2 Y3.0108 Z-2.1667 I0.0062 J0.0108
G2 X7.5125 Y3.0 Z-2.2 I0.0063 J-0.0108
G2 X7.4938 Y2.9892 Z-2.2333 I-0.0125 J0.0
G2 Y3.0108 Z-2.2667 I0.0062 J0.0108
G2 X7.5125 Y3.0 Z-2.3 I0.0063 J-0.0108
G2 X7.4938 Y2.9892 Z-2.3333 I-0.0125 J0.0
G2 Y3.0108 Z-2.3667 I0.0063 J0.0108
G2 X7.5125 Y3.0 Z-2.4 I0.0062 J-0.0108
G2 X7.4938 Y2.9892 Z-2.4333 I-0.0125 J0.0
G2 Y3.0108 Z-2.4667 I0.0063 J0.0108
G2 X7.5125 Y3.0 Z-2.5 I0.0062 J-0.0108
G2 X7.4938 Y2.9892 Z-2.5333 I-0.0125 J0.0
G2 Y3.0108 Z-2.5667 I0.0063 J0.0108
G2 X7.5125 Y3.0 Z-2.6 I0.0062 J-0.0108
G2 X7.4938 Y2.9892 Z-2.6333 I-0.0125 J0.0
G2 Y3.0108 Z-2.6667 I0.0063 J0.0108
G2 X7.5125 Y3.0 Z-2.7 I0.0062 J-0.0108
G2 X7.4938 Y2.9892 Z-2.7333 I-0.0125 J0.0
G2 Y3.0108 Z-2.7667 I0.0063 J0.0108
G2 X7.5125 Y3.0 Z-2.8 I0.0062 J-0.0108
G2 X7.4938 Y2.9892 Z-2.8333 I-0.0125 J0.0
G2 Y3.0108 Z-2.8667 I0.0063 J0.0108
G2 X7.5125 Y3.0 Z-2.9 I0.0062 J-0.0108
G2 X7.4938 Y2.9892 Z-2.9333 I-0.0125 J0.0
G2 Y3.0108 Z-2.9667 I0.0063 J0.0108
G2 X7.5125 Y3.0 Z-3.0 I0.0062 J-0.0108
G2 X7.4938 Y2.9892 Z-3.0333 I-0.0125 J0.0
G2 Y3.0108 Z-3.0667 I0.0063 J0.0108
G2 X7.5125 Y3.0 Z-3.1 I0.0062 J-0.0108
G2 X7.4938 Y2.9892 Z-3.1333 I-0.0125 J0.0
G2 Y3.0108 Z-3.1667 I0.0063 J0.0108
G2 X7.5125 Y3.0 Z-3.2 I0.0062 J-0.0108
G2 X7.4938 Y2.9892 I-0.0125 J0.0
G2 Y3.0108 I0.0063 J0.0108
G2 X7.5125 Y3.0 I0.0062 J-0.0108
G0 Z3.0
G0 X20.2825 Y34.62
G0 Z0.01
G1 F1000.0 Z0.0
G2 F2000.0 X20.2638 Y34.6092 Z-0.0333 I-0.0125 J0.0
G2 Y34.6308 Z-0.0667 I0.0063 J0.0108
G2 X20.2825 Y34.62 Z-0.1 I0.0062 J-0.0108
G2 X20.2638 Y34.6092 Z-0.1333 I-0.0125 J0.0
G2 Y34.6308 Z-0.1667 I0.0063 J0.0108
G2 X20.2825 Y34.62 Z-0.2 I0.0062 J-0.0108
G2 X20.2638 Y34.6092 Z-0.2333 I-0.0125 J0.0
G2 Y34.6308 Z-0.2667 I0.0063 J0.0108
G2 X20.2825 Y34.62 Z-0.3 I0.0062 J-0.0108
G2 X20.2638 Y34.6092 Z-0.3333 I-0.0125 J0.0
G2 Y34.6308 Z-0.3667 I0.0063 J0.0108
G2 X20.2825 Y34.62 Z-0.4 I0.0062 J-0.0108
G2 X20.2638 Y34.6092 Z-0.4333 I-0.0125 J0.0
G2 Y34.6308 Z-0.4667 I0.0063 J0.0108
G2 X20.2825 Y34.62 Z-0.5 I0.0062 J-0.0108
G2 X20.2638 Y34.6092 Z-0.5333 I-0.0125 J0.0
G2 Y34.6308 Z-0.5667 I0.0063 J0.0108
G2 X20.2825 Y34.62 Z-0.6 I0.0062 J-0.0108
G2 X20.2638 Y34.6092 Z-0.6333 I-0.0125 J0.0
G2 Y34.6308 Z-0.6667 I0.0063 J0.0108
G2 X20.2825 Y34.62 Z-0.7 I0.0062 J-0.0108
G2 X20.2638 Y34.6092 Z-0.7333 I-0.0125 J0.0
G2 Y34.6308 Z-0.7667 I0.0063 J0.0108
G2 X20.2825 Y34.62 Z-0.8 I0.0062 J-0.0108
G2 X20.2638 Y34.6092 Z-0.8333 I-0.0125 J0.0
G2 Y34.6308 Z-0.8667 I0.0063 J0.0108
G2 X20.2825 Y34.62 Z-0.9 I0.0062 J-0.0108
G2 X20.2638 Y34.6092 Z-0.9333 I-0.0125 J0.0
G2 Y34.6308 Z-0.9667 I0.0063 J0.0108
G2 X20.2825 Y34.62 Z-1.0 I0.0062 J-0.0108
G2 X20.2638 Y34.6092 Z-1.0333 I-0.0125 J0.0
G2 Y34.6308 Z-1.0667 I0.0063 J0.0108
G2 X20.2825 Y34.62 Z-1.1 I0.0062 J-0.0108
G2 X20.2638 Y34.6092 Z-1.1333 I-0.0125 J0.0
G2 Y34.6308 Z-1.1667 I0.0063 J0.0108
G2 X20.2825 Y34.62 Z-1.2 I0.0062 J-0.0108
G2 X20.2638 Y34.6092 Z-1.2333 I-0.0125 J0.0
G2 Y34.6308 Z-1.2667 I0.0063 J0.0108
G2 X20.2825 Y34.62 Z-1.3 I0.0062 J-0.0108
G2 X20.2638 Y34.6092 Z-1.3333 I-0.0125 J0.0
G2 Y34.6308 Z-1.3667 I0.0063 J0.0108
G2 X20.2825 Y34.62 Z-1.4 I0.0062 J-0.0108
G2 X20.2638 Y34.6092 Z-1.4333 I-0.0125 J0.0
G2 Y34.6308 Z-1.4667 I0.0063 J0.0108
G2 X20.2825 Y34.62 Z-1.5 I0.0062 J-0.0108
G2 X20.2638 Y34.6092 Z-1.5333 I-0.0125 J0.0
G2 Y34.6308 Z-1.5667 I0.0063 J0.0108
G2 X20.2825 Y34.62 Z-1.6 I0.0062 J-0.0108
G2 X20.2638 Y34.6092 Z-1.6333 I-0.0125 J0.0
G2 Y34.6308 Z-1.6667 I0.0063 J0.0108
G2 X20.2825 Y34.62 Z-1.7 I0.0062 J-0.0108
G2 X20.2638 Y34.6092 Z-1.7333 I-0.0125 J0.0
G2 Y34.6308 Z-1.7667 I0.0063 J0.0108
G2 X20.2825 Y34.62 Z-1.8 I0.0062 J-0.0108
G2 X20.2638 Y34.6092 Z-1.8333 I-0.0125 J0.0
G2 Y34.6308 Z-1.8667 I0.0063 J0.0108
G2 X20.2825 Y34.62 Z-1.9 I0.0062 J-0.0108
G2 X20.2638 Y34.6092 Z-1.9333 I-0.0125 J0.0
G2 Y34.6308 Z-1.9667 I0.0063 J0.0108
G2 X20.2825 Y34.62 Z-2.0 I0.0062 J-0.0108
G2 X20.2638 Y34.6092 Z-2.0333 I-0.0125 J0.0
G2 Y34.6308 Z-2.0667 I0.0063 J0.0108
G2 X20.2825 Y34.62 Z-2.1 I0.0062 J-0.0108
G2 X20.2638 Y34.6092 Z-2.1333 I-0.0125 J0.0
G2 Y34.6308 Z-2.1667 I0.0063 J0.0108
G2 X20.2825 Y34.62 Z-2.2 I0.0062 J-0.0108
G2 X20.2638 Y34.6092 Z-2.2333 I-0.0125 J0.0
G2 Y34.6308 Z-2.2667 I0.0063 J0.0108
G2 X20.2825 Y34.62 Z-2.3 I0.0062 J-0.0108
G2 X20.2638 Y34.6092 Z-2.3333 I-0.0125 J0.0
G2 Y34.6308 Z-2.3667 I0.0063 J0.0108
G2 X20.2825 Y34.62 Z-2.4 I0.0062 J-0.0108
G2 X20.2638 Y34.6092 Z-2.4333 I-0.0125 J0.0
G2 Y34.6308 Z-2.4667 I0.0063 J0.0108
G2 X20.2825 Y34.62 Z-2.5 I0.0062 J-0.0108
G2 X20.2638 Y34.6092 Z-2.5333 I-0.0125 J0.0
G2 Y34.6308 Z-2.5667 I0.0063 J0.0108
G2 X20.2825 Y34.62 Z-2.6 I0.0062 J-0.0108
G2 X20.2638 Y34.6092 Z-2.6333 I-0.0125 J0.0
G2 Y34.6308 Z-2.6667 I0.0063 J0.0108
G2 X20.2825 Y34.62 Z-2.7 I0.0062 J-0.0108
G2 X20.2638 Y34.6092 Z-2.7333 I-0.0125 J0.0
G2 Y34.6308 Z-2.7667 I0.0063 J0.0108
G2 X20.2825 Y34.62 Z-2.8 I0.0062 J-0.0108
G2 X20.2638 Y34.6092 Z-2.8333 I-0.0125 J0.0
G2 Y34.6308 Z-2.8667 I0.0063 J0.0108
G2 X20.2825 Y34.62 Z-2.9 I0.0062 J-0.0108
G2 X20.2638 Y34.6092 Z-2.9333 I-0.0125 J0.0
G2 Y34.6308 Z-2.9667 I0.0063 J0.0108
G2 X20.2825 Y34.62 Z-3.0 I0.0062 J-0.0108
G2 X20.2638 Y34.6092 Z-3.0333 I-0.0125 J0.0
G2 Y34.6308 Z-3.0667 I0.0063 J0.0108
G2 X20.2825 Y34.62 Z-3.1 I0.0062 J-0.0108
G2 X20.2638 Y34.6092 Z-3.1333 I-0.0125 J0.0
G2 Y34.6308 Z-3.1667 I0.0063 J0.0108
G2 X20.2825 Y34.62 Z-3.2 I0.0062 J-0.0108
G2 X20.2638 Y34.6092 I-0.0125 J0.0
G2 Y34.6308 I0.0063 J0.0108
G2 X20.2825 Y34.62 I0.0062 J-0.0108
G0 Z3.0
G0 X32.8825 Y38.5
G0 Z0.01
G1 F1000.0 Z0.0
G2 F2000.0 X32.8638 Y38.4892 Z-0.0333 I-0.0125 J0.0
G2 Y38.5108 Z-0.0667 I0.0063 J0.0108
G2 X32.8825 Y38.5 Z-0.1 I0.0063 J-0.0108
G2 X32.8638 Y38.4892 Z-0.1333 I-0.0125 J0.0
G2 Y38.5108 Z-0.1667 I0.0063 J0.0108
G2 X32.8825 Y38.5 Z-0.2 I0.0063 J-0.0108
G2 X32.8638 Y38.4892 Z-0.2333 I-0.0125 J0.0
G2 Y38.5108 Z-0.2667 I0.0063 J0.0108
G2 X32.8825 Y38.5 Z-0.3 I0.0063 J-0.0108
G2 X32.8638 Y38.4892 Z-0.3333 I-0.0125 J0.0
G2 Y38.5108 Z-0.3667 I0.0063 J0.0108
G2 X32.8825 Y38.5 Z-0.4 I0.0063 J-0.0108
G2 X32.8638 Y38.4892 Z-0.4333 I-0.0125 J0.0
G2 Y38.5108 Z-0.4667 I0.0063 J0.0108
G2 X32.8825 Y38.5 Z-0.5 I0.0063 J-0.0108
G2 X32.8638 Y38.4892 Z-0.5333 I-0.0125 J0.0
G2 Y38.5108 Z-0.5667 I0.0063 J0.0108
G2 X32.8825 Y38.5 Z-0.6 I0.0063 J-0.0108
G2 X32.8638 Y38.4892 Z-0.6333 I-0.0125 J0.0
G2 Y38.5108 Z-0.6667 I0.0063 J0.0108
G2 X32.8825 Y38.5 Z-0.7 I0.0063 J-0.0108
G2 X32.8638 Y38.4892 Z-0.7333 I-0.0125 J0.0
G2 Y38.5108 Z-0.7667 I0.0063 J0.0108
G2 X32.8825 Y38.5 Z-0.8 I0.0063 J-0.0108
G2 X32.8638 Y38.4892 Z-0.8333 I-0.0125 J0.0
G2 Y38.5108 Z-0.8667 I0.0063 J0.0108
G2 X32.8825 Y38.5 Z-0.9 I0.0063 J-0.0108
G2 X32.8638 Y38.4892 Z-0.9333 I-0.0125 J0.0
G2 Y38.5108 Z-0.9667 I0.0063 J0.0108
G2 X32.8825 Y38.5 Z-1.0 I0.0063 J-0.0108
G2 X32.8638 Y38.4892 Z-1.0333 I-0.0125 J0.0
G2 Y38.5108 Z-1.0667 I0.0063 J0.0108
G2 X32.8825 Y38.5 Z-1.1 I0.0063 J-0.0108
G2 X32.8638 Y38.4892 Z-1.1333 I-0.0125 J0.0
G2 Y38.5108 Z-1.1667 I0.0063 J0.0108
G2 X32.8825 Y38.5 Z-1.2 I0.0063 J-0.0108
G2 X32.8638 Y38.4892 Z-1.2333 I-0.0125 J0.0
G2 Y38.5108 Z-1.2667 I0.0063 J0.0108
G2 X32.8825 Y38.5 Z-1.3 I0.0063 J-0.0108
G2 X32.8638 Y38.4892 Z-1.3333 I-0.0125 J0.0
G2 Y38.5108 Z-1.3667 I0.0063 J0.0108
G2 X32.8825 Y38.5 Z-1.4 I0.0063 J-0.0108
G2 X32.8638 Y38.4892 Z-1.4333 I-0.0125 J0.0
G2 Y38.5108 Z-1.4667 I0.0063 J0.0108
G2 X32.8825 Y38.5 Z-1.5 I0.0063 J-0.0108
G2 X32.8638 Y38.4892 Z-1.5333 I-0.0125 J0.0
G2 Y38.5108 Z-1.5667 I0.0063 J0.0108
G2 X32.8825 Y38.5 Z-1.6 I0.0063 J-0.0108
G2 X32.8638 Y38.4892 Z-1.6333 I-0.0125 J0.0
G2 Y38.5108 Z-1.6667 I0.0063 J0.0108
G2 X32.8825 Y38.5 Z-1.7 I0.0063 J-0.0108
G2 X32.8638 Y38.4892 Z-1.7333 I-0.0125 J0.0
G2 Y38.5108 Z-1.7667 I0.0063 J0.0108
G2 X32.8825 Y38.5 Z-1.8 I0.0063 J-0.0108
G2 X32.8638 Y38.4892 Z-1.8333 I-0.0125 J0.0
G2 Y38.5108 Z-1.8667 I0.0063 J0.0108
G2 X32.8825 Y38.5 Z-1.9 I0.0063 J-0.0108
G2 X32.8638 Y38.4892 Z-1.9333 I-0.0125 J0.0
G2 Y38.5108 Z-1.9667 I0.0063 J0.0108
G2 X32.8825 Y38.5 Z-2.0 I0.0063 J-0.0108
G2 X32.8638 Y38.4892 Z-2.0333 I-0.0125 J0.0
G2 Y38.5108 Z-2.0667 I0.0063 J0.0108
G2 X32.8825 Y38.5 Z-2.1 I0.0063 J-0.0108
G2 X32.8638 Y38.4892 Z-2.1333 I-0.0125 J0.0
G2 Y38.5108 Z-2.1667 I0.0063 J0.0108
G2 X32.8825 Y38.5 Z-2.2 I0.0063 J-0.0108
G2 X32.8638 Y38.4892 Z-2.2333 I-0.0125 J0.0
G2 Y38.5108 Z-2.2667 I0.0063 J0.0108
G2 X32.8825 Y38.5 Z-2.3 I0.0063 J-0.0108
G2 X32.8638 Y38.4892 Z-2.3333 I-0.0125 J0.0
G2 Y38.5108 Z-2.3667 I0.0063 J0.0108
G2 X32.8825 Y38.5 Z-2.4 I0.0063 J-0.0108
G2 X32.8638 Y38.4892 Z-2.4333 I-0.0125 J0.0
G2 Y38.5108 Z-2.4667 I0.0063 J0.0108
G2 X32.8825 Y38.5 Z-2.5 I0.0063 J-0.0108
G2 X32.8638 Y38.4892 Z-2.5333 I-0.0125 J0.0
G2 Y38.5108 Z-2.5667 I0.0063 J0.0108
G2 X32.8825 Y38.5 Z-2.6 I0.0063 J-0.0108
G2 X32.8638 Y38.4892 Z-2.6333 I-0.0125 J0.0
G2 Y38.5108 Z-2.6667 I0.0063 J0.0108
G2 X32.8825 Y38.5 Z-2.7 I0.0063 J-0.0108
G2 X32.8638 Y38.4892 Z-2.7333 I-0.0125 J0.0
G2 Y38.5108 Z-2.7667 I0.0063 J0.0108
G2 X32.8825 Y38.5 Z-2.8 I0.0063 J-0.0108
G2 X32.8638 Y38.4892 Z-2.8333 I-0.0125 J0.0
G2 Y38.5108 Z-2.8667 I0.0063 J0.0108
G2 X32.8825 Y38.5 Z-2.9 I0.0063 J-0.0108
G2 X32.8638 Y38.4892 Z-2.9333 I-0.0125 J0.0
G2 Y38.5108 Z-2.9667 I0.0063 J0.0108
G2 X32.8825 Y38.5 Z-3.0 I0.0062 J-0.0108
G2 X32.8638 Y38.4892 Z-3.0333 I-0.0125 J0.0
G2 Y38.5108 Z-3.0667 I0.0063 J0.0108
G2 X32.8825 Y38.5 Z-3.1 I0.0062 J-0.0108
G2 X32.8638 Y38.4892 Z-3.1333 I-0.0125 J0.0
G2 Y38.5108 Z-3.1667 I0.0063 J0.0108
G2 X32.8825 Y38.5 Z-3.2 I0.0062 J-0.0108
G2 X32.8638 Y38.4892 I-0.0125 J0.0
G2 Y38.5108 I0.0063 J0.0108
G2 X32.8825 Y38.5 I0.0062 J-0.0108
G0 Z3.0
G0 Y50.26
G0 Z0.01
G1 F1000.0 Z0.0
G2 F2000.0 X32.8638 Y50.2492 Z-0.0333 I-0.0125 J0.0
G2 Y50.2708 Z-0.0667 I0.0063 J0.0108
G2 X32.8825 Y50.26 Z-0.1 I0.0063 J-0.0108
G2 X32.8638 Y50.2492 Z-0.1333 I-0.0125 J0.0
G2 Y50.2708 Z-0.1667 I0.0063 J0.0108
G2 X32.8825 Y50.26 Z-0.2 I0.0063 J-0.0108
G2 X32.8638 Y50.2492 Z-0.2333 I-0.0125 J0.0
G2 Y50.2708 Z-0.2667 I0.0063 J0.0108
G2 X32.8825 Y50.26 Z-0.3 I0.0063 J-0.0108
G2 X32.8638 Y50.2492 Z-0.3333 I-0.0125 J0.0
G2 Y50.2708 Z-0.3667 I0.0063 J0.0108
G2 X32.8825 Y50.26 Z-0.4 I0.0063 J-0.0108
G2 X32.8638 Y50.2492 Z-0.4333 I-0.0125 J0.0
G2 Y50.2708 Z-0.4667 I0.0063 J0.0108
G2 X32.8825 Y50.26 Z-0.5 I0.0063 J-0.0108
G2 X32.8638 Y50.2492 Z-0.5333 I-0.0125 J0.0
G2 Y50.2708 Z-0.5667 I0.0063 J0.0108
G2 X32.8825 Y50.26 Z-0.6 I0.0063 J-0.0108
G2 X32.8638 Y50.2492 Z-0.6333 I-0.0125 J0.0
G2 Y50.2708 Z-0.6667 I0.0063 J0.0108
G2 X32.8825 Y50.26 Z-0.7 I0.0063 J-0.0108
G2 X32.8638 Y50.2492 Z-0.7333 I-0.0125 J0.0
G2 Y50.2708 Z-0.7667 I0.0063 J0.0108
G2 X32.8825 Y50.26 Z-0.8 I0.0063 J-0.0108
G2 X32.8638 Y50.2492 Z-0.8333 I-0.0125 J0.0
G2 Y50.2708 Z-0.8667 I0.0063 J0.0108
G2 X32.8825 Y50.26 Z-0.9 I0.0063 J-0.0108
G2 X32.8638 Y50.2492 Z-0.9333 I-0.0125 J0.0
G2 Y50.2708 Z-0.9667 I0.0063 J0.0108
G2 X32.8825 Y50.26 Z-1.0 I0.0063 J-0.0108
G2 X32.8638 Y50.2492 Z-1.0333 I-0.0125 J0.0
G2 Y50.2708 Z-1.0667 I0.0063 J0.0108
G2 X32.8825 Y50.26 Z-1.1 I0.0063 J-0.0108
G2 X32.8638 Y50.2492 Z-1.1333 I-0.0125 J0.0
G2 Y50.2708 Z-1.1667 I0.0063 J0.0108
G2 X32.8825 Y50.26 Z-1.2 I0.0063 J-0.0108
G2 X32.8638 Y50.2492 Z-1.2333 I-0.0125 J0.0
G2 Y50.2708 Z-1.2667 I0.0063 J0.0108
G2 X32.8825 Y50.26 Z-1.3 I0.0063 J-0.0108
G2 X32.8638 Y50.2492 Z-1.3333 I-0.0125 J0.0
G2 Y50.2708 Z-1.3667 I0.0063 J0.0108
G2 X32.8825 Y50.26 Z-1.4 I0.0063 J-0.0108
G2 X32.8638 Y50.2492 Z-1.4333 I-0.0125 J0.0
G2 Y50.2708 Z-1.4667 I0.0063 J0.0108
G2 X32.8825 Y50.26 Z-1.5 I0.0063 J-0.0108
G2 X32.8638 Y50.2492 Z-1.5333 I-0.0125 J0.0
G2 Y50.2708 Z-1.5667 I0.0063 J0.0108
G2 X32.8825 Y50.26 Z-1.6 I0.0063 J-0.0108
G2 X32.8638 Y50.2492 Z-1.6333 I-0.0125 J0.0
G2 Y50.2708 Z-1.6667 I0.0063 J0.0108
G2 X32.8825 Y50.26 Z-1.7 I0.0063 J-0.0108
G2 X32.8638 Y50.2492 Z-1.7333 I-0.0125 J0.0
G2 Y50.2708 Z-1.7667 I0.0063 J0.0108
G2 X32.8825 Y50.26 Z-1.8 I0.0063 J-0.0108
G2 X32.8638 Y50.2492 Z-1.8333 I-0.0125 J0.0
G2 Y50.2708 Z-1.8667 I0.0063 J0.0108
G2 X32.8825 Y50.26 Z-1.9 I0.0063 J-0.0108
G2 X32.8638 Y50.2492 Z-1.9333 I-0.0125 J0.0
G2 Y50.2708 Z-1.9667 I0.0063 J0.0108
G2 X32.8825 Y50.26 Z-2.0 I0.0063 J-0.0108
G2 X32.8638 Y50.2492 Z-2.0333 I-0.0125 J0.0
G2 Y50.2708 Z-2.0667 I0.0063 J0.0108
G2 X32.8825 Y50.26 Z-2.1 I0.0063 J-0.0108
G2 X32.8638 Y50.2492 Z-2.1333 I-0.0125 J0.0
G2 Y50.2708 Z-2.1667 I0.0063 J0.0108
G2 X32.8825 Y50.26 Z-2.2 I0.0063 J-0.0108
G2 X32.8638 Y50.2492 Z-2.2333 I-0.0125 J0.0
G2 Y50.2708 Z-2.2667 I0.0063 J0.0108
G2 X32.8825 Y50.26 Z-2.3 I0.0063 J-0.0108
G2 X32.8638 Y50.2492 Z-2.3333 I-0.0125 J0.0
G2 Y50.2708 Z-2.3667 I0.0063 J0.0108
G2 X32.8825 Y50.26 Z-2.4 I0.0063 J-0.0108
G2 X32.8638 Y50.2492 Z-2.4333 I-0.0125 J0.0
G2 Y50.2708 Z-2.4667 I0.0063 J0.0108
G2 X32.8825 Y50.26 Z-2.5 I0.0063 J-0.0108
G2 X32.8638 Y50.2492 Z-2.5333 I-0.0125 J0.0
G2 Y50.2708 Z-2.5667 I0.0063 J0.0108
G2 X32.8825 Y50.26 Z-2.6 I0.0063 J-0.0108
G2 X32.8638 Y50.2492 Z-2.6333 I-0.0125 J0.0
G2 Y50.2708 Z-2.6667 I0.0063 J0.0108
G2 X32.8825 Y50.26 Z-2.7 I0.0063 J-0.0108
G2 X32.8638 Y50.2492 Z-2.7333 I-0.0125 J0.0
G2 Y50.2708 Z-2.7667 I0.0063 J0.0108
G2 X32.8825 Y50.26 Z-2.8 I0.0063 J-0.0108
G2 X32.8638 Y50.2492 Z-2.8333 I-0.0125 J0.0
G2 Y50.2708 Z-2.8667 I0.0063 J0.0108
G2 X32.8825 Y50.26 Z-2.9 I0.0063 J-0.0108
G2 X32.8638 Y50.2492 Z-2.9333 I-0.0125 J0.0
G2 Y50.2708 Z-2.9667 I0.0063 J0.0108
G2 X32.8825 Y50.26 Z-3.0 I0.0062 J-0.0108
G2 X32.8638 Y50.2492 Z-3.0333 I-0.0125 J0.0
G2 Y50.2708 Z-3.0667 I0.0063 J0.0108
G2 X32.8825 Y50.26 Z-3.1 I0.0062 J-0.0108
G2 X32.8638 Y50.2492 Z-3.1333 I-0.0125 J0.0
G2 Y50.2708 Z-3.1667 I0.0063 J0.0108
G2 X32.8825 Y50.26 Z-3.2 I0.0062 J-0.0108
G2 X32.8638 Y50.2492 I-0.0125 J0.0
G2 Y50.2708 I0.0063 J0.0108
G2 X32.8825 Y50.26 I0.0062 J-0.0108
G0 Z3.0
G0 X33.0425 Y62.07
G0 Z0.01
G1 F1000.0 Z0.0
G2 F2000.0 X33.0238 Y62.0592 Z-0.0333 I-0.0125 J0.0
G2 Y62.0808 Z-0.0667 I0.0063 J0.0108
G2 X33.0425 Y62.07 Z-0.1 I0.0063 J-0.0108
G2 X33.0238 Y62.0592 Z-0.1333 I-0.0125 J0.0
G2 Y62.0808 Z-0.1667 I0.0063 J0.0108
G2 X33.0425 Y62.07 Z-0.2 I0.0063 J-0.0108
G2 X33.0238 Y62.0592 Z-0.2333 I-0.0125 J0.0
G2 Y62.0808 Z-0.2667 I0.0063 J0.0108
G2 X33.0425 Y62.07 Z-0.3 I0.0063 J-0.0108
G2 X33.0238 Y62.0592 Z-0.3333 I-0.0125 J0.0
G2 Y62.0808 Z-0.3667 I0.0063 J0.0108
G2 X33.0425 Y62.07 Z-0.4 I0.0063 J-0.0108
G2 X33.0238 Y62.0592 Z-0.4333 I-0.0125 J0.0
G2 Y62.0808 Z-0.4667 I0.0063 J0.0108
G2 X33.0425 Y62.07 Z-0.5 I0.0063 J-0.0108
G2 X33.0238 Y62.0592 Z-0.5333 I-0.0125 J0.0
G2 Y62.0808 Z-0.5667 I0.0063 J0.0108
G2 X33.0425 Y62.07 Z-0.6 I0.0063 J-0.0108
G2 X33.0238 Y62.0592 Z-0.6333 I-0.0125 J0.0
G2 Y62.0808 Z-0.6667 I0.0063 J0.0108
G2 X33.0425 Y62.07 Z-0.7 I0.0063 J-0.0108
G2 X33.0238 Y62.0592 Z-0.7333 I-0.0125 J0.0
G2 Y62.0808 Z-0.7667 I0.0063 J0.0108
G2 X33.0425 Y62.07 Z-0.8 I0.0063 J-0.0108
G2 X33.0238 Y62.0592 Z-0.8333 I-0.0125 J0.0
G2 Y62.0808 Z-0.8667 I0.0063 J0.0108
G2 X33.0425 Y62.07 Z-0.9 I0.0063 J-0.0108
G2 X33.0238 Y62.0592 Z-0.9333 I-0.0125 J0.0
G2 Y62.0808 Z-0.9667 I0.0063 J0.0108
G2 X33.0425 Y62.07 Z-1.0 I0.0063 J-0.0108
G2 X33.0238 Y62.0592 Z-1.0333 I-0.0125 J0.0
G2 Y62.0808 Z-1.0667 I0.0063 J0.0108
G2 X33.0425 Y62.07 Z-1.1 I0.0063 J-0.0108
G2 X33.0238 Y62.0592 Z-1.1333 I-0.0125 J0.0
G2 Y62.0808 Z-1.1667 I0.0063 J0.0108
G2 X33.0425 Y62.07 Z-1.2 I0.0063 J-0.0108
G2 X33.0238 Y62.0592 Z-1.2333 I-0.0125 J0.0
G2 Y62.0808 Z-1.2667 I0.0063 J0.0108
G2 X33.0425 Y62.07 Z-1.3 I0.0063 J-0.0108
G2 X33.0238 Y62.0592 Z-1.3333 I-0.0125 J0.0
G2 Y62.0808 Z-1.3667 I0.0063 J0.0108
G2 X33.0425 Y62.07 Z-1.4 I0.0063 J-0.0108
G2 X33.0238 Y62.0592 Z-1.4333 I-0.0125 J0.0
G2 Y62.0808 Z-1.4667 I0.0063 J0.0108
G2 X33.0425 Y62.07 Z-1.5 I0.0063 J-0.0108
G2 X33.0238 Y62.0592 Z-1.5333 I-0.0125 J0.0
G2 Y62.0808 Z-1.5667 I0.0063 J0.0108
G2 X33.0425 Y62.07 Z-1.6 I0.0063 J-0.0108
G2 X33.0238 Y62.0592 Z-1.6333 I-0.0125 J0.0
G2 Y62.0808 Z-1.6667 I0.0063 J0.0108
G2 X33.0425 Y62.07 Z-1.7 I0.0063 J-0.0108
G2 X33.0238 Y62.0592 Z-1.7333 I-0.0125 J0.0
G2 Y62.0808 Z-1.7667 I0.0063 J0.0108
G2 X33.0425 Y62.07 Z-1.8 I0.0063 J-0.0108
G2 X33.0238 Y62.0592 Z-1.8333 I-0.0125 J0.0
G2 Y62.0808 Z-1.8667 I0.0063 J0.0108
G2 X33.0425 Y62.07 Z-1.9 I0.0063 J-0.0108
G2 X33.0238 Y62.0592 Z-1.9333 I-0.0125 J0.0
G2 Y62.0808 Z-1.9667 I0.0063 J0.0108
G2 X33.0425 Y62.07 Z-2.0 I0.0063 J-0.0108
G2 X33.0238 Y62.0592 Z-2.0333 I-0.0125 J0.0
G2 Y62.0808 Z-2.0667 I0.0063 J0.0108
G2 X33.0425 Y62.07 Z-2.1 I0.0063 J-0.0108
G2 X33.0238 Y62.0592 Z-2.1333 I-0.0125 J0.0
G2 Y62.0808 Z-2.1667 I0.0063 J0.0108
G2 X33.0425 Y62.07 Z-2.2 I0.0063 J-0.0108
G2 X33.0238 Y62.0592 Z-2.2333 I-0.0125 J0.0
G2 Y62.0808 Z-2.2667 I0.0063 J0.0108
G2 X33.0425 Y62.07 Z-2.3 I0.0063 J-0.0108
G2 X33.0238 Y62.0592 Z-2.3333 I-0.0125 J0.0
G2 Y62.0808 Z-2.3667 I0.0063 J0.0108
G2 X33.0425 Y62.07 Z-2.4 I0.0063 J-0.0108
G2 X33.0238 Y62.0592 Z-2.4333 I-0.0125 J0.0
G2 Y62.0808 Z-2.4667 I0.0063 J0.0108
G2 X33.0425 Y62.07 Z-2.5 I0.0063 J-0.0108
G2 X33.0238 Y62.0592 Z-2.5333 I-0.0125 J0.0
G2 Y62.0808 Z-2.5667 I0.0063 J0.0108
G2 X33.0425 Y62.07 Z-2.6 I0.0063 J-0.0108
G2 X33.0238 Y62.0592 Z-2.6333 I-0.0125 J0.0
G2 Y62.0808 Z-2.6667 I0.0063 J0.0108
G2 X33.0425 Y62.07 Z-2.7 I0.0063 J-0.0108
G2 X33.0238 Y62.0592 Z-2.7333 I-0.0125 J0.0
G2 Y62.0808 Z-2.7667 I0.0063 J0.0108
G2 X33.0425 Y62.07 Z-2.8 I0.0063 J-0.0108
G2 X33.0238 Y62.0592 Z-2.8333 I-0.0125 J0.0
G2 Y62.0808 Z-2.8667 I0.0063 J0.0108
G2 X33.0425 Y62.07 Z-2.9 I0.0063 J-0.0108
G2 X33.0238 Y62.0592 Z-2.9333 I-0.0125 J0.0
G2 Y62.0808 Z-2.9667 I0.0063 J0.0108
G2 X33.0425 Y62.07 Z-3.0 I0.0062 J-0.0108
G2 X33.0238 Y62.0592 Z-3.0333 I-0.0125 J0.0
G2 Y62.0808 Z-3.0667 I0.0063 J0.0108
G2 X33.0425 Y62.07 Z-3.1 I0.0062 J-0.0108
G2 X33.0238 Y62.0592 Z-3.1333 I-0.0125 J0.0
G2 Y62.0808 Z-3.1667 I0.0063 J0.0108
G2 X33.0425 Y62.07 Z-3.2 I0.0062 J-0.0108
G2 X33.0238 Y62.0592 I-0.0125 J0.0
G2 Y62.0808 I0.0063 J0.0108
G2 X33.0425 Y62.07 I0.0062 J-0.0108
G0 Z3.0
G0 X19.8225 Y62.14
G0 Z0.01
G1 F1000.0 Z0.0
G2 F2000.0 X19.8038 Y62.1292 Z-0.0333 I-0.0125 J0.0
G2 Y62.1508 Z-0.0667 I0.0063 J0.0108
G2 X19.8225 Y62.14 Z-0.1 I0.0062 J-0.0108
G2 X19.8038 Y62.1292 Z-0.1333 I-0.0125 J0.0
G2 Y62.1508 Z-0.1667 I0.0063 J0.0108
G2 X19.8225 Y62.14 Z-0.2 I0.0062 J-0.0108
G2 X19.8038 Y62.1292 Z-0.2333 I-0.0125 J0.0
G2 Y62.1508 Z-0.2667 I0.0063 J0.0108
G2 X19.8225 Y62.14 Z-0.3 I0.0062 J-0.0108
G2 X19.8038 Y62.1292 Z-0.3333 I-0.0125 J0.0
G2 Y62.1508 Z-0.3667 I0.0063 J0.0108
G2 X19.8225 Y62.14 Z-0.4 I0.0062 J-0.0108
G2 X19.8038 Y62.1292 Z-0.4333 I-0.0125 J0.0
G2 Y62.1508 Z-0.4667 I0.0063 J0.0108
G2 X19.8225 Y62.14 Z-0.5 I0.0062 J-0.0108
G2 X19.8038 Y62.1292 Z-0.5333 I-0.0125 J0.0
G2 Y62.1508 Z-0.5667 I0.0063 J0.0108
G2 X19.8225 Y62.14 Z-0.6 I0.0062 J-0.0108
G2 X19.8038 Y62.1292 Z-0.6333 I-0.0125 J0.0
G2 Y62.1508 Z-0.6667 I0.0063 J0.0108
G2 X19.8225 Y62.14 Z-0.7 I0.0062 J-0.0108
G2 X19.8038 Y62.1292 Z-0.7333 I-0.0125 J0.0
G2 Y62.1508 Z-0.7667 I0.0063 J0.0108
G2 X19.8225 Y62.14 Z-0.8 I0.0062 J-0.0108
G2 X19.8038 Y62.1292 Z-0.8333 I-0.0125 J0.0
G2 Y62.1508 Z-0.8667 I0.0063 J0.0108
G2 X19.8225 Y62.14 Z-0.9 I0.0062 J-0.0108
G2 X19.8038 Y62.1292 Z-0.9333 I-0.0125 J0.0
G2 Y62.1508 Z-0.9667 I0.0063 J0.0108
G2 X19.8225 Y62.14 Z-1.0 I0.0062 J-0.0108
G2 X19.8038 Y62.1292 Z-1.0333 I-0.0125 J0.0
G2 Y62.1508 Z-1.0667 I0.0063 J0.0108
G2 X19.8225 Y62.14 Z-1.1 I0.0062 J-0.0108
G2 X19.8038 Y62.1292 Z-1.1333 I-0.0125 J0.0
G2 Y62.1508 Z-1.1667 I0.0063 J0.0108
G2 X19.8225 Y62.14 Z-1.2 I0.0062 J-0.0108
G2 X19.8038 Y62.1292 Z-1.2333 I-0.0125 J0.0
G2 Y62.1508 Z-1.2667 I0.0063 J0.0108
G2 X19.8225 Y62.14 Z-1.3 I0.0062 J-0.0108
G2 X19.8038 Y62.1292 Z-1.3333 I-0.0125 J0.0
G2 Y62.1508 Z-1.3667 I0.0063 J0.0108
G2 X19.8225 Y62.14 Z-1.4 I0.0062 J-0.0108
G2 X19.8038 Y62.1292 Z-1.4333 I-0.0125 J0.0
G2 Y62.1508 Z-1.4667 I0.0063 J0.0108
G2 X19.8225 Y62.14 Z-1.5 I0.0062 J-0.0108
G2 X19.8038 Y62.1292 Z-1.5333 I-0.0125 J0.0
G2 Y62.1508 Z-1.5667 I0.0063 J0.0108
G2 X19.8225 Y62.14 Z-1.6 I0.0062 J-0.0108
G2 X19.8038 Y62.1292 Z-1.6333 I-0.0125 J0.0
G2 Y62.1508 Z-1.6667 I0.0063 J0.0108
G2 X19.8225 Y62.14 Z-1.7 I0.0062 J-0.0108
G2 X19.8038 Y62.1292 Z-1.7333 I-0.0125 J0.0
G2 Y62.1508 Z-1.7667 I0.0063 J0.0108
G2 X19.8225 Y62.14 Z-1.8 I0.0062 J-0.0108
G2 X19.8038 Y62.1292 Z-1.8333 I-0.0125 J0.0
G2 Y62.1508 Z-1.8667 I0.0063 J0.0108
G2 X19.8225 Y62.14 Z-1.9 I0.0062 J-0.0108
G2 X19.8038 Y62.1292 Z-1.9333 I-0.0125 J0.0
G2 Y62.1508 Z-1.9667 I0.0063 J0.0108
G2 X19.8225 Y62.14 Z-2.0 I0.0062 J-0.0108
G2 X19.8038 Y62.1292 Z-2.0333 I-0.0125 J0.0
G2 Y62.1508 Z-2.0667 I0.0063 J0.0108
G2 X19.8225 Y62.14 Z-2.1 I0.0062 J-0.0108
G2 X19.8038 Y62.1292 Z-2.1333 I-0.0125 J0.0
G2 Y62.1508 Z-2.1667 I0.0063 J0.0108
G2 X19.8225 Y62.14 Z-2.2 I0.0062 J-0.0108
G2 X19.8038 Y62.1292 Z-2.2333 I-0.0125 J0.0
G2 Y62.1508 Z-2.2667 I0.0063 J0.0108
G2 X19.8225 Y62.14 Z-2.3 I0.0062 J-0.0108
G2 X19.8038 Y62.1292 Z-2.3333 I-0.0125 J0.0
G2 Y62.1508 Z-2.3667 I0.0063 J0.0108
G2 X19.8225 Y62.14 Z-2.4 I0.0062 J-0.0108
G2 X19.8038 Y62.1292 Z-2.4333 I-0.0125 J0.0
G2 Y62.1508 Z-2.4667 I0.0063 J0.0108
G2 X19.8225 Y62.14 Z-2.5 I0.0062 J-0.0108
G2 X19.8038 Y62.1292 Z-2.5333 I-0.0125 J0.0
G2 Y62.1508 Z-2.5667 I0.0063 J0.0108
G2 X19.8225 Y62.14 Z-2.6 I0.0062 J-0.0108
G2 X19.8038 Y62.1292 Z-2.6333 I-0.0125 J0.0
G2 Y62.1508 Z-2.6667 I0.0063 J0.0108
G2 X19.8225 Y62.14 Z-2.7 I0.0062 J-0.0108
G2 X19.8038 Y62.1292 Z-2.7333 I-0.0125 J0.0
G2 Y62.1508 Z-2.7667 I0.0063 J0.0108
G2 X19.8225 Y62.14 Z-2.8 I0.0062 J-0.0108
G2 X19.8038 Y62.1292 Z-2.8333 I-0.0125 J0.0
G2 Y62.1508 Z-2.8667 I0.0063 J0.0108
G2 X19.8225 Y62.14 Z-2.9 I0.0062 J-0.0108
G2 X19.8038 Y62.1292 Z-2.9333 I-0.0125 J0.0
G2 Y62.1508 Z-2.9667 I0.0063 J0.0108
G2 X19.8225 Y62.14 Z-3.0 I0.0062 J-0.0108
G2 X19.8038 Y62.1292 Z-3.0333 I-0.0125 J0.0
G2 Y62.1508 Z-3.0667 I0.0063 J0.0108
G2 X19.8225 Y62.14 Z-3.1 I0.0062 J-0.0108
G2 X19.8038 Y62.1292 Z-3.1333 I-0.0125 J0.0
G2 Y62.1508 Z-3.1667 I0.0063 J0.0108
G2 X19.8225 Y62.14 Z-3.2 I0.0062 J-0.0108
G2 X19.8038 Y62.1292 I-0.0125 J0.0
G2 Y62.1508 I0.0063 J0.0108
G2 X19.8225 Y62.14 I0.0062 J-0.0108
G0 Z3.0
G0 X7.5825 Y61.98
G0 Z0.01
G1 F1000.0 Z0.0
G2 F2000.0 X7.5638 Y61.9692 Z-0.0333 I-0.0125 J0.0
G2 Y61.9908 Z-0.0667 I0.0063 J0.0108
G2 X7.5825 Y61.98 Z-0.1 I0.0062 J-0.0108
G2 X7.5638 Y61.9692 Z-0.1333 I-0.0125 J0.0
G2 Y61.9908 Z-0.1667 I0.0063 J0.0108
G2 X7.5825 Y61.98 Z-0.2 I0.0062 J-0.0108
G2 X7.5638 Y61.9692 Z-0.2333 I-0.0125 J0.0
G2 Y61.9908 Z-0.2667 I0.0063 J0.0108
G2 X7.5825 Y61.98 Z-0.3 I0.0062 J-0.0108
G2 X7.5638 Y61.9692 Z-0.3333 I-0.0125 J0.0
G2 Y61.9908 Z-0.3667 I0.0063 J0.0108
G2 X7.5825 Y61.98 Z-0.4 I0.0062 J-0.0108
G2 X7.5638 Y61.9692 Z-0.4333 I-0.0125 J0.0
G2 Y61.9908 Z-0.4667 I0.0063 J0.0108
G2 X7.5825 Y61.98 Z-0.5 I0.0062 J-0.0108
G2 X7.5638 Y61.9692 Z-0.5333 I-0.0125 J0.0
G2 Y61.9908 Z-0.5667 I0.0063 J0.0108
G2 X7.5825 Y61.98 Z-0.6 I0.0062 J-0.0108
G2 X7.5638 Y61.9692 Z-0.6333 I-0.0125 J0.0
G2 Y61.9908 Z-0.6667 I0.0063 J0.0108
G2 X7.5825 Y61.98 Z-0.7 I0.0062 J-0.0108
G2 X7.5638 Y61.9692 Z-0.7333 I-0.0125 J0.0
G2 Y61.9908 Z-0.7667 I0.0063 J0.0108
G2 X7.5825 Y61.98 Z-0.8 I0.0062 J-0.0108
G2 X7.5638 Y61.9692 Z-0.8333 I-0.0125 J0.0
G2 Y61.9908 Z-0.8667 I0.0063 J0.0108
G2 X7.5825 Y61.98 Z-0.9 I0.0062 J-0.0108
G2 X7.5638 Y61.9692 Z-0.9333 I-0.0125 J0.0
G2 Y61.9908 Z-0.9667 I0.0063 J0.0108
G2 X7.5825 Y61.98 Z-1.0 I0.0062 J-0.0108
G2 X7.5638 Y61.9692 Z-1.0333 I-0.0125 J0.0
G2 Y61.9908 Z-1.0667 I0.0063 J0.0108
G2 X7.5825 Y61.98 Z-1.1 I0.0062 J-0.0108
G2 X7.5638 Y61.9692 Z-1.1333 I-0.0125 J0.0
G2 Y61.9908 Z-1.1667 I0.0063 J0.0108
G2 X7.5825 Y61.98 Z-1.2 I0.0062 J-0.0108
G2 X7.5638 Y61.9692 Z-1.2333 I-0.0125 J0.0
G2 Y61.9908 Z-1.2667 I0.0063 J0.0108
G2 X7.5825 Y61.98 Z-1.3 I0.0062 J-0.0108
G2 X7.5638 Y61.9692 Z-1.3333 I-0.0125 J0.0
G2 Y61.9908 Z-1.3667 I0.0063 J0.0108
G2 X7.5825 Y61.98 Z-1.4 I0.0062 J-0.0108
G2 X7.5638 Y61.9692 Z-1.4333 I-0.0125 J0.0
G2 Y61.9908 Z-1.4667 I0.0063 J0.0108
G2 X7.5825 Y61.98 Z-1.5 I0.0062 J-0.0108
G2 X7.5638 Y61.9692 Z-1.5333 I-0.0125 J0.0
G2 Y61.9908 Z-1.5667 I0.0063 J0.0108
G2 X7.5825 Y61.98 Z-1.6 I0.0062 J-0.0108
G2 X7.5638 Y61.9692 Z-1.6333 I-0.0125 J0.0
G2 Y61.9908 Z-1.6667 I0.0063 J0.0108
G2 X7.5825 Y61.98 Z-1.7 I0.0062 J-0.0108
G2 X7.5638 Y61.9692 Z-1.7333 I-0.0125 J0.0
G2 Y61.9908 Z-1.7667 I0.0063 J0.0108
G2 X7.5825 Y61.98 Z-1.8 I0.0062 J-0.0108
G2 X7.5638 Y61.9692 Z-1.8333 I-0.0125 J0.0
G2 Y61.9908 Z-1.8667 I0.0063 J0.0108
G2 X7.5825 Y61.98 Z-1.9 I0.0062 J-0.0108
G2 X7.5638 Y61.9692 Z-1.9333 I-0.0125 J0.0
G2 Y61.9908 Z-1.9667 I0.0063 J0.0108
G2 X7.5825 Y61.98 Z-2.0 I0.0062 J-0.0108
G2 X7.5638 Y61.9692 Z-2.0333 I-0.0125 J0.0
G2 Y61.9908 Z-2.0667 I0.0063 J0.0108
G2 X7.5825 Y61.98 Z-2.1 I0.0062 J-0.0108
G2 X7.5638 Y61.9692 Z-2.1333 I-0.0125 J0.0
G2 Y61.9908 Z-2.1667 I0.0063 J0.0108
G2 X7.5825 Y61.98 Z-2.2 I0.0062 J-0.0108
G2 X7.5638 Y61.9692 Z-2.2333 I-0.0125 J0.0
G2 Y61.9908 Z-2.2667 I0.0063 J0.0108
G2 X7.5825 Y61.98 Z-2.3 I0.0062 J-0.0108
G2 X7.5638 Y61.9692 Z-2.3333 I-0.0125 J0.0
G2 Y61.9908 Z-2.3667 I0.0063 J0.0108
G2 X7.5825 Y61.98 Z-2.4 I0.0062 J-0.0108
G2 X7.5638 Y61.9692 Z-2.4333 I-0.0125 J0.0
G2 Y61.9908 Z-2.4667 I0.0063 J0.0108
G2 X7.5825 Y61.98 Z-2.5 I0.0062 J-0.0108
G2 X7.5638 Y61.9692 Z-2.5333 I-0.0125 J0.0
G2 Y61.9908 Z-2.5667 I0.0063 J0.0108
G2 X7.5825 Y61.98 Z-2.6 I0.0062 J-0.0108
G2 X7.5638 Y61.9692 Z-2.6333 I-0.0125 J0.0
G2 Y61.9908 Z-2.6667 I0.0063 J0.0108
G2 X7.5825 Y61.98 Z-2.7 I0.0062 J-0.0108
G2 X7.5638 Y61.9692 Z-2.7333 I-0.0125 J0.0
G2 Y61.9908 Z-2.7667 I0.0063 J0.0108
G2 X7.5825 Y61.98 Z-2.8 I0.0062 J-0.0108
G2 X7.5637 Y61.9692 Z-2.8333 I-0.0125 J0.0
G2 X7.5638 Y61.9908 Z-2.8667 I0.0063 J0.0108
G2 X7.5825 Y61.98 Z-2.9 I0.0062 J-0.0108
G2 X7.5637 Y61.9692 Z-2.9333 I-0.0125 J0.0
G2 X7.5638 Y61.9908 Z-2.9667 I0.0063 J0.0108
G2 X7.5825 Y61.98 Z-3.0 I0.0062 J-0.0108
G2 X7.5637 Y61.9692 Z-3.0333 I-0.0125 J0.0
G2 X7.5638 Y61.9908 Z-3.0667 I0.0063 J0.0108
G2 X7.5825 Y61.98 Z-3.1 I0.0062 J-0.0108
G2 X7.5637 Y61.9692 Z-3.1333 I-0.0125 J0.0
G2 X7.5638 Y61.9908 Z-3.1667 I0.0063 J0.0108
G2 X7.5825 Y61.98 Z-3.2 I0.0062 J-0.0108
G2 X7.5637 Y61.9692 I-0.0125 J0.0
G2 X7.5638 Y61.9908 I0.0063 J0.0108
G2 X7.5825 Y61.98 I0.0062 J-0.0108
G0 Z3.0
G0 Y91.59
G0 Z0.01
G1 F1000.0 Z0.0
G2 F2000.0 X7.5638 Y91.5792 Z-0.0333 I-0.0125 J0.0
G2 Y91.6008 Z-0.0667 I0.0062 J0.0108
G2 X7.5825 Y91.59 Z-0.1 I0.0063 J-0.0108
G2 X7.5638 Y91.5792 Z-0.1333 I-0.0125 J0.0
G2 Y91.6008 Z-0.1667 I0.0062 J0.0108
G2 X7.5825 Y91.59 Z-0.2 I0.0063 J-0.0108
G2 X7.5638 Y91.5792 Z-0.2333 I-0.0125 J0.0
G2 Y91.6008 Z-0.2667 I0.0062 J0.0108
G2 X7.5825 Y91.59 Z-0.3 I0.0063 J-0.0108
G2 X7.5638 Y91.5792 Z-0.3333 I-0.0125 J0.0
G2 Y91.6008 Z-0.3667 I0.0062 J0.0108
G2 X7.5825 Y91.59 Z-0.4 I0.0063 J-0.0108
G2 X7.5638 Y91.5792 Z-0.4333 I-0.0125 J0.0
G2 Y91.6008 Z-0.4667 I0.0062 J0.0108
G2 X7.5825 Y91.59 Z-0.5 I0.0063 J-0.0108
G2 X7.5638 Y91.5792 Z-0.5333 I-0.0125 J0.0
G2 Y91.6008 Z-0.5667 I0.0062 J0.0108
G2 X7.5825 Y91.59 Z-0.6 I0.0063 J-0.0108
G2 X7.5638 Y91.5792 Z-0.6333 I-0.0125 J0.0
G2 Y91.6008 Z-0.6667 I0.0062 J0.0108
G2 X7.5825 Y91.59 Z-0.7 I0.0063 J-0.0108
G2 X7.5638 Y91.5792 Z-0.7333 I-0.0125 J0.0
G2 Y91.6008 Z-0.7667 I0.0062 J0.0108
G2 X7.5825 Y91.59 Z-0.8 I0.0063 J-0.0108
G2 X7.5638 Y91.5792 Z-0.8333 I-0.0125 J0.0
G2 Y91.6008 Z-0.8667 I0.0062 J0.0108
G2 X7.5825 Y91.59 Z-0.9 I0.0063 J-0.0108
G2 X7.5638 Y91.5792 Z-0.9333 I-0.0125 J0.0
G2 Y91.6008 Z-0.9667 I0.0062 J0.0108
G2 X7.5825 Y91.59 Z-1.0 I0.0063 J-0.0108
G2 X7.5638 Y91.5792 Z-1.0333 I-0.0125 J0.0
G2 Y91.6008 Z-1.0667 I0.0062 J0.0108
G2 X7.5825 Y91.59 Z-1.1 I0.0063 J-0.0108
G2 X7.5638 Y91.5792 Z-1.1333 I-0.0125 J0.0
G2 Y91.6008 Z-1.1667 I0.0062 J0.0108
G2 X7.5825 Y91.59 Z-1.2 I0.0063 J-0.0108
G2 X7.5638 Y91.5792 Z-1.2333 I-0.0125 J0.0
G2 Y91.6008 Z-1.2667 I0.0062 J0.0108
G2 X7.5825 Y91.59 Z-1.3 I0.0063 J-0.0108
G2 X7.5638 Y91.5792 Z-1.3333 I-0.0125 J0.0
G2 Y91.6008 Z-1.3667 I0.0062 J0.0108
G2 X7.5825 Y91.59 Z-1.4 I0.0063 J-0.0108
G2 X7.5638 Y91.5792 Z-1.4333 I-0.0125 J0.0
G2 Y91.6008 Z-1.4667 I0.0062 J0.0108
G2 X7.5825 Y91.59 Z-1.5 I0.0063 J-0.0108
G2 X7.5638 Y91.5792 Z-1.5333 I-0.0125 J0.0
G2 Y91.6008 Z-1.5667 I0.0062 J0.0108
G2 X7.5825 Y91.59 Z-1.6 I0.0063 J-0.0108
G2 X7.5638 Y91.5792 Z-1.6333 I-0.0125 J0.0
G2 Y91.6008 Z-1.6667 I0.0062 J0.0108
G2 X7.5825 Y91.59 Z-1.7 I0.0063 J-0.0108
G2 X7.5638 Y91.5792 Z-1.7333 I-0.0125 J0.0
G2 Y91.6008 Z-1.7667 I0.0062 J0.0108
G2 X7.5825 Y91.59 Z-1.8 I0.0063 J-0.0108
G2 X7.5638 Y91.5792 Z-1.8333 I-0.0125 J0.0
G2 Y91.6008 Z-1.8667 I0.0062 J0.0108
G2 X7.5825 Y91.59 Z-1.9 I0.0063 J-0.0108
G2 X7.5638 Y91.5792 Z-1.9333 I-0.0125 J0.0
G2 Y91.6008 Z-1.9667 I0.0062 J0.0108
G2 X7.5825 Y91.59 Z-2.0 I0.0063 J-0.0108
G2 X7.5638 Y91.5792 Z-2.0333 I-0.0125 J0.0
G2 Y91.6008 Z-2.0667 I0.0062 J0.0108
G2 X7.5825 Y91.59 Z-2.1 I0.0063 J-0.0108
G2 X7.5638 Y91.5792 Z-2.1333 I-0.0125 J0.0
G2 Y91.6008 Z-2.1667 I0.0062 J0.0108
G2 X7.5825 Y91.59 Z-2.2 I0.0063 J-0.0108
G2 X7.5638 Y91.5792 Z-2.2333 I-0.0125 J0.0
G2 Y91.6008 Z-2.2667 I0.0062 J0.0108
G2 X7.5825 Y91.59 Z-2.3 I0.0063 J-0.0108
G2 X7.5638 Y91.5792 Z-2.3333 I-0.0125 J0.0
G2 Y91.6008 Z-2.3667 I0.0062 J0.0108
G2 X7.5825 Y91.59 Z-2.4 I0.0063 J-0.0108
G2 X7.5638 Y91.5792 Z-2.4333 I-0.0125 J0.0
G2 Y91.6008 Z-2.4667 I0.0062 J0.0108
G2 X7.5825 Y91.59 Z-2.5 I0.0063 J-0.0108
G2 X7.5638 Y91.5792 Z-2.5333 I-0.0125 J0.0
G2 Y91.6008 Z-2.5667 I0.0062 J0.0108
G2 X7.5825 Y91.59 Z-2.6 I0.0063 J-0.0108
G2 X7.5638 Y91.5792 Z-2.6333 I-0.0125 J0.0
G2 Y91.6008 Z-2.6667 I0.0062 J0.0108
G2 X7.5825 Y91.59 Z-2.7 I0.0063 J-0.0108
G2 X7.5638 Y91.5792 Z-2.7333 I-0.0125 J0.0
G2 Y91.6008 Z-2.7667 I0.0062 J0.0108
G2 X7.5825 Y91.59 Z-2.8 I0.0063 J-0.0108
G2 X7.5638 Y91.5792 Z-2.8333 I-0.0125 J0.0
G2 Y91.6008 Z-2.8667 I0.0062 J0.0108
G2 X7.5825 Y91.59 Z-2.9 I0.0063 J-0.0108
G2 X7.5638 Y91.5792 Z-2.9333 I-0.0125 J0.0
G2 Y91.6008 Z-2.9667 I0.0062 J0.0108
G2 X7.5825 Y91.59 Z-3.0 I0.0063 J-0.0108
G2 X7.5638 Y91.5792 Z-3.0333 I-0.0125 J0.0
G2 Y91.6008 Z-3.0667 I0.0062 J0.0108
G2 X7.5825 Y91.59 Z-3.1 I0.0062 J-0.0108
G2 X7.5638 Y91.5792 Z-3.1333 I-0.0125 J0.0
G2 Y91.6008 Z-3.1667 I0.0063 J0.0108
G2 X7.5825 Y91.59 Z-3.2 I0.0062 J-0.0108
G2 X7.5638 Y91.5792 I-0.0125 J0.0
G2 Y91.6008 I0.0063 J0.0108
G2 X7.5825 Y91.59 I0.0062 J-0.0108
G0 Z3.0
G0 X19.8225 Y91.75
G0 Z0.01
G1 F1000.0 Z0.0
G2 F2000.0 X19.8038 Y91.7392 Z-0.0333 I-0.0125 J0.0
G2 Y91.7608 Z-0.0667 I0.0062 J0.0108
G2 X19.8225 Y91.75 Z-0.1 I0.0063 J-0.0108
G2 X19.8038 Y91.7392 Z-0.1333 I-0.0125 J0.0
G2 Y91.7608 Z-0.1667 I0.0062 J0.0108
G2 X19.8225 Y91.75 Z-0.2 I0.0063 J-0.0108
G2 X19.8038 Y91.7392 Z-0.2333 I-0.0125 J0.0
G2 Y91.7608 Z-0.2667 I0.0062 J0.0108
G2 X19.8225 Y91.75 Z-0.3 I0.0063 J-0.0108
G2 X19.8038 Y91.7392 Z-0.3333 I-0.0125 J0.0
G2 Y91.7608 Z-0.3667 I0.0062 J0.0108
G2 X19.8225 Y91.75 Z-0.4 I0.0063 J-0.0108
G2 X19.8038 Y91.7392 Z-0.4333 I-0.0125 J0.0
G2 Y91.7608 Z-0.4667 I0.0062 J0.0108
G2 X19.8225 Y91.75 Z-0.5 I0.0063 J-0.0108
G2 X19.8038 Y91.7392 Z-0.5333 I-0.0125 J0.0
G2 Y91.7608 Z-0.5667 I0.0062 J0.0108
G2 X19.8225 Y91.75 Z-0.6 I0.0063 J-0.0108
G2 X19.8038 Y91.7392 Z-0.6333 I-0.0125 J0.0
G2 Y91.7608 Z-0.6667 I0.0062 J0.0108
G2 X19.8225 Y91.75 Z-0.7 I0.0063 J-0.0108
G2 X19.8038 Y91.7392 Z-0.7333 I-0.0125 J0.0
G2 Y91.7608 Z-0.7667 I0.0062 J0.0108
G2 X19.8225 Y91.75 Z-0.8 I0.0063 J-0.0108
G2 X19.8038 Y91.7392 Z-0.8333 I-0.0125 J0.0
G2 Y91.7608 Z-0.8667 I0.0062 J0.0108
G2 X19.8225 Y91.75 Z-0.9 I0.0063 J-0.0108
G2 X19.8038 Y91.7392 Z-0.9333 I-0.0125 J0.0
G2 Y91.7608 Z-0.9667 I0.0062 J0.0108
G2 X19.8225 Y91.75 Z-1.0 I0.0063 J-0.0108
G2 X19.8038 Y91.7392 Z-1.0333 I-0.0125 J0.0
G2 Y91.7608 Z-1.0667 I0.0062 J0.0108
G2 X19.8225 Y91.75 Z-1.1 I0.0063 J-0.0108
G2 X19.8038 Y91.7392 Z-1.1333 I-0.0125 J0.0
G2 Y91.7608 Z-1.1667 I0.0062 J0.0108
G2 X19.8225 Y91.75 Z-1.2 I0.0063 J-0.0108
G2 X19.8038 Y91.7392 Z-1.2333 I-0.0125 J0.0
G2 Y91.7608 Z-1.2667 I0.0062 J0.0108
G2 X19.8225 Y91.75 Z-1.3 I0.0063 J-0.0108
G2 X19.8038 Y91.7392 Z-1.3333 I-0.0125 J0.0
G2 Y91.7608 Z-1.3667 I0.0062 J0.0108
G2 X19.8225 Y91.75 Z-1.4 I0.0063 J-0.0108
G2 X19.8038 Y91.7392 Z-1.4333 I-0.0125 J0.0
G2 Y91.7608 Z-1.4667 I0.0062 J0.0108
G2 X19.8225 Y91.75 Z-1.5 I0.0063 J-0.0108
G2 X19.8038 Y91.7392 Z-1.5333 I-0.0125 J0.0
G2 Y91.7608 Z-1.5667 I0.0062 J0.0108
G2 X19.8225 Y91.75 Z-1.6 I0.0063 J-0.0108
G2 X19.8038 Y91.7392 Z-1.6333 I-0.0125 J0.0
G2 Y91.7608 Z-1.6667 I0.0062 J0.0108
G2 X19.8225 Y91.75 Z-1.7 I0.0063 J-0.0108
G2 X19.8038 Y91.7392 Z-1.7333 I-0.0125 J0.0
G2 Y91.7608 Z-1.7667 I0.0062 J0.0108
G2 X19.8225 Y91.75 Z-1.8 I0.0063 J-0.0108
G2 X19.8038 Y91.7392 Z-1.8333 I-0.0125 J0.0
G2 Y91.7608 Z-1.8667 I0.0062 J0.0108
G2 X19.8225 Y91.75 Z-1.9 I0.0063 J-0.0108
G2 X19.8038 Y91.7392 Z-1.9333 I-0.0125 J0.0
G2 Y91.7608 Z-1.9667 I0.0062 J0.0108
G2 X19.8225 Y91.75 Z-2.0 I0.0063 J-0.0108
G2 X19.8038 Y91.7392 Z-2.0333 I-0.0125 J0.0
G2 Y91.7608 Z-2.0667 I0.0062 J0.0108
G2 X19.8225 Y91.75 Z-2.1 I0.0063 J-0.0108
G2 X19.8038 Y91.7392 Z-2.1333 I-0.0125 J0.0
G2 Y91.7608 Z-2.1667 I0.0062 J0.0108
G2 X19.8225 Y91.75 Z-2.2 I0.0063 J-0.0108
G2 X19.8038 Y91.7392 Z-2.2333 I-0.0125 J0.0
G2 Y91.7608 Z-2.2667 I0.0062 J0.0108
G2 X19.8225 Y91.75 Z-2.3 I0.0063 J-0.0108
G2 X19.8038 Y91.7392 Z-2.3333 I-0.0125 J0.0
G2 Y91.7608 Z-2.3667 I0.0062 J0.0108
G2 X19.8225 Y91.75 Z-2.4 I0.0063 J-0.0108
G2 X19.8038 Y91.7392 Z-2.4333 I-0.0125 J0.0
G2 Y91.7608 Z-2.4667 I0.0062 J0.0108
G2 X19.8225 Y91.75 Z-2.5 I0.0063 J-0.0108
G2 X19.8038 Y91.7392 Z-2.5333 I-0.0125 J0.0
G2 Y91.7608 Z-2.5667 I0.0062 J0.0108
G2 X19.8225 Y91.75 Z-2.6 I0.0063 J-0.0108
G2 X19.8038 Y91.7392 Z-2.6333 I-0.0125 J0.0
G2 Y91.7608 Z-2.6667 I0.0062 J0.0108
G2 X19.8225 Y91.75 Z-2.7 I0.0063 J-0.0108
G2 X19.8038 Y91.7392 Z-2.7333 I-0.0125 J0.0
G2 Y91.7608 Z-2.7667 I0.0062 J0.0108
G2 X19.8225 Y91.75 Z-2.8 I0.0063 J-0.0108
G2 X19.8038 Y91.7392 Z-2.8333 I-0.0125 J0.0
G2 Y91.7608 Z-2.8667 I0.0062 J0.0108
G2 X19.8225 Y91.75 Z-2.9 I0.0063 J-0.0108
G2 X19.8038 Y91.7392 Z-2.9333 I-0.0125 J0.0
G2 Y91.7608 Z-2.9667 I0.0062 J0.0108
G2 X19.8225 Y91.75 Z-3.0 I0.0063 J-0.0108
G2 X19.8038 Y91.7392 Z-3.0333 I-0.0125 J0.0
G2 Y91.7608 Z-3.0667 I0.0062 J0.0108
G2 X19.8225 Y91.75 Z-3.1 I0.0063 J-0.0108
G2 X19.8038 Y91.7392 Z-3.1333 I-0.0125 J0.0
G2 Y91.7608 Z-3.1667 I0.0062 J0.0108
G2 X19.8225 Y91.75 Z-3.2 I0.0063 J-0.0108
G2 X19.8038 Y91.7392 I-0.0125 J0.0
G2 Y91.7608 I0.0063 J0.0108
G2 X19.8225 Y91.75 I0.0062 J-0.0108
G0 Z3.0
G0 X27.6425 Y101.19
G0 Z0.01
G1 F1000.0 Z0.0
G2 F2000.0 X27.6238 Y101.1792 Z-0.0333 I-0.0125 J0.0
G2 Y101.2008 Z-0.0667 I0.0062 J0.0108
G2 X27.6425 Y101.19 Z-0.1 I0.0063 J-0.0108
G2 X27.6238 Y101.1792 Z-0.1333 I-0.0125 J0.0
G2 Y101.2008 Z-0.1667 I0.0062 J0.0108
G2 X27.6425 Y101.19 Z-0.2 I0.0063 J-0.0108
G2 X27.6238 Y101.1792 Z-0.2333 I-0.0125 J0.0
G2 Y101.2008 Z-0.2667 I0.0062 J0.0108
G2 X27.6425 Y101.19 Z-0.3 I0.0063 J-0.0108
G2 X27.6238 Y101.1792 Z-0.3333 I-0.0125 J0.0
G2 Y101.2008 Z-0.3667 I0.0062 J0.0108
G2 X27.6425 Y101.19 Z-0.4 I0.0063 J-0.0108
G2 X27.6238 Y101.1792 Z-0.4333 I-0.0125 J0.0
G2 Y101.2008 Z-0.4667 I0.0062 J0.0108
G2 X27.6425 Y101.19 Z-0.5 I0.0063 J-0.0108
G2 X27.6238 Y101.1792 Z-0.5333 I-0.0125 J0.0
G2 Y101.2008 Z-0.5667 I0.0062 J0.0108
G2 X27.6425 Y101.19 Z-0.6 I0.0063 J-0.0108
G2 X27.6238 Y101.1792 Z-0.6333 I-0.0125 J0.0
G2 Y101.2008 Z-0.6667 I0.0062 J0.0108
G2 X27.6425 Y101.19 Z-0.7 I0.0063 J-0.0108
G2 X27.6238 Y101.1792 Z-0.7333 I-0.0125 J0.0
G2 Y101.2008 Z-0.7667 I0.0062 J0.0108
G2 X27.6425 Y101.19 Z-0.8 I0.0063 J-0.0108
G2 X27.6238 Y101.1792 Z-0.8333 I-0.0125 J0.0
G2 Y101.2008 Z-0.8667 I0.0062 J0.0108
G2 X27.6425 Y101.19 Z-0.9 I0.0063 J-0.0108
G2 X27.6238 Y101.1792 Z-0.9333 I-0.0125 J0.0
G2 Y101.2008 Z-0.9667 I0.0062 J0.0108
G2 X27.6425 Y101.19 Z-1.0 I0.0063 J-0.0108
G2 X27.6238 Y101.1792 Z-1.0333 I-0.0125 J0.0
G2 Y101.2008 Z-1.0667 I0.0062 J0.0108
G2 X27.6425 Y101.19 Z-1.1 I0.0063 J-0.0108
G2 X27.6238 Y101.1792 Z-1.1333 I-0.0125 J0.0
G2 Y101.2008 Z-1.1667 I0.0062 J0.0108
G2 X27.6425 Y101.19 Z-1.2 I0.0063 J-0.0108
G2 X27.6238 Y101.1792 Z-1.2333 I-0.0125 J0.0
G2 Y101.2008 Z-1.2667 I0.0062 J0.0108
G2 X27.6425 Y101.19 Z-1.3 I0.0063 J-0.0108
G2 X27.6238 Y101.1792 Z-1.3333 I-0.0125 J0.0
G2 Y101.2008 Z-1.3667 I0.0062 J0.0108
G2 X27.6425 Y101.19 Z-1.4 I0.0063 J-0.0108
G2 X27.6238 Y101.1792 Z-1.4333 I-0.0125 J0.0
G2 Y101.2008 Z-1.4667 I0.0062 J0.0108
G2 X27.6425 Y101.19 Z-1.5 I0.0063 J-0.0108
G2 X27.6238 Y101.1792 Z-1.5333 I-0.0125 J0.0
G2 Y101.2008 Z-1.5667 I0.0062 J0.0108
G2 X27.6425 Y101.19 Z-1.6 I0.0063 J-0.0108
G2 X27.6238 Y101.1792 Z-1.6333 I-0.0125 J0.0
G2 Y101.2008 Z-1.6667 I0.0062 J0.0108
G2 X27.6425 Y101.19 Z-1.7 I0.0063 J-0.0108
G2 X27.6238 Y101.1792 Z-1.7333 I-0.0125 J0.0
G2 Y101.2008 Z-1.7667 I0.0062 J0.0108
G2 X27.6425 Y101.19 Z-1.8 I0.0063 J-0.0108
G2 X27.6238 Y101.1792 Z-1.8333 I-0.0125 J0.0
G2 Y101.2008 Z-1.8667 I0.0062 J0.0108
G2 X27.6425 Y101.19 Z-1.9 I0.0063 J-0.0108
G2 X27.6238 Y101.1792 Z-1.9333 I-0.0125 J0.0
G2 Y101.2008 Z-1.9667 I0.0062 J0.0108
G2 X27.6425 Y101.19 Z-2.0 I0.0063 J-0.0108
G2 X27.6238 Y101.1792 Z-2.0333 I-0.0125 J0.0
G2 Y101.2008 Z-2.0667 I0.0062 J0.0108
G2 X27.6425 Y101.19 Z-2.1 I0.0063 J-0.0108
G2 X27.6238 Y101.1792 Z-2.1333 I-0.0125 J0.0
G2 Y101.2008 Z-2.1667 I0.0062 J0.0108
G2 X27.6425 Y101.19 Z-2.2 I0.0063 J-0.0108
G2 X27.6238 Y101.1792 Z-2.2333 I-0.0125 J0.0
G2 Y101.2008 Z-2.2667 I0.0062 J0.0108
G2 X27.6425 Y101.19 Z-2.3 I0.0063 J-0.0108
G2 X27.6238 Y101.1792 Z-2.3333 I-0.0125 J0.0
G2 Y101.2008 Z-2.3667 I0.0062 J0.0108
G2 X27.6425 Y101.19 Z-2.4 I0.0063 J-0.0108
G2 X27.6238 Y101.1792 Z-2.4333 I-0.0125 J0.0
G2 Y101.2008 Z-2.4667 I0.0062 J0.0108
G2 X27.6425 Y101.19 Z-2.5 I0.0063 J-0.0108
G2 X27.6238 Y101.1792 Z-2.5333 I-0.0125 J0.0
G2 Y101.2008 Z-2.5667 I0.0062 J0.0108
G2 X27.6425 Y101.19 Z-2.6 I0.0063 J-0.0108
G2 X27.6238 Y101.1792 Z-2.6333 I-0.0125 J0.0
G2 Y101.2008 Z-2.6667 I0.0062 J0.0108
G2 X27.6425 Y101.19 Z-2.7 I0.0063 J-0.0108
G2 X27.6238 Y101.1792 Z-2.7333 I-0.0125 J0.0
G2 Y101.2008 Z-2.7667 I0.0062 J0.0108
G2 X27.6425 Y101.19 Z-2.8 I0.0063 J-0.0108
G2 X27.6238 Y101.1792 Z-2.8333 I-0.0125 J0.0
G2 Y101.2008 Z-2.8667 I0.0062 J0.0108
G2 X27.6425 Y101.19 Z-2.9 I0.0063 J-0.0108
G2 X27.6238 Y101.1792 Z-2.9333 I-0.0125 J0.0
G2 Y101.2008 Z-2.9667 I0.0062 J0.0108
G2 X27.6425 Y101.19 Z-3.0 I0.0063 J-0.0108
G2 X27.6238 Y101.1792 Z-3.0333 I-0.0125 J0.0
G2 Y101.2008 Z-3.0667 I0.0062 J0.0108
G2 X27.6425 Y101.19 Z-3.1 I0.0063 J-0.0108
G2 X27.6238 Y101.1792 Z-3.1333 I-0.0125 J0.0
G2 Y101.2008 Z-3.1667 I0.0062 J0.0108
G2 X27.6425 Y101.19 Z-3.2 I0.0063 J-0.0108
G2 X27.6238 Y101.1792 I-0.0125 J0.0
G2 Y101.2008 I0.0063 J0.0108
G2 X27.6425 Y101.19 I0.0062 J-0.0108
G0 Z3.0
G0 X20.2825 Y107.62
G0 Z0.01
G1 F1000.0 Z0.0
G2 F2000.0 X20.2638 Y107.6092 Z-0.0333 I-0.0125 J0.0
G2 Y107.6308 Z-0.0667 I0.0062 J0.0108
G2 X20.2825 Y107.62 Z-0.1 I0.0063 J-0.0108
G2 X20.2638 Y107.6092 Z-0.1333 I-0.0125 J0.0
G2 Y107.6308 Z-0.1667 I0.0062 J0.0108
G2 X20.2825 Y107.62 Z-0.2 I0.0063 J-0.0108
G2 X20.2638 Y107.6092 Z-0.2333 I-0.0125 J0.0
G2 Y107.6308 Z-0.2667 I0.0062 J0.0108
G2 X20.2825 Y107.62 Z-0.3 I0.0063 J-0.0108
G2 X20.2638 Y107.6092 Z-0.3333 I-0.0125 J0.0
G2 Y107.6308 Z-0.3667 I0.0062 J0.0108
G2 X20.2825 Y107.62 Z-0.4 I0.0063 J-0.0108
G2 X20.2638 Y107.6092 Z-0.4333 I-0.0125 J0.0
G2 Y107.6308 Z-0.4667 I0.0062 J0.0108
G2 X20.2825 Y107.62 Z-0.5 I0.0063 J-0.0108
G2 X20.2638 Y107.6092 Z-0.5333 I-0.0125 J0.0
G2 Y107.6308 Z-0.5667 I0.0062 J0.0108
G2 X20.2825 Y107.62 Z-0.6 I0.0063 J-0.0108
G2 X20.2638 Y107.6092 Z-0.6333 I-0.0125 J0.0
G2 Y107.6308 Z-0.6667 I0.0062 J0.0108
G2 X20.2825 Y107.62 Z-0.7 I0.0063 J-0.0108
G2 X20.2638 Y107.6092 Z-0.7333 I-0.0125 J0.0
G2 Y107.6308 Z-0.7667 I0.0062 J0.0108
G2 X20.2825 Y107.62 Z-0.8 I0.0063 J-0.0108
G2 X20.2638 Y107.6092 Z-0.8333 I-0.0125 J0.0
G2 Y107.6308 Z-0.8667 I0.0062 J0.0108
G2 X20.2825 Y107.62 Z-0.9 I0.0063 J-0.0108
G2 X20.2638 Y107.6092 Z-0.9333 I-0.0125 J0.0
G2 Y107.6308 Z-0.9667 I0.0062 J0.0108
G2 X20.2825 Y107.62 Z-1.0 I0.0063 J-0.0108
G2 X20.2638 Y107.6092 Z-1.0333 I-0.0125 J0.0
G2 Y107.6308 Z-1.0667 I0.0062 J0.0108
G2 X20.2825 Y107.62 Z-1.1 I0.0063 J-0.0108
G2 X20.2638 Y107.6092 Z-1.1333 I-0.0125 J0.0
G2 Y107.6308 Z-1.1667 I0.0062 J0.0108
G2 X20.2825 Y107.62 Z-1.2 I0.0063 J-0.0108
G2 X20.2638 Y107.6092 Z-1.2333 I-0.0125 J0.0
G2 Y107.6308 Z-1.2667 I0.0062 J0.0108
G2 X20.2825 Y107.62 Z-1.3 I0.0063 J-0.0108
G2 X20.2638 Y107.6092 Z-1.3333 I-0.0125 J0.0
G2 Y107.6308 Z-1.3667 I0.0062 J0.0108
G2 X20.2825 Y107.62 Z-1.4 I0.0063 J-0.0108
G2 X20.2638 Y107.6092 Z-1.4333 I-0.0125 J0.0
G2 Y107.6308 Z-1.4667 I0.0062 J0.0108
G2 X20.2825 Y107.62 Z-1.5 I0.0063 J-0.0108
G2 X20.2638 Y107.6092 Z-1.5333 I-0.0125 J0.0
G2 Y107.6308 Z-1.5667 I0.0062 J0.0108
G2 X20.2825 Y107.62 Z-1.6 I0.0063 J-0.0108
G2 X20.2638 Y107.6092 Z-1.6333 I-0.0125 J0.0
G2 Y107.6308 Z-1.6667 I0.0062 J0.0108
G2 X20.2825 Y107.62 Z-1.7 I0.0063 J-0.0108
G2 X20.2638 Y107.6092 Z-1.7333 I-0.0125 J0.0
G2 Y107.6308 Z-1.7667 I0.0062 J0.0108
G2 X20.2825 Y107.62 Z-1.8 I0.0063 J-0.0108
G2 X20.2638 Y107.6092 Z-1.8333 I-0.0125 J0.0
G2 Y107.6308 Z-1.8667 I0.0062 J0.0108
G2 X20.2825 Y107.62 Z-1.9 I0.0063 J-0.0108
G2 X20.2638 Y107.6092 Z-1.9333 I-0.0125 J0.0
G2 Y107.6308 Z-1.9667 I0.0062 J0.0108
G2 X20.2825 Y107.62 Z-2.0 I0.0063 J-0.0108
G2 X20.2638 Y107.6092 Z-2.0333 I-0.0125 J0.0
G2 Y107.6308 Z-2.0667 I0.0062 J0.0108
G2 X20.2825 Y107.62 Z-2.1 I0.0063 J-0.0108
G2 X20.2638 Y107.6092 Z-2.1333 I-0.0125 J0.0
G2 Y107.6308 Z-2.1667 I0.0062 J0.0108
G2 X20.2825 Y107.62 Z-2.2 I0.0063 J-0.0108
G2 X20.2638 Y107.6092 Z-2.2333 I-0.0125 J0.0
G2 Y107.6308 Z-2.2667 I0.0062 J0.0108
G2 X20.2825 Y107.62 Z-2.3 I0.0063 J-0.0108
G2 X20.2638 Y107.6092 Z-2.3333 I-0.0125 J0.0
G2 Y107.6308 Z-2.3667 I0.0062 J0.0108
G2 X20.2825 Y107.62 Z-2.4 I0.0063 J-0.0108
G2 X20.2638 Y107.6092 Z-2.4333 I-0.0125 J0.0
G2 Y107.6308 Z-2.4667 I0.0062 J0.0108
G2 X20.2825 Y107.62 Z-2.5 I0.0063 J-0.0108
G2 X20.2638 Y107.6092 Z-2.5333 I-0.0125 J0.0
G2 Y107.6308 Z-2.5667 I0.0062 J0.0108
G2 X20.2825 Y107.62 Z-2.6 I0.0063 J-0.0108
G2 X20.2638 Y107.6092 Z-2.6333 I-0.0125 J0.0
G2 Y107.6308 Z-2.6667 I0.0062 J0.0108
G2 X20.2825 Y107.62 Z-2.7 I0.0063 J-0.0108
G2 X20.2638 Y107.6092 Z-2.7333 I-0.0125 J0.0
G2 Y107.6308 Z-2.7667 I0.0062 J0.0108
G2 X20.2825 Y107.62 Z-2.8 I0.0063 J-0.0108
G2 X20.2638 Y107.6092 Z-2.8333 I-0.0125 J0.0
G2 Y107.6308 Z-2.8667 I0.0062 J0.0108
G2 X20.2825 Y107.62 Z-2.9 I0.0063 J-0.0108
G2 X20.2638 Y107.6092 Z-2.9333 I-0.0125 J0.0
G2 Y107.6308 Z-2.9667 I0.0062 J0.0108
G2 X20.2825 Y107.62 Z-3.0 I0.0063 J-0.0108
G2 X20.2638 Y107.6092 Z-3.0333 I-0.0125 J0.0
G2 Y107.6308 Z-3.0667 I0.0062 J0.0108
G2 X20.2825 Y107.62 Z-3.1 I0.0063 J-0.0108
G2 X20.2638 Y107.6092 Z-3.1333 I-0.0125 J0.0
G2 Y107.6308 Z-3.1667 I0.0062 J0.0108
G2 X20.2825 Y107.62 Z-3.2 I0.0063 J-0.0108
G2 X20.2638 Y107.6092 I-0.0125 J0.0
G2 Y107.6308 I0.0063 J0.0108
G2 X20.2825 Y107.62 I0.0062 J-0.0108
G0 Z3.0
G0 X33.0425 Y91.68
G0 Z0.01
G1 F1000.0 Z0.0
G2 F2000.0 X33.0238 Y91.6692 Z-0.0333 I-0.0125 J0.0
G2 Y91.6908 Z-0.0667 I0.0062 J0.0108
G2 X33.0425 Y91.68 Z-0.1 I0.0063 J-0.0108
G2 X33.0238 Y91.6692 Z-0.1333 I-0.0125 J0.0
G2 Y91.6908 Z-0.1667 I0.0062 J0.0108
G2 X33.0425 Y91.68 Z-0.2 I0.0063 J-0.0108
G2 X33.0238 Y91.6692 Z-0.2333 I-0.0125 J0.0
G2 Y91.6908 Z-0.2667 I0.0062 J0.0108
G2 X33.0425 Y91.68 Z-0.3 I0.0063 J-0.0108
G2 X33.0238 Y91.6692 Z-0.3333 I-0.0125 J0.0
G2 Y91.6908 Z-0.3667 I0.0062 J0.0108
G2 X33.0425 Y91.68 Z-0.4 I0.0063 J-0.0108
G2 X33.0238 Y91.6692 Z-0.4333 I-0.0125 J0.0
G2 Y91.6908 Z-0.4667 I0.0062 J0.0108
G2 X33.0425 Y91.68 Z-0.5 I0.0063 J-0.0108
G2 X33.0238 Y91.6692 Z-0.5333 I-0.0125 J0.0
G2 Y91.6908 Z-0.5667 I0.0062 J0.0108
G2 X33.0425 Y91.68 Z-0.6 I0.0063 J-0.0108
G2 X33.0238 Y91.6692 Z-0.6333 I-0.0125 J0.0
G2 Y91.6908 Z-0.6667 I0.0062 J0.0108
G2 X33.0425 Y91.68 Z-0.7 I0.0063 J-0.0108
G2 X33.0238 Y91.6692 Z-0.7333 I-0.0125 J0.0
G2 Y91.6908 Z-0.7667 I0.0062 J0.0108
G2 X33.0425 Y91.68 Z-0.8 I0.0063 J-0.0108
G2 X33.0238 Y91.6692 Z-0.8333 I-0.0125 J0.0
G2 Y91.6908 Z-0.8667 I0.0062 J0.0108
G2 X33.0425 Y91.68 Z-0.9 I0.0063 J-0.0108
G2 X33.0238 Y91.6692 Z-0.9333 I-0.0125 J0.0
G2 Y91.6908 Z-0.9667 I0.0062 J0.0108
G2 X33.0425 Y91.68 Z-1.0 I0.0063 J-0.0108
G2 X33.0238 Y91.6692 Z-1.0333 I-0.0125 J0.0
G2 Y91.6908 Z-1.0667 I0.0062 J0.0108
G2 X33.0425 Y91.68 Z-1.1 I0.0063 J-0.0108
G2 X33.0238 Y91.6692 Z-1.1333 I-0.0125 J0.0
G2 Y91.6908 Z-1.1667 I0.0062 J0.0108
G2 X33.0425 Y91.68 Z-1.2 I0.0063 J-0.0108
G2 X33.0238 Y91.6692 Z-1.2333 I-0.0125 J0.0
G2 Y91.6908 Z-1.2667 I0.0062 J0.0108
G2 X33.0425 Y91.68 Z-1.3 I0.0063 J-0.0108
G2 X33.0238 Y91.6692 Z-1.3333 I-0.0125 J0.0
G2 Y91.6908 Z-1.3667 I0.0062 J0.0108
G2 X33.0425 Y91.68 Z-1.4 I0.0063 J-0.0108
G2 X33.0238 Y91.6692 Z-1.4333 I-0.0125 J0.0
G2 Y91.6908 Z-1.4667 I0.0062 J0.0108
G2 X33.0425 Y91.68 Z-1.5 I0.0063 J-0.0108
G2 X33.0238 Y91.6692 Z-1.5333 I-0.0125 J0.0
G2 Y91.6908 Z-1.5667 I0.0062 J0.0108
G2 X33.0425 Y91.68 Z-1.6 I0.0063 J-0.0108
G2 X33.0238 Y91.6692 Z-1.6333 I-0.0125 J0.0
G2 Y91.6908 Z-1.6667 I0.0062 J0.0108
G2 X33.0425 Y91.68 Z-1.7 I0.0063 J-0.0108
G2 X33.0238 Y91.6692 Z-1.7333 I-0.0125 J0.0
G2 Y91.6908 Z-1.7667 I0.0062 J0.0108
G2 X33.0425 Y91.68 Z-1.8 I0.0063 J-0.0108
G2 X33.0238 Y91.6692 Z-1.8333 I-0.0125 J0.0
G2 Y91.6908 Z-1.8667 I0.0062 J0.0108
G2 X33.0425 Y91.68 Z-1.9 I0.0063 J-0.0108
G2 X33.0238 Y91.6692 Z-1.9333 I-0.0125 J0.0
G2 Y91.6908 Z-1.9667 I0.0062 J0.0108
G2 X33.0425 Y91.68 Z-2.0 I0.0063 J-0.0108
G2 X33.0238 Y91.6692 Z-2.0333 I-0.0125 J0.0
G2 Y91.6908 Z-2.0667 I0.0062 J0.0108
G2 X33.0425 Y91.68 Z-2.1 I0.0063 J-0.0108
G2 X33.0238 Y91.6692 Z-2.1333 I-0.0125 J0.0
G2 Y91.6908 Z-2.1667 I0.0062 J0.0108
G2 X33.0425 Y91.68 Z-2.2 I0.0063 J-0.0108
G2 X33.0238 Y91.6692 Z-2.2333 I-0.0125 J0.0
G2 Y91.6908 Z-2.2667 I0.0062 J0.0108
G2 X33.0425 Y91.68 Z-2.3 I0.0063 J-0.0108
G2 X33.0238 Y91.6692 Z-2.3333 I-0.0125 J0.0
G2 Y91.6908 Z-2.3667 I0.0062 J0.0108
G2 X33.0425 Y91.68 Z-2.4 I0.0063 J-0.0108
G2 X33.0238 Y91.6692 Z-2.4333 I-0.0125 J0.0
G2 Y91.6908 Z-2.4667 I0.0062 J0.0108
G2 X33.0425 Y91.68 Z-2.5 I0.0063 J-0.0108
G2 X33.0238 Y91.6692 Z-2.5333 I-0.0125 J0.0
G2 Y91.6908 Z-2.5667 I0.0062 J0.0108
G2 X33.0425 Y91.68 Z-2.6 I0.0063 J-0.0108
G2 X33.0238 Y91.6692 Z-2.6333 I-0.0125 J0.0
G2 Y91.6908 Z-2.6667 I0.0062 J0.0108
G2 X33.0425 Y91.68 Z-2.7 I0.0063 J-0.0108
G2 X33.0238 Y91.6692 Z-2.7333 I-0.0125 J0.0
G2 Y91.6908 Z-2.7667 I0.0062 J0.0108
G2 X33.0425 Y91.68 Z-2.8 I0.0063 J-0.0108
G2 X33.0238 Y91.6692 Z-2.8333 I-0.0125 J0.0
G2 Y91.6908 Z-2.8667 I0.0062 J0.0108
G2 X33.0425 Y91.68 Z-2.9 I0.0063 J-0.0108
G2 X33.0238 Y91.6692 Z-2.9333 I-0.0125 J0.0
G2 Y91.6908 Z-2.9667 I0.0063 J0.0108
G2 X33.0425 Y91.68 Z-3.0 I0.0063 J-0.0108
G2 X33.0238 Y91.6692 Z-3.0333 I-0.0125 J0.0
G2 Y91.6908 Z-3.0667 I0.0063 J0.0108
G2 X33.0425 Y91.68 Z-3.1 I0.0063 J-0.0108
G2 X33.0238 Y91.6692 Z-3.1333 I-0.0125 J0.0
G2 Y91.6908 Z-3.1667 I0.0063 J0.0108
G2 X33.0425 Y91.68 Z-3.2 I0.0063 J-0.0108
G2 X33.0238 Y91.6692 I-0.0125 J0.0
G2 Y91.6908 I0.0063 J0.0108
G2 X33.0425 Y91.68 I0.0062 J-0.0108
G0 Z3.0
G0 X32.8825 Y80.56
G0 Z0.01
G1 F1000.0 Z0.0
G2 F2000.0 X32.8638 Y80.5492 Z-0.0333 I-0.0125 J0.0
G2 Y80.5708 Z-0.0667 I0.0062 J0.0108
G2 X32.8825 Y80.56 Z-0.1 I0.0063 J-0.0108
G2 X32.8638 Y80.5492 Z-0.1333 I-0.0125 J0.0
G2 Y80.5708 Z-0.1667 I0.0062 J0.0108
G2 X32.8825 Y80.56 Z-0.2 I0.0063 J-0.0108
G2 X32.8638 Y80.5492 Z-0.2333 I-0.0125 J0.0
G2 Y80.5708 Z-0.2667 I0.0062 J0.0108
G2 X32.8825 Y80.56 Z-0.3 I0.0063 J-0.0108
G2 X32.8638 Y80.5492 Z-0.3333 I-0.0125 J0.0
G2 Y80.5708 Z-0.3667 I0.0062 J0.0108
G2 X32.8825 Y80.56 Z-0.4 I0.0063 J-0.0108
G2 X32.8638 Y80.5492 Z-0.4333 I-0.0125 J0.0
G2 Y80.5708 Z-0.4667 I0.0062 J0.0108
G2 X32.8825 Y80.56 Z-0.5 I0.0063 J-0.0108
G2 X32.8638 Y80.5492 Z-0.5333 I-0.0125 J0.0
G2 Y80.5708 Z-0.5667 I0.0062 J0.0108
G2 X32.8825 Y80.56 Z-0.6 I0.0063 J-0.0108
G2 X32.8638 Y80.5492 Z-0.6333 I-0.0125 J0.0
G2 Y80.5708 Z-0.6667 I0.0062 J0.0108
G2 X32.8825 Y80.56 Z-0.7 I0.0063 J-0.0108
G2 X32.8638 Y80.5492 Z-0.7333 I-0.0125 J0.0
G2 Y80.5708 Z-0.7667 I0.0062 J0.0108
G2 X32.8825 Y80.56 Z-0.8 I0.0063 J-0.0108
G2 X32.8638 Y80.5492 Z-0.8333 I-0.0125 J0.0
G2 Y80.5708 Z-0.8667 I0.0062 J0.0108
G2 X32.8825 Y80.56 Z-0.9 I0.0063 J-0.0108
G2 X32.8638 Y80.5492 Z-0.9333 I-0.0125 J0.0
G2 Y80.5708 Z-0.9667 I0.0062 J0.0108
G2 X32.8825 Y80.56 Z-1.0 I0.0063 J-0.0108
G2 X32.8638 Y80.5492 Z-1.0333 I-0.0125 J0.0
G2 Y80.5708 Z-1.0667 I0.0062 J0.0108
G2 X32.8825 Y80.56 Z-1.1 I0.0063 J-0.0108
G2 X32.8638 Y80.5492 Z-1.1333 I-0.0125 J0.0
G2 Y80.5708 Z-1.1667 I0.0062 J0.0108
G2 X32.8825 Y80.56 Z-1.2 I0.0063 J-0.0108
G2 X32.8638 Y80.5492 Z-1.2333 I-0.0125 J0.0
G2 Y80.5708 Z-1.2667 I0.0062 J0.0108
G2 X32.8825 Y80.56 Z-1.3 I0.0063 J-0.0108
G2 X32.8638 Y80.5492 Z-1.3333 I-0.0125 J0.0
G2 Y80.5708 Z-1.3667 I0.0062 J0.0108
G2 X32.8825 Y80.56 Z-1.4 I0.0063 J-0.0108
G2 X32.8638 Y80.5492 Z-1.4333 I-0.0125 J0.0
G2 Y80.5708 Z-1.4667 I0.0062 J0.0108
G2 X32.8825 Y80.56 Z-1.5 I0.0063 J-0.0108
G2 X32.8638 Y80.5492 Z-1.5333 I-0.0125 J0.0
G2 Y80.5708 Z-1.5667 I0.0062 J0.0108
G2 X32.8825 Y80.56 Z-1.6 I0.0063 J-0.0108
G2 X32.8638 Y80.5492 Z-1.6333 I-0.0125 J0.0
G2 Y80.5708 Z-1.6667 I0.0062 J0.0108
G2 X32.8825 Y80.56 Z-1.7 I0.0063 J-0.0108
G2 X32.8638 Y80.5492 Z-1.7333 I-0.0125 J0.0
G2 Y80.5708 Z-1.7667 I0.0062 J0.0108
G2 X32.8825 Y80.56 Z-1.8 I0.0063 J-0.0108
G2 X32.8638 Y80.5492 Z-1.8333 I-0.0125 J0.0
G2 Y80.5708 Z-1.8667 I0.0062 J0.0108
G2 X32.8825 Y80.56 Z-1.9 I0.0063 J-0.0108
G2 X32.8638 Y80.5492 Z-1.9333 I-0.0125 J0.0
G2 Y80.5708 Z-1.9667 I0.0062 J0.0108
G2 X32.8825 Y80.56 Z-2.0 I0.0063 J-0.0108
G2 X32.8638 Y80.5492 Z-2.0333 I-0.0125 J0.0
G2 Y80.5708 Z-2.0667 I0.0062 J0.0108
G2 X32.8825 Y80.56 Z-2.1 I0.0063 J-0.0108
G2 X32.8638 Y80.5492 Z-2.1333 I-0.0125 J0.0
G2 Y80.5708 Z-2.1667 I0.0062 J0.0108
G2 X32.8825 Y80.56 Z-2.2 I0.0063 J-0.0108
G2 X32.8638 Y80.5492 Z-2.2333 I-0.0125 J0.0
G2 Y80.5708 Z-2.2667 I0.0062 J0.0108
G2 X32.8825 Y80.56 Z-2.3 I0.0063 J-0.0108
G2 X32.8638 Y80.5492 Z-2.3333 I-0.0125 J0.0
G2 Y80.5708 Z-2.3667 I0.0062 J0.0108
G2 X32.8825 Y80.56 Z-2.4 I0.0063 J-0.0108
G2 X32.8638 Y80.5492 Z-2.4333 I-0.0125 J0.0
G2 Y80.5708 Z-2.4667 I0.0062 J0.0108
G2 X32.8825 Y80.56 Z-2.5 I0.0063 J-0.0108
G2 X32.8638 Y80.5492 Z-2.5333 I-0.0125 J0.0
G2 Y80.5708 Z-2.5667 I0.0062 J0.0108
G2 X32.8825 Y80.56 Z-2.6 I0.0063 J-0.0108
G2 X32.8638 Y80.5492 Z-2.6333 I-0.0125 J0.0
G2 Y80.5708 Z-2.6667 I0.0062 J0.0108
G2 X32.8825 Y80.56 Z-2.7 I0.0063 J-0.0108
G2 X32.8638 Y80.5492 Z-2.7333 I-0.0125 J0.0
G2 Y80.5708 Z-2.7667 I0.0062 J0.0108
G2 X32.8825 Y80.56 Z-2.8 I0.0063 J-0.0108
G2 X32.8638 Y80.5492 Z-2.8333 I-0.0125 J0.0
G2 Y80.5708 Z-2.8667 I0.0062 J0.0108
G2 X32.8825 Y80.56 Z-2.9 I0.0063 J-0.0108
G2 X32.8638 Y80.5492 Z-2.9333 I-0.0125 J0.0
G2 Y80.5708 Z-2.9667 I0.0063 J0.0108
G2 X32.8825 Y80.56 Z-3.0 I0.0063 J-0.0108
G2 X32.8638 Y80.5492 Z-3.0333 I-0.0125 J0.0
G2 Y80.5708 Z-3.0667 I0.0063 J0.0108
G2 X32.8825 Y80.56 Z-3.1 I0.0063 J-0.0108
G2 X32.8638 Y80.5492 Z-3.1333 I-0.0125 J0.0
G2 Y80.5708 Z-3.1667 I0.0063 J0.0108
G2 X32.8825 Y80.56 Z-3.2 I0.0063 J-0.0108
G2 X32.8638 Y80.5492 I-0.0125 J0.0
G2 Y80.5708 I0.0063 J0.0108
G2 X32.8825 Y80.56 I0.0062 J-0.0108
G0 Z3.0
G0 X32.9125 Y125.5
G0 Z0.01
G1 F1000.0 Z0.0
G2 F2000.0 X32.8937 Y125.4892 Z-0.0333 I-0.0125 J0.0
G2 Y125.5108 Z-0.0667 I0.0062 J0.0108
G2 X32.9125 Y125.5 Z-0.1 I0.0063 J-0.0108
G2 X32.8937 Y125.4892 Z-0.1333 I-0.0125 J0.0
G2 Y125.5108 Z-0.1667 I0.0062 J0.0108
G2 X32.9125 Y125.5 Z-0.2 I0.0063 J-0.0108
G2 X32.8937 Y125.4892 Z-0.2333 I-0.0125 J0.0
G2 Y125.5108 Z-0.2667 I0.0062 J0.0108
G2 X32.9125 Y125.5 Z-0.3 I0.0063 J-0.0108
G2 X32.8937 Y125.4892 Z-0.3333 I-0.0125 J0.0
G2 Y125.5108 Z-0.3667 I0.0062 J0.0108
G2 X32.9125 Y125.5 Z-0.4 I0.0063 J-0.0108
G2 X32.8937 Y125.4892 Z-0.4333 I-0.0125 J0.0
G2 Y125.5108 Z-0.4667 I0.0062 J0.0108
G2 X32.9125 Y125.5 Z-0.5 I0.0063 J-0.0108
G2 X32.8937 Y125.4892 Z-0.5333 I-0.0125 J0.0
G2 Y125.5108 Z-0.5667 I0.0062 J0.0108
G2 X32.9125 Y125.5 Z-0.6 I0.0063 J-0.0108
G2 X32.8937 Y125.4892 Z-0.6333 I-0.0125 J0.0
G2 Y125.5108 Z-0.6667 I0.0062 J0.0108
G2 X32.9125 Y125.5 Z-0.7 I0.0063 J-0.0108
G2 X32.8937 Y125.4892 Z-0.7333 I-0.0125 J0.0
G2 Y125.5108 Z-0.7667 I0.0062 J0.0108
G2 X32.9125 Y125.5 Z-0.8 I0.0063 J-0.0108
G2 X32.8937 Y125.4892 Z-0.8333 I-0.0125 J0.0
G2 Y125.5108 Z-0.8667 I0.0062 J0.0108
G2 X32.9125 Y125.5 Z-0.9 I0.0063 J-0.0108
G2 X32.8937 Y125.4892 Z-0.9333 I-0.0125 J0.0
G2 Y125.5108 Z-0.9667 I0.0062 J0.0108
G2 X32.9125 Y125.5 Z-1.0 I0.0063 J-0.0108
G2 X32.8937 Y125.4892 Z-1.0333 I-0.0125 J0.0
G2 Y125.5108 Z-1.0667 I0.0062 J0.0108
G2 X32.9125 Y125.5 Z-1.1 I0.0063 J-0.0108
G2 X32.8937 Y125.4892 Z-1.1333 I-0.0125 J0.0
G2 Y125.5108 Z-1.1667 I0.0062 J0.0108
G2 X32.9125 Y125.5 Z-1.2 I0.0063 J-0.0108
G2 X32.8937 Y125.4892 Z-1.2333 I-0.0125 J0.0
G2 Y125.5108 Z-1.2667 I0.0062 J0.0108
G2 X32.9125 Y125.5 Z-1.3 I0.0063 J-0.0108
G2 X32.8937 Y125.4892 Z-1.3333 I-0.0125 J0.0
G2 Y125.5108 Z-1.3667 I0.0062 J0.0108
G2 X32.9125 Y125.5 Z-1.4 I0.0063 J-0.0108
G2 X32.8937 Y125.4892 Z-1.4333 I-0.0125 J0.0
G2 Y125.5108 Z-1.4667 I0.0062 J0.0108
G2 X32.9125 Y125.5 Z-1.5 I0.0063 J-0.0108
G2 X32.8937 Y125.4892 Z-1.5333 I-0.0125 J0.0
G2 Y125.5108 Z-1.5667 I0.0062 J0.0108
G2 X32.9125 Y125.5 Z-1.6 I0.0063 J-0.0108
G2 X32.8937 Y125.4892 Z-1.6333 I-0.0125 J0.0
G2 Y125.5108 Z-1.6667 I0.0062 J0.0108
G2 X32.9125 Y125.5 Z-1.7 I0.0063 J-0.0108
G2 X32.8937 Y125.4892 Z-1.7333 I-0.0125 J0.0
G2 Y125.5108 Z-1.7667 I0.0062 J0.0108
G2 X32.9125 Y125.5 Z-1.8 I0.0063 J-0.0108
G2 X32.8937 Y125.4892 Z-1.8333 I-0.0125 J0.0
G2 Y125.5108 Z-1.8667 I0.0062 J0.0108
G2 X32.9125 Y125.5 Z-1.9 I0.0063 J-0.0108
G2 X32.8937 Y125.4892 Z-1.9333 I-0.0125 J0.0
G2 Y125.5108 Z-1.9667 I0.0062 J0.0108
G2 X32.9125 Y125.5 Z-2.0 I0.0063 J-0.0108
G2 X32.8937 Y125.4892 Z-2.0333 I-0.0125 J0.0
G2 Y125.5108 Z-2.0667 I0.0062 J0.0108
