( Made using CamBam - http://www.cambam.co.uk )
( monosynth_midi_cv_panel_print 9/6/2015 9:50:15 PM )
( T3 : 3.175 )
G21 G90 G64 G40
G0 Z3.0
( T3 : 3.175 )
T3 M6
( mounting )
G17
M3 S1000
G0 X8.773 Y124.9847
G0 Z3.0
G0 X8.7855 Y124.9847
G0 Z0.5
G1 F1000.0 Z0.0
G2 F2000.0 X8.7668 Y124.9739 Z-0.0333 I-0.0125 J0.0
G2 Y124.9955 Z-0.0667 I0.0062 J0.0108
G2 X8.7855 Y124.9847 Z-0.1 I0.0063 J-0.0108
G2 X8.7668 Y124.9739 Z-0.1333 I-0.0125 J0.0
G2 Y124.9955 Z-0.1667 I0.0062 J0.0108
G2 X8.7855 Y124.9847 Z-0.2 I0.0063 J-0.0108
G2 X8.7668 Y124.9739 Z-0.2333 I-0.0125 J0.0
G2 Y124.9955 Z-0.2667 I0.0062 J0.0108
G2 X8.7855 Y124.9847 Z-0.3 I0.0063 J-0.0108
G2 X8.7668 Y124.9739 Z-0.3333 I-0.0125 J0.0
G2 Y124.9955 Z-0.3667 I0.0062 J0.0108
G2 X8.7855 Y124.9847 Z-0.4 I0.0063 J-0.0108
G2 X8.7668 Y124.9739 Z-0.4333 I-0.0125 J0.0
G2 Y124.9955 Z-0.4667 I0.0062 J0.0108
G2 X8.7855 Y124.9847 Z-0.5 I0.0063 J-0.0108
G2 X8.7668 Y124.9739 Z-0.5333 I-0.0125 J0.0
G2 Y124.9955 Z-0.5667 I0.0062 J0.0108
G2 X8.7855 Y124.9847 Z-0.6 I0.0063 J-0.0108
G2 X8.7668 Y124.9739 Z-0.6333 I-0.0125 J0.0
G2 Y124.9955 Z-0.6667 I0.0062 J0.0108
G2 X8.7855 Y124.9847 Z-0.7 I0.0063 J-0.0108
G2 X8.7668 Y124.9739 Z-0.7333 I-0.0125 J0.0
G2 Y124.9955 Z-0.7667 I0.0062 J0.0108
G2 X8.7855 Y124.9847 Z-0.8 I0.0063 J-0.0108
G2 X8.7668 Y124.9739 Z-0.8333 I-0.0125 J0.0
G2 Y124.9955 Z-0.8667 I0.0062 J0.0108
G2 X8.7855 Y124.9847 Z-0.9 I0.0063 J-0.0108
G2 X8.7668 Y124.9739 Z-0.9333 I-0.0125 J0.0
G2 Y124.9955 Z-0.9667 I0.0062 J0.0108
G2 X8.7855 Y124.9847 Z-1.0 I0.0063 J-0.0108
G2 X8.7668 Y124.9739 Z-1.0333 I-0.0125 J0.0
G2 Y124.9955 Z-1.0667 I0.0062 J0.0108
G2 X8.7855 Y124.9847 Z-1.1 I0.0063 J-0.0108
G2 X8.7668 Y124.9739 Z-1.1333 I-0.0125 J0.0
G2 Y124.9955 Z-1.1667 I0.0062 J0.0108
G2 X8.7855 Y124.9847 Z-1.2 I0.0063 J-0.0108
G2 X8.7668 Y124.9739 Z-1.2333 I-0.0125 J0.0
G2 Y124.9955 Z-1.2667 I0.0062 J0.0108
G2 X8.7855 Y124.9847 Z-1.3 I0.0063 J-0.0108
G2 X8.7668 Y124.9739 Z-1.3333 I-0.0125 J0.0
G2 Y124.9955 Z-1.3667 I0.0062 J0.0108
G2 X8.7855 Y124.9847 Z-1.4 I0.0063 J-0.0108
G2 X8.7668 Y124.9739 Z-1.4333 I-0.0125 J0.0
G2 Y124.9955 Z-1.4667 I0.0062 J0.0108
G2 X8.7855 Y124.9847 Z-1.5 I0.0063 J-0.0108
G2 X8.7668 Y124.9739 Z-1.5333 I-0.0125 J0.0
G2 Y124.9955 Z-1.5667 I0.0062 J0.0108
G2 X8.7855 Y124.9847 Z-1.6 I0.0063 J-0.0108
G2 X8.7668 Y124.9739 Z-1.6333 I-0.0125 J0.0
G2 Y124.9955 Z-1.6667 I0.0062 J0.0108
G2 X8.7855 Y124.9847 Z-1.7 I0.0063 J-0.0108
G2 X8.7668 Y124.9739 Z-1.7333 I-0.0125 J0.0
G2 Y124.9955 Z-1.7667 I0.0062 J0.0108
G2 X8.7855 Y124.9847 Z-1.8 I0.0063 J-0.0108
G2 X8.7668 Y124.9739 Z-1.8333 I-0.0125 J0.0
G2 Y124.9955 Z-1.8667 I0.0062 J0.0108
G2 X8.7855 Y124.9847 Z-1.9 I0.0063 J-0.0108
G2 X8.7668 Y124.9739 Z-1.9333 I-0.0125 J0.0
G2 Y124.9955 Z-1.9667 I0.0062 J0.0108
G2 X8.7855 Y124.9847 Z-2.0 I0.0063 J-0.0108
G2 X8.7668 Y124.9739 Z-2.0333 I-0.0125 J0.0
G2 Y124.9955 Z-2.0667 I0.0062 J0.0108
G2 X8.7855 Y124.9847 Z-2.1 I0.0063 J-0.0108
G2 X8.7668 Y124.9739 Z-2.1333 I-0.0125 J0.0
G2 Y124.9955 Z-2.1667 I0.0062 J0.0108
G2 X8.7855 Y124.9847 Z-2.2 I0.0063 J-0.0108
G2 X8.7668 Y124.9739 Z-2.2333 I-0.0125 J0.0
G2 Y124.9955 Z-2.2667 I0.0062 J0.0108
G2 X8.7855 Y124.9847 Z-2.3 I0.0063 J-0.0108
G2 X8.7668 Y124.9739 Z-2.3333 I-0.0125 J0.0
G2 Y124.9955 Z-2.3667 I0.0062 J0.0108
G2 X8.7855 Y124.9847 Z-2.4 I0.0063 J-0.0108
G2 X8.7668 Y124.9739 Z-2.4333 I-0.0125 J0.0
G2 Y124.9955 Z-2.4667 I0.0062 J0.0108
G2 X8.7855 Y124.9847 Z-2.5 I0.0063 J-0.0108
G2 X8.7668 Y124.9739 Z-2.5333 I-0.0125 J0.0
G2 Y124.9955 Z-2.5667 I0.0062 J0.0108
G2 X8.7855 Y124.9847 Z-2.6 I0.0063 J-0.0108
G2 X8.7668 Y124.9739 Z-2.6333 I-0.0125 J0.0
G2 Y124.9955 Z-2.6667 I0.0062 J0.0108
G2 X8.7855 Y124.9847 Z-2.7 I0.0063 J-0.0108
G2 X8.7668 Y124.9739 Z-2.7333 I-0.0125 J0.0
G2 Y124.9955 Z-2.7667 I0.0062 J0.0108
G2 X8.7855 Y124.9847 Z-2.8 I0.0063 J-0.0108
G2 X8.7668 Y124.9739 Z-2.8333 I-0.0125 J0.0
G2 Y124.9955 Z-2.8667 I0.0062 J0.0108
G2 X8.7855 Y124.9847 Z-2.9 I0.0063 J-0.0108
G2 X8.7668 Y124.9739 Z-2.9333 I-0.0125 J0.0
G2 Y124.9955 Z-2.9667 I0.0062 J0.0108
G2 X8.7855 Y124.9847 Z-3.0 I0.0063 J-0.0108
G2 X8.7668 Y124.9739 Z-3.0333 I-0.0125 J0.0
G2 Y124.9955 Z-3.0667 I0.0062 J0.0108
G2 X8.7855 Y124.9847 Z-3.1 I0.0063 J-0.0108
G2 X8.7668 Y124.9739 Z-3.1333 I-0.0125 J0.0
G2 Y124.9955 Z-3.1667 I0.0063 J0.0108
G2 X8.7855 Y124.9847 Z-3.2 I0.0062 J-0.0108
G2 X8.7668 Y124.9739 I-0.0125 J0.0
G2 Y124.9955 I0.0063 J0.0108
G2 X8.7855 Y124.9847 I0.0062 J-0.0108
G0 Z3.0
G0 X6.1891 Y103.0123
G0 Z0.5
G1 F1000.0 Z0.0
G2 F2000.0 X6.1704 Y103.0015 Z-0.0333 I-0.0125 J0.0
G2 Y103.0231 Z-0.0667 I0.0062 J0.0108
G2 X6.1891 Y103.0123 Z-0.1 I0.0063 J-0.0108
G2 X6.1704 Y103.0015 Z-0.1333 I-0.0125 J0.0
G2 Y103.0231 Z-0.1667 I0.0062 J0.0108
G2 X6.1891 Y103.0123 Z-0.2 I0.0063 J-0.0108
G2 X6.1704 Y103.0015 Z-0.2333 I-0.0125 J0.0
G2 Y103.0231 Z-0.2667 I0.0062 J0.0108
G2 X6.1891 Y103.0123 Z-0.3 I0.0063 J-0.0108
G2 X6.1704 Y103.0015 Z-0.3333 I-0.0125 J0.0
G2 Y103.0231 Z-0.3667 I0.0062 J0.0108
G2 X6.1891 Y103.0123 Z-0.4 I0.0063 J-0.0108
G2 X6.1704 Y103.0015 Z-0.4333 I-0.0125 J0.0
G2 Y103.0231 Z-0.4667 I0.0062 J0.0108
G2 X6.1891 Y103.0123 Z-0.5 I0.0063 J-0.0108
G2 X6.1704 Y103.0015 Z-0.5333 I-0.0125 J0.0
G2 Y103.0231 Z-0.5667 I0.0062 J0.0108
G2 X6.1891 Y103.0123 Z-0.6 I0.0063 J-0.0108
G2 X6.1704 Y103.0015 Z-0.6333 I-0.0125 J0.0
G2 Y103.0231 Z-0.6667 I0.0062 J0.0108
G2 X6.1891 Y103.0123 Z-0.7 I0.0063 J-0.0108
G2 X6.1704 Y103.0015 Z-0.7333 I-0.0125 J0.0
G2 Y103.0231 Z-0.7667 I0.0062 J0.0108
G2 X6.1891 Y103.0123 Z-0.8 I0.0063 J-0.0108
G2 X6.1704 Y103.0015 Z-0.8333 I-0.0125 J0.0
G2 Y103.0231 Z-0.8667 I0.0062 J0.0108
G2 X6.1891 Y103.0123 Z-0.9 I0.0063 J-0.0108
G2 X6.1704 Y103.0015 Z-0.9333 I-0.0125 J0.0
G2 Y103.0231 Z-0.9667 I0.0062 J0.0108
G2 X6.1891 Y103.0123 Z-1.0 I0.0063 J-0.0108
G2 X6.1704 Y103.0015 Z-1.0333 I-0.0125 J0.0
G2 Y103.0231 Z-1.0667 I0.0062 J0.0108
G2 X6.1891 Y103.0123 Z-1.1 I0.0063 J-0.0108
G2 X6.1704 Y103.0015 Z-1.1333 I-0.0125 J0.0
G2 Y103.0231 Z-1.1667 I0.0062 J0.0108
G2 X6.1891 Y103.0123 Z-1.2 I0.0063 J-0.0108
G2 X6.1704 Y103.0015 Z-1.2333 I-0.0125 J0.0
G2 Y103.0231 Z-1.2667 I0.0062 J0.0108
G2 X6.1891 Y103.0123 Z-1.3 I0.0063 J-0.0108
G2 X6.1704 Y103.0015 Z-1.3333 I-0.0125 J0.0
G2 Y103.0231 Z-1.3667 I0.0062 J0.0108
G2 X6.1891 Y103.0123 Z-1.4 I0.0063 J-0.0108
G2 X6.1704 Y103.0015 Z-1.4333 I-0.0125 J0.0
G2 Y103.0231 Z-1.4667 I0.0062 J0.0108
G2 X6.1891 Y103.0123 Z-1.5 I0.0063 J-0.0108
G2 X6.1704 Y103.0015 Z-1.5333 I-0.0125 J0.0
G2 Y103.0231 Z-1.5667 I0.0062 J0.0108
G2 X6.1891 Y103.0123 Z-1.6 I0.0063 J-0.0108
G2 X6.1704 Y103.0015 Z-1.6333 I-0.0125 J0.0
G2 Y103.0231 Z-1.6667 I0.0062 J0.0108
G2 X6.1891 Y103.0123 Z-1.7 I0.0063 J-0.0108
G2 X6.1704 Y103.0015 Z-1.7333 I-0.0125 J0.0
G2 Y103.0231 Z-1.7667 I0.0062 J0.0108
G2 X6.1891 Y103.0123 Z-1.8 I0.0063 J-0.0108
G2 X6.1704 Y103.0015 Z-1.8333 I-0.0125 J0.0
G2 Y103.0231 Z-1.8667 I0.0062 J0.0108
G2 X6.1891 Y103.0123 Z-1.9 I0.0063 J-0.0108
G2 X6.1704 Y103.0015 Z-1.9333 I-0.0125 J0.0
G2 Y103.0231 Z-1.9667 I0.0062 J0.0108
G2 X6.1891 Y103.0123 Z-2.0 I0.0063 J-0.0108
G2 X6.1704 Y103.0015 Z-2.0333 I-0.0125 J0.0
G2 Y103.0231 Z-2.0667 I0.0062 J0.0108
G2 X6.1891 Y103.0123 Z-2.1 I0.0063 J-0.0108
G2 X6.1704 Y103.0015 Z-2.1333 I-0.0125 J0.0
G2 Y103.0231 Z-2.1667 I0.0062 J0.0108
G2 X6.1891 Y103.0123 Z-2.2 I0.0063 J-0.0108
G2 X6.1704 Y103.0015 Z-2.2333 I-0.0125 J0.0
G2 Y103.0231 Z-2.2667 I0.0062 J0.0108
G2 X6.1891 Y103.0123 Z-2.3 I0.0063 J-0.0108
G2 X6.1704 Y103.0015 Z-2.3333 I-0.0125 J0.0
G2 Y103.0231 Z-2.3667 I0.0062 J0.0108
G2 X6.1891 Y103.0123 Z-2.4 I0.0063 J-0.0108
G2 X6.1704 Y103.0015 Z-2.4333 I-0.0125 J0.0
G2 Y103.0231 Z-2.4667 I0.0062 J0.0108
G2 X6.1891 Y103.0123 Z-2.5 I0.0063 J-0.0108
G2 X6.1704 Y103.0015 Z-2.5333 I-0.0125 J0.0
G2 Y103.0231 Z-2.5667 I0.0062 J0.0108
G2 X6.1891 Y103.0123 Z-2.6 I0.0063 J-0.0108
G2 X6.1704 Y103.0015 Z-2.6333 I-0.0125 J0.0
G2 Y103.0231 Z-2.6667 I0.0062 J0.0108
G2 X6.1891 Y103.0123 Z-2.7 I0.0063 J-0.0108
G2 X6.1704 Y103.0015 Z-2.7333 I-0.0125 J0.0
G2 Y103.0231 Z-2.7667 I0.0062 J0.0108
G2 X6.1891 Y103.0123 Z-2.8 I0.0063 J-0.0108
G2 X6.1704 Y103.0015 Z-2.8333 I-0.0125 J0.0
G2 Y103.0231 Z-2.8667 I0.0062 J0.0108
G2 X6.1891 Y103.0123 Z-2.9 I0.0063 J-0.0108
G2 X6.1704 Y103.0015 Z-2.9333 I-0.0125 J0.0
G2 Y103.0231 Z-2.9667 I0.0062 J0.0108
G2 X6.1891 Y103.0123 Z-3.0 I0.0063 J-0.0108
G2 X6.1704 Y103.0015 Z-3.0333 I-0.0125 J0.0
G2 Y103.0231 Z-3.0667 I0.0062 J0.0108
G2 X6.1891 Y103.0123 Z-3.1 I0.0062 J-0.0108
G2 X6.1704 Y103.0015 Z-3.1333 I-0.0125 J0.0
G2 Y103.0231 Z-3.1667 I0.0063 J0.0108
G2 X6.1891 Y103.0123 Z-3.2 I0.0062 J-0.0108
G2 X6.1704 Y103.0015 I-0.0125 J0.0
G2 Y103.0231 I0.0063 J0.0108
G2 X6.1891 Y103.0123 I0.0062 J-0.0108
G0 Z3.0
G0 X17.1947
G0 Z0.5
G1 F1000.0 Z0.0
G2 F2000.0 X17.1759 Y103.0015 Z-0.0333 I-0.0125 J0.0
G2 Y103.0231 Z-0.0667 I0.0062 J0.0108
G2 X17.1947 Y103.0123 Z-0.1 I0.0063 J-0.0108
G2 X17.1759 Y103.0015 Z-0.1333 I-0.0125 J0.0
G2 Y103.0231 Z-0.1667 I0.0062 J0.0108
G2 X17.1947 Y103.0123 Z-0.2 I0.0063 J-0.0108
G2 X17.1759 Y103.0015 Z-0.2333 I-0.0125 J0.0
G2 Y103.0231 Z-0.2667 I0.0062 J0.0108
G2 X17.1947 Y103.0123 Z-0.3 I0.0063 J-0.0108
G2 X17.1759 Y103.0015 Z-0.3333 I-0.0125 J0.0
G2 Y103.0231 Z-0.3667 I0.0062 J0.0108
G2 X17.1947 Y103.0123 Z-0.4 I0.0063 J-0.0108
G2 X17.1759 Y103.0015 Z-0.4333 I-0.0125 J0.0
G2 Y103.0231 Z-0.4667 I0.0062 J0.0108
G2 X17.1947 Y103.0123 Z-0.5 I0.0063 J-0.0108
G2 X17.1759 Y103.0015 Z-0.5333 I-0.0125 J0.0
G2 Y103.0231 Z-0.5667 I0.0062 J0.0108
G2 X17.1947 Y103.0123 Z-0.6 I0.0063 J-0.0108
G2 X17.1759 Y103.0015 Z-0.6333 I-0.0125 J0.0
G2 Y103.0231 Z-0.6667 I0.0062 J0.0108
G2 X17.1947 Y103.0123 Z-0.7 I0.0063 J-0.0108
G2 X17.1759 Y103.0015 Z-0.7333 I-0.0125 J0.0
G2 Y103.0231 Z-0.7667 I0.0062 J0.0108
G2 X17.1947 Y103.0123 Z-0.8 I0.0063 J-0.0108
G2 X17.1759 Y103.0015 Z-0.8333 I-0.0125 J0.0
G2 Y103.0231 Z-0.8667 I0.0062 J0.0108
G2 X17.1947 Y103.0123 Z-0.9 I0.0063 J-0.0108
G2 X17.1759 Y103.0015 Z-0.9333 I-0.0125 J0.0
G2 Y103.0231 Z-0.9667 I0.0062 J0.0108
G2 X17.1947 Y103.0123 Z-1.0 I0.0063 J-0.0108
G2 X17.1759 Y103.0015 Z-1.0333 I-0.0125 J0.0
G2 Y103.0231 Z-1.0667 I0.0062 J0.0108
G2 X17.1947 Y103.0123 Z-1.1 I0.0063 J-0.0108
G2 X17.1759 Y103.0015 Z-1.1333 I-0.0125 J0.0
G2 Y103.0231 Z-1.1667 I0.0062 J0.0108
G2 X17.1947 Y103.0123 Z-1.2 I0.0063 J-0.0108
G2 X17.1759 Y103.0015 Z-1.2333 I-0.0125 J0.0
G2 Y103.0231 Z-1.2667 I0.0062 J0.0108
G2 X17.1947 Y103.0123 Z-1.3 I0.0063 J-0.0108
G2 X17.1759 Y103.0015 Z-1.3333 I-0.0125 J0.0
G2 Y103.0231 Z-1.3667 I0.0062 J0.0108
G2 X17.1947 Y103.0123 Z-1.4 I0.0063 J-0.0108
G2 X17.1759 Y103.0015 Z-1.4333 I-0.0125 J0.0
G2 Y103.0231 Z-1.4667 I0.0062 J0.0108
G2 X17.1947 Y103.0123 Z-1.5 I0.0063 J-0.0108
G2 X17.1759 Y103.0015 Z-1.5333 I-0.0125 J0.0
G2 Y103.0231 Z-1.5667 I0.0062 J0.0108
G2 X17.1947 Y103.0123 Z-1.6 I0.0063 J-0.0108
G2 X17.1759 Y103.0015 Z-1.6333 I-0.0125 J0.0
G2 Y103.0231 Z-1.6667 I0.0062 J0.0108
G2 X17.1947 Y103.0123 Z-1.7 I0.0063 J-0.0108
G2 X17.1759 Y103.0015 Z-1.7333 I-0.0125 J0.0
G2 Y103.0231 Z-1.7667 I0.0062 J0.0108
G2 X17.1947 Y103.0123 Z-1.8 I0.0063 J-0.0108
G2 X17.1759 Y103.0015 Z-1.8333 I-0.0125 J0.0
G2 Y103.0231 Z-1.8667 I0.0062 J0.0108
G2 X17.1947 Y103.0123 Z-1.9 I0.0063 J-0.0108
G2 X17.1759 Y103.0015 Z-1.9333 I-0.0125 J0.0
G2 Y103.0231 Z-1.9667 I0.0062 J0.0108
G2 X17.1947 Y103.0123 Z-2.0 I0.0063 J-0.0108
G2 X17.1759 Y103.0015 Z-2.0333 I-0.0125 J0.0
G2 Y103.0231 Z-2.0667 I0.0062 J0.0108
G2 X17.1947 Y103.0123 Z-2.1 I0.0063 J-0.0108
G2 X17.1759 Y103.0015 Z-2.1333 I-0.0125 J0.0
G2 Y103.0231 Z-2.1667 I0.0062 J0.0108
G2 X17.1947 Y103.0123 Z-2.2 I0.0063 J-0.0108
G2 X17.1759 Y103.0015 Z-2.2333 I-0.0125 J0.0
G2 Y103.0231 Z-2.2667 I0.0062 J0.0108
G2 X17.1947 Y103.0123 Z-2.3 I0.0063 J-0.0108
G2 X17.1759 Y103.0015 Z-2.3333 I-0.0125 J0.0
G2 Y103.0231 Z-2.3667 I0.0062 J0.0108
G2 X17.1947 Y103.0123 Z-2.4 I0.0063 J-0.0108
G2 X17.1759 Y103.0015 Z-2.4333 I-0.0125 J0.0
G2 Y103.0231 Z-2.4667 I0.0062 J0.0108
G2 X17.1947 Y103.0123 Z-2.5 I0.0063 J-0.0108
G2 X17.1759 Y103.0015 Z-2.5333 I-0.0125 J0.0
G2 Y103.0231 Z-2.5667 I0.0062 J0.0108
G2 X17.1947 Y103.0123 Z-2.6 I0.0063 J-0.0108
G2 X17.1759 Y103.0015 Z-2.6333 I-0.0125 J0.0
G2 Y103.0231 Z-2.6667 I0.0062 J0.0108
G2 X17.1947 Y103.0123 Z-2.7 I0.0063 J-0.0108
G2 X17.1759 Y103.0015 Z-2.7333 I-0.0125 J0.0
G2 Y103.0231 Z-2.7667 I0.0062 J0.0108
G2 X17.1947 Y103.0123 Z-2.8 I0.0063 J-0.0108
G2 X17.1759 Y103.0015 Z-2.8333 I-0.0125 J0.0
G2 Y103.0231 Z-2.8667 I0.0062 J0.0108
G2 X17.1947 Y103.0123 Z-2.9 I0.0063 J-0.0108
G2 X17.1759 Y103.0015 Z-2.9333 I-0.0125 J0.0
G2 Y103.0231 Z-2.9667 I0.0062 J0.0108
G2 X17.1947 Y103.0123 Z-3.0 I0.0063 J-0.0108
G2 X17.1759 Y103.0015 Z-3.0333 I-0.0125 J0.0
G2 Y103.0231 Z-3.0667 I0.0062 J0.0108
G2 X17.1947 Y103.0123 Z-3.1 I0.0063 J-0.0108
G2 X17.1759 Y103.0015 Z-3.1333 I-0.0125 J0.0
G2 Y103.0231 Z-3.1667 I0.0062 J0.0108
G2 X17.1947 Y103.0123 Z-3.2 I0.0063 J-0.0108
G2 X17.1759 Y103.0015 I-0.0125 J0.0
G2 Y103.0231 I0.0063 J0.0108
G2 X17.1947 Y103.0123 I0.0062 J-0.0108
G0 Z3.0
G0 X28.394
G0 Z0.5
G1 F1000.0 Z0.0
G2 F2000.0 X28.3753 Y103.0015 Z-0.0333 I-0.0125 J0.0
G2 Y103.0231 Z-0.0667 I0.0062 J0.0108
G2 X28.394 Y103.0123 Z-0.1 I0.0063 J-0.0108
G2 X28.3753 Y103.0015 Z-0.1333 I-0.0125 J0.0
G2 Y103.0231 Z-0.1667 I0.0062 J0.0108
G2 X28.394 Y103.0123 Z-0.2 I0.0063 J-0.0108
G2 X28.3753 Y103.0015 Z-0.2333 I-0.0125 J0.0
G2 Y103.0231 Z-0.2667 I0.0062 J0.0108
G2 X28.394 Y103.0123 Z-0.3 I0.0063 J-0.0108
G2 X28.3753 Y103.0015 Z-0.3333 I-0.0125 J0.0
G2 Y103.0231 Z-0.3667 I0.0062 J0.0108
G2 X28.394 Y103.0123 Z-0.4 I0.0063 J-0.0108
G2 X28.3753 Y103.0015 Z-0.4333 I-0.0125 J0.0
G2 Y103.0231 Z-0.4667 I0.0062 J0.0108
G2 X28.394 Y103.0123 Z-0.5 I0.0063 J-0.0108
G2 X28.3753 Y103.0015 Z-0.5333 I-0.0125 J0.0
G2 Y103.0231 Z-0.5667 I0.0062 J0.0108
G2 X28.394 Y103.0123 Z-0.6 I0.0063 J-0.0108
G2 X28.3753 Y103.0015 Z-0.6333 I-0.0125 J0.0
G2 Y103.0231 Z-0.6667 I0.0062 J0.0108
G2 X28.394 Y103.0123 Z-0.7 I0.0063 J-0.0108
G2 X28.3753 Y103.0015 Z-0.7333 I-0.0125 J0.0
G2 Y103.0231 Z-0.7667 I0.0062 J0.0108
G2 X28.394 Y103.0123 Z-0.8 I0.0063 J-0.0108
G2 X28.3753 Y103.0015 Z-0.8333 I-0.0125 J0.0
G2 Y103.0231 Z-0.8667 I0.0062 J0.0108
G2 X28.394 Y103.0123 Z-0.9 I0.0063 J-0.0108
G2 X28.3753 Y103.0015 Z-0.9333 I-0.0125 J0.0
G2 Y103.0231 Z-0.9667 I0.0062 J0.0108
G2 X28.394 Y103.0123 Z-1.0 I0.0063 J-0.0108
G2 X28.3753 Y103.0015 Z-1.0333 I-0.0125 J0.0
G2 Y103.0231 Z-1.0667 I0.0062 J0.0108
G2 X28.394 Y103.0123 Z-1.1 I0.0063 J-0.0108
G2 X28.3753 Y103.0015 Z-1.1333 I-0.0125 J0.0
G2 Y103.0231 Z-1.1667 I0.0062 J0.0108
G2 X28.394 Y103.0123 Z-1.2 I0.0063 J-0.0108
G2 X28.3753 Y103.0015 Z-1.2333 I-0.0125 J0.0
G2 Y103.0231 Z-1.2667 I0.0062 J0.0108
G2 X28.394 Y103.0123 Z-1.3 I0.0063 J-0.0108
G2 X28.3753 Y103.0015 Z-1.3333 I-0.0125 J0.0
G2 Y103.0231 Z-1.3667 I0.0062 J0.0108
G2 X28.394 Y103.0123 Z-1.4 I0.0063 J-0.0108
G2 X28.3753 Y103.0015 Z-1.4333 I-0.0125 J0.0
G2 Y103.0231 Z-1.4667 I0.0062 J0.0108
G2 X28.394 Y103.0123 Z-1.5 I0.0063 J-0.0108
G2 X28.3753 Y103.0015 Z-1.5333 I-0.0125 J0.0
G2 Y103.0231 Z-1.5667 I0.0062 J0.0108
G2 X28.394 Y103.0123 Z-1.6 I0.0063 J-0.0108
G2 X28.3753 Y103.0015 Z-1.6333 I-0.0125 J0.0
G2 Y103.0231 Z-1.6667 I0.0062 J0.0108
G2 X28.394 Y103.0123 Z-1.7 I0.0063 J-0.0108
G2 X28.3753 Y103.0015 Z-1.7333 I-0.0125 J0.0
G2 Y103.0231 Z-1.7667 I0.0062 J0.0108
G2 X28.394 Y103.0123 Z-1.8 I0.0063 J-0.0108
G2 X28.3753 Y103.0015 Z-1.8333 I-0.0125 J0.0
G2 Y103.0231 Z-1.8667 I0.0062 J0.0108
G2 X28.394 Y103.0123 Z-1.9 I0.0063 J-0.0108
G2 X28.3753 Y103.0015 Z-1.9333 I-0.0125 J0.0
G2 Y103.0231 Z-1.9667 I0.0062 J0.0108
G2 X28.394 Y103.0123 Z-2.0 I0.0063 J-0.0108
G2 X28.3753 Y103.0015 Z-2.0333 I-0.0125 J0.0
G2 Y103.0231 Z-2.0667 I0.0062 J0.0108
G2 X28.394 Y103.0123 Z-2.1 I0.0063 J-0.0108
G2 X28.3753 Y103.0015 Z-2.1333 I-0.0125 J0.0
G2 Y103.0231 Z-2.1667 I0.0062 J0.0108
G2 X28.394 Y103.0123 Z-2.2 I0.0063 J-0.0108
G2 X28.3753 Y103.0015 Z-2.2333 I-0.0125 J0.0
G2 Y103.0231 Z-2.2667 I0.0062 J0.0108
G2 X28.394 Y103.0123 Z-2.3 I0.0063 J-0.0108
G2 X28.3753 Y103.0015 Z-2.3333 I-0.0125 J0.0
G2 Y103.0231 Z-2.3667 I0.0062 J0.0108
G2 X28.394 Y103.0123 Z-2.4 I0.0063 J-0.0108
G2 X28.3753 Y103.0015 Z-2.4333 I-0.0125 J0.0
G2 Y103.0231 Z-2.4667 I0.0062 J0.0108
G2 X28.394 Y103.0123 Z-2.5 I0.0063 J-0.0108
G2 X28.3753 Y103.0015 Z-2.5333 I-0.0125 J0.0
G2 Y103.0231 Z-2.5667 I0.0062 J0.0108
G2 X28.394 Y103.0123 Z-2.6 I0.0063 J-0.0108
G2 X28.3753 Y103.0015 Z-2.6333 I-0.0125 J0.0
G2 Y103.0231 Z-2.6667 I0.0062 J0.0108
G2 X28.394 Y103.0123 Z-2.7 I0.0063 J-0.0108
G2 X28.3753 Y103.0015 Z-2.7333 I-0.0125 J0.0
G2 Y103.0231 Z-2.7667 I0.0062 J0.0108
G2 X28.394 Y103.0123 Z-2.8 I0.0063 J-0.0108
G2 X28.3753 Y103.0015 Z-2.8333 I-0.0125 J0.0
G2 Y103.0231 Z-2.8667 I0.0062 J0.0108
G2 X28.394 Y103.0123 Z-2.9 I0.0063 J-0.0108
G2 X28.3753 Y103.0015 Z-2.9333 I-0.0125 J0.0
G2 Y103.0231 Z-2.9667 I0.0062 J0.0108
G2 X28.394 Y103.0123 Z-3.0 I0.0063 J-0.0108
G2 X28.3753 Y103.0015 Z-3.0333 I-0.0125 J0.0
G2 Y103.0231 Z-3.0667 I0.0062 J0.0108
G2 X28.394 Y103.0123 Z-3.1 I0.0063 J-0.0108
G2 X28.3753 Y103.0015 Z-3.1333 I-0.0125 J0.0
G2 Y103.0231 Z-3.1667 I0.0062 J0.0108
G2 X28.394 Y103.0123 Z-3.2 I0.0063 J-0.0108
G2 X28.3753 Y103.0015 I-0.0125 J0.0
G2 Y103.0231 I0.0063 J0.0108
G2 X28.394 Y103.0123 I0.0062 J-0.0108
G0 Z3.0
G0 X41.4922 Y101.966
G0 Z0.5
G1 F1000.0 Z0.0
G2 F2000.0 X41.4735 Y101.9552 Z-0.0333 I-0.0125 J0.0
G2 Y101.9768 Z-0.0667 I0.0062 J0.0108
G2 X41.4922 Y101.966 Z-0.1 I0.0063 J-0.0108
G2 X41.4735 Y101.9552 Z-0.1333 I-0.0125 J0.0
G2 Y101.9768 Z-0.1667 I0.0062 J0.0108
G2 X41.4922 Y101.966 Z-0.2 I0.0063 J-0.0108
G2 X41.4735 Y101.9552 Z-0.2333 I-0.0125 J0.0
G2 Y101.9768 Z-0.2667 I0.0062 J0.0108
G2 X41.4922 Y101.966 Z-0.3 I0.0063 J-0.0108
G2 X41.4735 Y101.9552 Z-0.3333 I-0.0125 J0.0
G2 Y101.9768 Z-0.3667 I0.0062 J0.0108
G2 X41.4922 Y101.966 Z-0.4 I0.0063 J-0.0108
G2 X41.4735 Y101.9552 Z-0.4333 I-0.0125 J0.0
G2 Y101.9768 Z-0.4667 I0.0062 J0.0108
G2 X41.4922 Y101.966 Z-0.5 I0.0063 J-0.0108
G2 X41.4735 Y101.9552 Z-0.5333 I-0.0125 J0.0
G2 Y101.9768 Z-0.5667 I0.0062 J0.0108
G2 X41.4922 Y101.966 Z-0.6 I0.0063 J-0.0108
G2 X41.4735 Y101.9552 Z-0.6333 I-0.0125 J0.0
G2 Y101.9768 Z-0.6667 I0.0062 J0.0108
G2 X41.4922 Y101.966 Z-0.7 I0.0063 J-0.0108
G2 X41.4735 Y101.9552 Z-0.7333 I-0.0125 J0.0
G2 Y101.9768 Z-0.7667 I0.0062 J0.0108
G2 X41.4922 Y101.966 Z-0.8 I0.0063 J-0.0108
G2 X41.4735 Y101.9552 Z-0.8333 I-0.0125 J0.0
G2 Y101.9768 Z-0.8667 I0.0062 J0.0108
G2 X41.4922 Y101.966 Z-0.9 I0.0063 J-0.0108
G2 X41.4735 Y101.9552 Z-0.9333 I-0.0125 J0.0
G2 Y101.9768 Z-0.9667 I0.0062 J0.0108
G2 X41.4922 Y101.966 Z-1.0 I0.0063 J-0.0108
G2 X41.4735 Y101.9552 Z-1.0333 I-0.0125 J0.0
G2 Y101.9768 Z-1.0667 I0.0062 J0.0108
G2 X41.4922 Y101.966 Z-1.1 I0.0063 J-0.0108
G2 X41.4735 Y101.9552 Z-1.1333 I-0.0125 J0.0
G2 Y101.9768 Z-1.1667 I0.0062 J0.0108
G2 X41.4922 Y101.966 Z-1.2 I0.0063 J-0.0108
G2 X41.4735 Y101.9552 Z-1.2333 I-0.0125 J0.0
G2 Y101.9768 Z-1.2667 I0.0062 J0.0108
G2 X41.4922 Y101.966 Z-1.3 I0.0063 J-0.0108
G2 X41.4735 Y101.9552 Z-1.3333 I-0.0125 J0.0
G2 Y101.9768 Z-1.3667 I0.0062 J0.0108
G2 X41.4922 Y101.966 Z-1.4 I0.0063 J-0.0108
G2 X41.4735 Y101.9552 Z-1.4333 I-0.0125 J0.0
G2 Y101.9768 Z-1.4667 I0.0062 J0.0108
G2 X41.4922 Y101.966 Z-1.5 I0.0063 J-0.0108
G2 X41.4735 Y101.9552 Z-1.5333 I-0.0125 J0.0
G2 Y101.9768 Z-1.5667 I0.0062 J0.0108
G2 X41.4922 Y101.966 Z-1.6 I0.0063 J-0.0108
G2 X41.4735 Y101.9552 Z-1.6333 I-0.0125 J0.0
G2 Y101.9768 Z-1.6667 I0.0062 J0.0108
G2 X41.4922 Y101.966 Z-1.7 I0.0063 J-0.0108
G2 X41.4735 Y101.9552 Z-1.7333 I-0.0125 J0.0
G2 Y101.9768 Z-1.7667 I0.0062 J0.0108
G2 X41.4922 Y101.966 Z-1.8 I0.0063 J-0.0108
G2 X41.4735 Y101.9552 Z-1.8333 I-0.0125 J0.0
G2 Y101.9768 Z-1.8667 I0.0062 J0.0108
G2 X41.4922 Y101.966 Z-1.9 I0.0063 J-0.0108
G2 X41.4735 Y101.9552 Z-1.9333 I-0.0125 J0.0
G2 Y101.9768 Z-1.9667 I0.0062 J0.0108
G2 X41.4922 Y101.966 Z-2.0 I0.0063 J-0.0108
G2 X41.4735 Y101.9552 Z-2.0333 I-0.0125 J0.0
G2 Y101.9768 Z-2.0667 I0.0062 J0.0108
G2 X41.4922 Y101.966 Z-2.1 I0.0063 J-0.0108
G2 X41.4735 Y101.9552 Z-2.1333 I-0.0125 J0.0
G2 Y101.9768 Z-2.1667 I0.0062 J0.0108
G2 X41.4922 Y101.966 Z-2.2 I0.0063 J-0.0108
G2 X41.4735 Y101.9552 Z-2.2333 I-0.0125 J0.0
G2 Y101.9768 Z-2.2667 I0.0062 J0.0108
G2 X41.4922 Y101.966 Z-2.3 I0.0063 J-0.0108
G2 X41.4735 Y101.9552 Z-2.3333 I-0.0125 J0.0
G2 Y101.9768 Z-2.3667 I0.0062 J0.0108
G2 X41.4922 Y101.966 Z-2.4 I0.0063 J-0.0108
G2 X41.4735 Y101.9552 Z-2.4333 I-0.0125 J0.0
G2 Y101.9768 Z-2.4667 I0.0062 J0.0108
G2 X41.4922 Y101.966 Z-2.5 I0.0063 J-0.0108
G2 X41.4735 Y101.9552 Z-2.5333 I-0.0125 J0.0
G2 Y101.9768 Z-2.5667 I0.0062 J0.0108
G2 X41.4922 Y101.966 Z-2.6 I0.0063 J-0.0108
G2 X41.4735 Y101.9552 Z-2.6333 I-0.0125 J0.0
G2 Y101.9768 Z-2.6667 I0.0062 J0.0108
G2 X41.4922 Y101.966 Z-2.7 I0.0063 J-0.0108
G2 X41.4735 Y101.9552 Z-2.7333 I-0.0125 J0.0
G2 Y101.9768 Z-2.7667 I0.0062 J0.0108
G2 X41.4922 Y101.966 Z-2.8 I0.0063 J-0.0108
G2 X41.4735 Y101.9552 Z-2.8333 I-0.0125 J0.0
G2 Y101.9768 Z-2.8667 I0.0062 J0.0108
G2 X41.4922 Y101.966 Z-2.9 I0.0063 J-0.0108
G2 X41.4735 Y101.9552 Z-2.9333 I-0.0125 J0.0
G2 Y101.9768 Z-2.9667 I0.0063 J0.0108
G2 X41.4922 Y101.966 Z-3.0 I0.0063 J-0.0108
G2 X41.4735 Y101.9552 Z-3.0333 I-0.0125 J0.0
G2 Y101.9768 Z-3.0667 I0.0063 J0.0108
G2 X41.4922 Y101.966 Z-3.1 I0.0063 J-0.0108
G2 X41.4735 Y101.9552 Z-3.1333 I-0.0125 J0.0
G2 Y101.9768 Z-3.1667 I0.0063 J0.0108
G2 X41.4922 Y101.966 Z-3.2 I0.0063 J-0.0108
G2 X41.4735 Y101.9552 I-0.0125 J0.0
G2 Y101.9768 I0.0063 J0.0108
G2 X41.4922 Y101.966 I0.0062 J-0.0108
G0 Z3.0
G0 X53.3158
G0 Z0.5
G1 F1000.0 Z0.0
G2 F2000.0 X53.297 Y101.9551 Z-0.0333 I-0.0125 J0.0
G2 Y101.9768 Z-0.0667 I0.0062 J0.0108
G2 X53.3158 Y101.966 Z-0.1 I0.0063 J-0.0108
G2 X53.297 Y101.9551 Z-0.1333 I-0.0125 J0.0
G2 Y101.9768 Z-0.1667 I0.0062 J0.0108
G2 X53.3158 Y101.966 Z-0.2 I0.0063 J-0.0108
G2 X53.297 Y101.9551 Z-0.2333 I-0.0125 J0.0
G2 Y101.9768 Z-0.2667 I0.0062 J0.0108
G2 X53.3158 Y101.966 Z-0.3 I0.0063 J-0.0108
G2 X53.297 Y101.9551 Z-0.3333 I-0.0125 J0.0
G2 Y101.9768 Z-0.3667 I0.0062 J0.0108
G2 X53.3158 Y101.966 Z-0.4 I0.0063 J-0.0108
G2 X53.297 Y101.9551 Z-0.4333 I-0.0125 J0.0
G2 Y101.9768 Z-0.4667 I0.0062 J0.0108
G2 X53.3158 Y101.966 Z-0.5 I0.0063 J-0.0108
G2 X53.297 Y101.9551 Z-0.5333 I-0.0125 J0.0
G2 Y101.9768 Z-0.5667 I0.0062 J0.0108
G2 X53.3158 Y101.966 Z-0.6 I0.0063 J-0.0108
G2 X53.297 Y101.9551 Z-0.6333 I-0.0125 J0.0
G2 Y101.9768 Z-0.6667 I0.0062 J0.0108
G2 X53.3158 Y101.966 Z-0.7 I0.0063 J-0.0108
G2 X53.297 Y101.9551 Z-0.7333 I-0.0125 J0.0
G2 Y101.9768 Z-0.7667 I0.0062 J0.0108
G2 X53.3158 Y101.966 Z-0.8 I0.0063 J-0.0108
G2 X53.297 Y101.9551 Z-0.8333 I-0.0125 J0.0
G2 Y101.9768 Z-0.8667 I0.0062 J0.0108
G2 X53.3158 Y101.966 Z-0.9 I0.0063 J-0.0108
G2 X53.297 Y101.9551 Z-0.9333 I-0.0125 J0.0
G2 Y101.9768 Z-0.9667 I0.0062 J0.0108
G2 X53.3158 Y101.966 Z-1.0 I0.0063 J-0.0108
G2 X53.297 Y101.9551 Z-1.0333 I-0.0125 J0.0
G2 Y101.9768 Z-1.0667 I0.0062 J0.0108
G2 X53.3158 Y101.966 Z-1.1 I0.0063 J-0.0108
G2 X53.297 Y101.9551 Z-1.1333 I-0.0125 J0.0
G2 Y101.9768 Z-1.1667 I0.0062 J0.0108
G2 X53.3158 Y101.966 Z-1.2 I0.0063 J-0.0108
G2 X53.297 Y101.9551 Z-1.2333 I-0.0125 J0.0
G2 Y101.9768 Z-1.2667 I0.0062 J0.0108
G2 X53.3158 Y101.966 Z-1.3 I0.0063 J-0.0108
G2 X53.297 Y101.9551 Z-1.3333 I-0.0125 J0.0
G2 Y101.9768 Z-1.3667 I0.0062 J0.0108
G2 X53.3158 Y101.966 Z-1.4 I0.0063 J-0.0108
G2 X53.297 Y101.9551 Z-1.4333 I-0.0125 J0.0
G2 Y101.9768 Z-1.4667 I0.0062 J0.0108
G2 X53.3158 Y101.966 Z-1.5 I0.0063 J-0.0108
G2 X53.297 Y101.9551 Z-1.5333 I-0.0125 J0.0
G2 Y101.9768 Z-1.5667 I0.0062 J0.0108
G2 X53.3158 Y101.966 Z-1.6 I0.0063 J-0.0108
G2 X53.297 Y101.9551 Z-1.6333 I-0.0125 J0.0
G2 Y101.9768 Z-1.6667 I0.0062 J0.0108
G2 X53.3158 Y101.966 Z-1.7 I0.0063 J-0.0108
G2 X53.297 Y101.9551 Z-1.7333 I-0.0125 J0.0
G2 Y101.9768 Z-1.7667 I0.0062 J0.0108
G2 X53.3158 Y101.966 Z-1.8 I0.0063 J-0.0108
G2 X53.297 Y101.9551 Z-1.8333 I-0.0125 J0.0
G2 Y101.9768 Z-1.8667 I0.0062 J0.0108
G2 X53.3158 Y101.966 Z-1.9 I0.0063 J-0.0108
G2 X53.297 Y101.9551 Z-1.9333 I-0.0125 J0.0
G2 Y101.9768 Z-1.9667 I0.0062 J0.0108
G2 X53.3158 Y101.966 Z-2.0 I0.0063 J-0.0108
G2 X53.297 Y101.9551 Z-2.0333 I-0.0125 J0.0
G2 Y101.9768 Z-2.0667 I0.0062 J0.0108
G2 X53.3158 Y101.966 Z-2.1 I0.0063 J-0.0108
G2 X53.297 Y101.9551 Z-2.1333 I-0.0125 J0.0
G2 Y101.9768 Z-2.1667 I0.0062 J0.0108
G2 X53.3158 Y101.966 Z-2.2 I0.0063 J-0.0108
G2 X53.297 Y101.9551 Z-2.2333 I-0.0125 J0.0
G2 Y101.9768 Z-2.2667 I0.0062 J0.0108
G2 X53.3158 Y101.966 Z-2.3 I0.0063 J-0.0108
G2 X53.297 Y101.9551 Z-2.3333 I-0.0125 J0.0
G2 Y101.9768 Z-2.3667 I0.0062 J0.0108
G2 X53.3158 Y101.966 Z-2.4 I0.0063 J-0.0108
G2 X53.297 Y101.9551 Z-2.4333 I-0.0125 J0.0
G2 Y101.9768 Z-2.4667 I0.0062 J0.0108
G2 X53.3158 Y101.966 Z-2.5 I0.0063 J-0.0108
G2 X53.297 Y101.9551 Z-2.5333 I-0.0125 J0.0
G2 Y101.9768 Z-2.5667 I0.0062 J0.0108
G2 X53.3158 Y101.966 Z-2.6 I0.0063 J-0.0108
G2 X53.297 Y101.9551 Z-2.6333 I-0.0125 J0.0
G2 Y101.9768 Z-2.6667 I0.0062 J0.0108
G2 X53.3158 Y101.966 Z-2.7 I0.0063 J-0.0108
G2 X53.297 Y101.9551 Z-2.7333 I-0.0125 J0.0
G2 Y101.9768 Z-2.7667 I0.0062 J0.0108
G2 X53.3158 Y101.966 Z-2.8 I0.0063 J-0.0108
G2 X53.297 Y101.9551 Z-2.8333 I-0.0125 J0.0
G2 Y101.9768 Z-2.8667 I0.0062 J0.0108
G2 X53.3158 Y101.966 Z-2.9 I0.0063 J-0.0108
G2 X53.297 Y101.9551 Z-2.9333 I-0.0125 J0.0
G2 Y101.9768 Z-2.9667 I0.0063 J0.0108
G2 X53.3158 Y101.966 Z-3.0 I0.0063 J-0.0108
G2 X53.297 Y101.9551 Z-3.0333 I-0.0125 J0.0
G2 Y101.9768 Z-3.0667 I0.0063 J0.0108
G2 X53.3158 Y101.966 Z-3.1 I0.0063 J-0.0108
G2 X53.297 Y101.9551 Z-3.1333 I-0.0125 J0.0
G2 Y101.9768 Z-3.1667 I0.0063 J0.0108
G2 X53.3158 Y101.966 Z-3.2 I0.0063 J-0.0108
G2 X53.297 Y101.9551 I-0.0125 J0.0
G2 Y101.9768 I0.0063 J0.0108
G2 X53.3158 Y101.966 I0.0062 J-0.0108
G0 Z3.0
G0 X65.188
G0 Z0.5
G1 F1000.0 Z0.0
G2 F2000.0 X65.1692 Y101.9551 Z-0.0333 I-0.0125 J0.0
G2 Y101.9768 Z-0.0667 I0.0062 J0.0108
G2 X65.188 Y101.966 Z-0.1 I0.0062 J-0.0108
G2 X65.1692 Y101.9551 Z-0.1333 I-0.0125 J0.0
G2 Y101.9768 Z-0.1667 I0.0062 J0.0108
G2 X65.188 Y101.966 Z-0.2 I0.0062 J-0.0108
G2 X65.1692 Y101.9551 Z-0.2333 I-0.0125 J0.0
G2 Y101.9768 Z-0.2667 I0.0062 J0.0108
G2 X65.188 Y101.966 Z-0.3 I0.0062 J-0.0108
G2 X65.1692 Y101.9551 Z-0.3333 I-0.0125 J0.0
G2 Y101.9768 Z-0.3667 I0.0062 J0.0108
G2 X65.188 Y101.966 Z-0.4 I0.0062 J-0.0108
G2 X65.1692 Y101.9551 Z-0.4333 I-0.0125 J0.0
G2 Y101.9768 Z-0.4667 I0.0062 J0.0108
G2 X65.188 Y101.966 Z-0.5 I0.0062 J-0.0108
G2 X65.1692 Y101.9551 Z-0.5333 I-0.0125 J0.0
G2 Y101.9768 Z-0.5667 I0.0062 J0.0108
G2 X65.188 Y101.966 Z-0.6 I0.0062 J-0.0108
G2 X65.1692 Y101.9551 Z-0.6333 I-0.0125 J0.0
G2 Y101.9768 Z-0.6667 I0.0062 J0.0108
G2 X65.188 Y101.966 Z-0.7 I0.0062 J-0.0108
G2 X65.1692 Y101.9551 Z-0.7333 I-0.0125 J0.0
G2 Y101.9768 Z-0.7667 I0.0062 J0.0108
G2 X65.188 Y101.966 Z-0.8 I0.0062 J-0.0108
G2 X65.1692 Y101.9551 Z-0.8333 I-0.0125 J0.0
G2 Y101.9768 Z-0.8667 I0.0062 J0.0108
G2 X65.188 Y101.966 Z-0.9 I0.0062 J-0.0108
G2 X65.1692 Y101.9551 Z-0.9333 I-0.0125 J0.0
G2 Y101.9768 Z-0.9667 I0.0062 J0.0108
G2 X65.188 Y101.966 Z-1.0 I0.0062 J-0.0108
G2 X65.1692 Y101.9551 Z-1.0333 I-0.0125 J0.0
G2 Y101.9768 Z-1.0667 I0.0062 J0.0108
G2 X65.188 Y101.966 Z-1.1 I0.0062 J-0.0108
G2 X65.1692 Y101.9551 Z-1.1333 I-0.0125 J0.0
G2 Y101.9768 Z-1.1667 I0.0062 J0.0108
G2 X65.188 Y101.966 Z-1.2 I0.0062 J-0.0108
G2 X65.1692 Y101.9551 Z-1.2333 I-0.0125 J0.0
G2 Y101.9768 Z-1.2667 I0.0062 J0.0108
G2 X65.188 Y101.966 Z-1.3 I0.0062 J-0.0108
G2 X65.1692 Y101.9551 Z-1.3333 I-0.0125 J0.0
G2 Y101.9768 Z-1.3667 I0.0062 J0.0108
G2 X65.188 Y101.966 Z-1.4 I0.0062 J-0.0108
G2 X65.1692 Y101.9551 Z-1.4333 I-0.0125 J0.0
G2 Y101.9768 Z-1.4667 I0.0062 J0.0108
G2 X65.188 Y101.966 Z-1.5 I0.0062 J-0.0108
G2 X65.1692 Y101.9551 Z-1.5333 I-0.0125 J0.0
G2 Y101.9768 Z-1.5667 I0.0062 J0.0108
G2 X65.188 Y101.966 Z-1.6 I0.0062 J-0.0108
G2 X65.1692 Y101.9551 Z-1.6333 I-0.0125 J0.0
G2 Y101.9768 Z-1.6667 I0.0062 J0.0108
G2 X65.188 Y101.966 Z-1.7 I0.0062 J-0.0108
G2 X65.1692 Y101.9551 Z-1.7333 I-0.0125 J0.0
G2 Y101.9768 Z-1.7667 I0.0062 J0.0108
G2 X65.188 Y101.966 Z-1.8 I0.0062 J-0.0108
G2 X65.1692 Y101.9551 Z-1.8333 I-0.0125 J0.0
G2 Y101.9768 Z-1.8667 I0.0062 J0.0108
G2 X65.188 Y101.966 Z-1.9 I0.0062 J-0.0108
G2 X65.1692 Y101.9551 Z-1.9333 I-0.0125 J0.0
G2 Y101.9768 Z-1.9667 I0.0062 J0.0108
G2 X65.188 Y101.966 Z-2.0 I0.0062 J-0.0108
G2 X65.1692 Y101.9551 Z-2.0333 I-0.0125 J0.0
G2 Y101.9768 Z-2.0667 I0.0062 J0.0108
G2 X65.188 Y101.966 Z-2.1 I0.0062 J-0.0108
G2 X65.1692 Y101.9551 Z-2.1333 I-0.0125 J0.0
G2 Y101.9768 Z-2.1667 I0.0062 J0.0108
G2 X65.188 Y101.966 Z-2.2 I0.0062 J-0.0108
G2 X65.1692 Y101.9551 Z-2.2333 I-0.0125 J0.0
G2 Y101.9768 Z-2.2667 I0.0062 J0.0108
G2 X65.188 Y101.966 Z-2.3 I0.0062 J-0.0108
G2 X65.1692 Y101.9551 Z-2.3333 I-0.0125 J0.0
G2 Y101.9768 Z-2.3667 I0.0062 J0.0108
G2 X65.188 Y101.966 Z-2.4 I0.0062 J-0.0108
G2 X65.1692 Y101.9551 Z-2.4333 I-0.0125 J0.0
G2 Y101.9768 Z-2.4667 I0.0062 J0.0108
G2 X65.188 Y101.966 Z-2.5 I0.0062 J-0.0108
G2 X65.1692 Y101.9551 Z-2.5333 I-0.0125 J0.0
G2 Y101.9768 Z-2.5667 I0.0062 J0.0108
G2 X65.188 Y101.966 Z-2.6 I0.0062 J-0.0108
G2 X65.1692 Y101.9551 Z-2.6333 I-0.0125 J0.0
G2 Y101.9768 Z-2.6667 I0.0062 J0.0108
G2 X65.188 Y101.966 Z-2.7 I0.0062 J-0.0108
G2 X65.1692 Y101.9551 Z-2.7333 I-0.0125 J0.0
G2 Y101.9768 Z-2.7667 I0.0063 J0.0108
G2 X65.188 Y101.966 Z-2.8 I0.0062 J-0.0108
G2 X65.1692 Y101.9551 Z-2.8333 I-0.0125 J0.0
G2 Y101.9768 Z-2.8667 I0.0063 J0.0108
G2 X65.188 Y101.966 Z-2.9 I0.0062 J-0.0108
G2 X65.1692 Y101.9551 Z-2.9333 I-0.0125 J0.0
G2 Y101.9768 Z-2.9667 I0.0063 J0.0108
G2 X65.188 Y101.966 Z-3.0 I0.0062 J-0.0108
G2 X65.1692 Y101.9551 Z-3.0333 I-0.0125 J0.0
G2 Y101.9768 Z-3.0667 I0.0063 J0.0108
G2 X65.188 Y101.966 Z-3.1 I0.0062 J-0.0108
G2 X65.1692 Y101.9551 Z-3.1333 I-0.0125 J0.0
G2 Y101.9768 Z-3.1667 I0.0063 J0.0108
G2 X65.188 Y101.966 Z-3.2 I0.0062 J-0.0108
G2 X65.1692 Y101.9551 I-0.0125 J0.0
G2 Y101.9768 I0.0063 J0.0108
G2 X65.188 Y101.966 I0.0062 J-0.0108
G0 Z3.0
G0 X74.3553 Y79.6866
G0 Z0.5
G1 F1000.0 Z0.0
G2 F2000.0 X74.3365 Y79.6758 Z-0.0333 I-0.0125 J0.0
G2 Y79.6974 Z-0.0667 I0.0062 J0.0108
G2 X74.3553 Y79.6866 Z-0.1 I0.0062 J-0.0108
G2 X74.3365 Y79.6758 Z-0.1333 I-0.0125 J0.0
G2 Y79.6974 Z-0.1667 I0.0062 J0.0108
G2 X74.3553 Y79.6866 Z-0.2 I0.0062 J-0.0108
G2 X74.3365 Y79.6758 Z-0.2333 I-0.0125 J0.0
G2 Y79.6974 Z-0.2667 I0.0062 J0.0108
G2 X74.3553 Y79.6866 Z-0.3 I0.0062 J-0.0108
G2 X74.3365 Y79.6758 Z-0.3333 I-0.0125 J0.0
G2 Y79.6974 Z-0.3667 I0.0062 J0.0108
G2 X74.3553 Y79.6866 Z-0.4 I0.0062 J-0.0108
G2 X74.3365 Y79.6758 Z-0.4333 I-0.0125 J0.0
G2 Y79.6974 Z-0.4667 I0.0062 J0.0108
G2 X74.3553 Y79.6866 Z-0.5 I0.0062 J-0.0108
G2 X74.3365 Y79.6758 Z-0.5333 I-0.0125 J0.0
G2 Y79.6974 Z-0.5667 I0.0062 J0.0108
G2 X74.3553 Y79.6866 Z-0.6 I0.0062 J-0.0108
G2 X74.3365 Y79.6758 Z-0.6333 I-0.0125 J0.0
G2 Y79.6974 Z-0.6667 I0.0062 J0.0108
G2 X74.3553 Y79.6866 Z-0.7 I0.0062 J-0.0108
G2 X74.3365 Y79.6758 Z-0.7333 I-0.0125 J0.0
G2 Y79.6974 Z-0.7667 I0.0062 J0.0108
G2 X74.3553 Y79.6866 Z-0.8 I0.0062 J-0.0108
G2 X74.3365 Y79.6758 Z-0.8333 I-0.0125 J0.0
G2 Y79.6974 Z-0.8667 I0.0062 J0.0108
G2 X74.3553 Y79.6866 Z-0.9 I0.0062 J-0.0108
G2 X74.3365 Y79.6758 Z-0.9333 I-0.0125 J0.0
G2 Y79.6974 Z-0.9667 I0.0062 J0.0108
G2 X74.3553 Y79.6866 Z-1.0 I0.0062 J-0.0108
G2 X74.3365 Y79.6758 Z-1.0333 I-0.0125 J0.0
G2 Y79.6974 Z-1.0667 I0.0062 J0.0108
G2 X74.3553 Y79.6866 Z-1.1 I0.0062 J-0.0108
G2 X74.3365 Y79.6758 Z-1.1333 I-0.0125 J0.0
G2 Y79.6974 Z-1.1667 I0.0062 J0.0108
G2 X74.3553 Y79.6866 Z-1.2 I0.0062 J-0.0108
G2 X74.3365 Y79.6758 Z-1.2333 I-0.0125 J0.0
G2 Y79.6974 Z-1.2667 I0.0062 J0.0108
G2 X74.3553 Y79.6866 Z-1.3 I0.0062 J-0.0108
G2 X74.3365 Y79.6758 Z-1.3333 I-0.0125 J0.0
G2 Y79.6974 Z-1.3667 I0.0062 J0.0108
G2 X74.3553 Y79.6866 Z-1.4 I0.0062 J-0.0108
G2 X74.3365 Y79.6758 Z-1.4333 I-0.0125 J0.0
G2 Y79.6974 Z-1.4667 I0.0062 J0.0108
G2 X74.3553 Y79.6866 Z-1.5 I0.0062 J-0.0108
G2 X74.3365 Y79.6758 Z-1.5333 I-0.0125 J0.0
G2 Y79.6974 Z-1.5667 I0.0062 J0.0108
G2 X74.3553 Y79.6866 Z-1.6 I0.0062 J-0.0108
G2 X74.3365 Y79.6758 Z-1.6333 I-0.0125 J0.0
G2 Y79.6974 Z-1.6667 I0.0062 J0.0108
G2 X74.3553 Y79.6866 Z-1.7 I0.0062 J-0.0108
G2 X74.3365 Y79.6758 Z-1.7333 I-0.0125 J0.0
G2 Y79.6974 Z-1.7667 I0.0062 J0.0108
G2 X74.3553 Y79.6866 Z-1.8 I0.0062 J-0.0108
G2 X74.3365 Y79.6758 Z-1.8333 I-0.0125 J0.0
G2 Y79.6974 Z-1.8667 I0.0062 J0.0108
G2 X74.3553 Y79.6866 Z-1.9 I0.0062 J-0.0108
G2 X74.3365 Y79.6758 Z-1.9333 I-0.0125 J0.0
G2 Y79.6974 Z-1.9667 I0.0062 J0.0108
G2 X74.3553 Y79.6866 Z-2.0 I0.0062 J-0.0108
G2 X74.3365 Y79.6758 Z-2.0333 I-0.0125 J0.0
G2 Y79.6974 Z-2.0667 I0.0062 J0.0108
G2 X74.3553 Y79.6866 Z-2.1 I0.0062 J-0.0108
G2 X74.3365 Y79.6758 Z-2.1333 I-0.0125 J0.0
G2 Y79.6974 Z-2.1667 I0.0062 J0.0108
G2 X74.3553 Y79.6866 Z-2.2 I0.0062 J-0.0108
G2 X74.3365 Y79.6758 Z-2.2333 I-0.0125 J0.0
G2 Y79.6974 Z-2.2667 I0.0062 J0.0108
G2 X74.3553 Y79.6866 Z-2.3 I0.0062 J-0.0108
G2 X74.3365 Y79.6758 Z-2.3333 I-0.0125 J0.0
G2 Y79.6974 Z-2.3667 I0.0062 J0.0108
G2 X74.3553 Y79.6866 Z-2.4 I0.0062 J-0.0108
G2 X74.3365 Y79.6758 Z-2.4333 I-0.0125 J0.0
G2 Y79.6974 Z-2.4667 I0.0062 J0.0108
G2 X74.3553 Y79.6866 Z-2.5 I0.0062 J-0.0108
G2 X74.3365 Y79.6758 Z-2.5333 I-0.0125 J0.0
G2 Y79.6974 Z-2.5667 I0.0062 J0.0108
G2 X74.3553 Y79.6866 Z-2.6 I0.0062 J-0.0108
G2 X74.3365 Y79.6758 Z-2.6333 I-0.0125 J0.0
G2 Y79.6974 Z-2.6667 I0.0062 J0.0108
G2 X74.3553 Y79.6866 Z-2.7 I0.0062 J-0.0108
G2 X74.3365 Y79.6758 Z-2.7333 I-0.0125 J0.0
G2 Y79.6974 Z-2.7667 I0.0063 J0.0108
G2 X74.3553 Y79.6866 Z-2.8 I0.0062 J-0.0108
G2 X74.3365 Y79.6758 Z-2.8333 I-0.0125 J0.0
G2 Y79.6974 Z-2.8667 I0.0063 J0.0108
G2 X74.3553 Y79.6866 Z-2.9 I0.0062 J-0.0108
G2 X74.3365 Y79.6758 Z-2.9333 I-0.0125 J0.0
G2 Y79.6974 Z-2.9667 I0.0063 J0.0108
G2 X74.3553 Y79.6866 Z-3.0 I0.0062 J-0.0108
G2 X74.3365 Y79.6758 Z-3.0333 I-0.0125 J0.0
G2 Y79.6974 Z-3.0667 I0.0063 J0.0108
G2 X74.3553 Y79.6866 Z-3.1 I0.0062 J-0.0108
G2 X74.3365 Y79.6758 Z-3.1333 I-0.0125 J0.0
G2 Y79.6974 Z-3.1667 I0.0063 J0.0108
G2 X74.3553 Y79.6866 Z-3.2 I0.0062 J-0.0108
G2 X74.3365 Y79.6758 I-0.0125 J0.0
G2 Y79.6974 I0.0063 J0.0108
G2 X74.3553 Y79.6866 I0.0062 J-0.0108
G0 Z3.0
G0 Y48.0777
G0 Z0.5
G1 F1000.0 Z0.0
G2 F2000.0 X74.3365 Y48.0669 Z-0.0333 I-0.0125 J0.0
G2 Y48.0885 Z-0.0667 I0.0063 J0.0108
G2 X74.3553 Y48.0777 Z-0.1 I0.0062 J-0.0108
G2 X74.3365 Y48.0669 Z-0.1333 I-0.0125 J0.0
G2 Y48.0885 Z-0.1667 I0.0063 J0.0108
G2 X74.3553 Y48.0777 Z-0.2 I0.0062 J-0.0108
G2 X74.3365 Y48.0669 Z-0.2333 I-0.0125 J0.0
G2 Y48.0885 Z-0.2667 I0.0063 J0.0108
G2 X74.3553 Y48.0777 Z-0.3 I0.0062 J-0.0108
G2 X74.3365 Y48.0669 Z-0.3333 I-0.0125 J0.0
G2 Y48.0885 Z-0.3667 I0.0063 J0.0108
G2 X74.3553 Y48.0777 Z-0.4 I0.0062 J-0.0108
G2 X74.3365 Y48.0669 Z-0.4333 I-0.0125 J0.0
G2 Y48.0885 Z-0.4667 I0.0063 J0.0108
G2 X74.3553 Y48.0777 Z-0.5 I0.0062 J-0.0108
G2 X74.3365 Y48.0669 Z-0.5333 I-0.0125 J0.0
G2 Y48.0885 Z-0.5667 I0.0063 J0.0108
G2 X74.3553 Y48.0777 Z-0.6 I0.0062 J-0.0108
G2 X74.3365 Y48.0669 Z-0.6333 I-0.0125 J0.0
G2 Y48.0885 Z-0.6667 I0.0063 J0.0108
G2 X74.3553 Y48.0777 Z-0.7 I0.0062 J-0.0108
G2 X74.3365 Y48.0669 Z-0.7333 I-0.0125 J0.0
G2 Y48.0885 Z-0.7667 I0.0063 J0.0108
G2 X74.3553 Y48.0777 Z-0.8 I0.0062 J-0.0108
G2 X74.3365 Y48.0669 Z-0.8333 I-0.0125 J0.0
G2 Y48.0885 Z-0.8667 I0.0063 J0.0108
G2 X74.3553 Y48.0777 Z-0.9 I0.0062 J-0.0108
G2 X74.3365 Y48.0669 Z-0.9333 I-0.0125 J0.0
G2 Y48.0885 Z-0.9667 I0.0063 J0.0108
G2 X74.3553 Y48.0777 Z-1.0 I0.0062 J-0.0108
G2 X74.3365 Y48.0669 Z-1.0333 I-0.0125 J0.0
G2 Y48.0885 Z-1.0667 I0.0063 J0.0108
G2 X74.3553 Y48.0777 Z-1.1 I0.0062 J-0.0108
G2 X74.3365 Y48.0669 Z-1.1333 I-0.0125 J0.0
G2 Y48.0885 Z-1.1667 I0.0063 J0.0108
G2 X74.3553 Y48.0777 Z-1.2 I0.0062 J-0.0108
G2 X74.3365 Y48.0669 Z-1.2333 I-0.0125 J0.0
G2 Y48.0885 Z-1.2667 I0.0063 J0.0108
G2 X74.3553 Y48.0777 Z-1.3 I0.0062 J-0.0108
G2 X74.3365 Y48.0669 Z-1.3333 I-0.0125 J0.0
G2 Y48.0885 Z-1.3667 I0.0063 J0.0108
G2 X74.3553 Y48.0777 Z-1.4 I0.0062 J-0.0108
G2 X74.3365 Y48.0669 Z-1.4333 I-0.0125 J0.0
G2 Y48.0885 Z-1.4667 I0.0063 J0.0108
G2 X74.3553 Y48.0777 Z-1.5 I0.0062 J-0.0108
G2 X74.3365 Y48.0669 Z-1.5333 I-0.0125 J0.0
G2 Y48.0885 Z-1.5667 I0.0063 J0.0108
G2 X74.3553 Y48.0777 Z-1.6 I0.0062 J-0.0108
G2 X74.3365 Y48.0669 Z-1.6333 I-0.0125 J0.0
G2 Y48.0885 Z-1.6667 I0.0063 J0.0108
G2 X74.3553 Y48.0777 Z-1.7 I0.0062 J-0.0108
G2 X74.3365 Y48.0669 Z-1.7333 I-0.0125 J0.0
G2 Y48.0885 Z-1.7667 I0.0063 J0.0108
G2 X74.3553 Y48.0777 Z-1.8 I0.0062 J-0.0108
G2 X74.3365 Y48.0669 Z-1.8333 I-0.0125 J0.0
G2 Y48.0885 Z-1.8667 I0.0063 J0.0108
G2 X74.3553 Y48.0777 Z-1.9 I0.0062 J-0.0108
G2 X74.3365 Y48.0669 Z-1.9333 I-0.0125 J0.0
G2 Y48.0885 Z-1.9667 I0.0063 J0.0108
G2 X74.3553 Y48.0777 Z-2.0 I0.0062 J-0.0108
G2 X74.3365 Y48.0669 Z-2.0333 I-0.0125 J0.0
G2 Y48.0885 Z-2.0667 I0.0063 J0.0108
G2 X74.3553 Y48.0777 Z-2.1 I0.0062 J-0.0108
G2 X74.3365 Y48.0669 Z-2.1333 I-0.0125 J0.0
G2 Y48.0885 Z-2.1667 I0.0063 J0.0108
G2 X74.3553 Y48.0777 Z-2.2 I0.0062 J-0.0108
G2 X74.3365 Y48.0669 Z-2.2333 I-0.0125 J0.0
G2 Y48.0885 Z-2.2667 I0.0063 J0.0108
G2 X74.3553 Y48.0777 Z-2.3 I0.0062 J-0.0108
G2 X74.3365 Y48.0669 Z-2.3333 I-0.0125 J0.0
G2 Y48.0885 Z-2.3667 I0.0063 J0.0108
G2 X74.3553 Y48.0777 Z-2.4 I0.0062 J-0.0108
G2 X74.3365 Y48.0669 Z-2.4333 I-0.0125 J0.0
G2 Y48.0885 Z-2.4667 I0.0063 J0.0108
G2 X74.3553 Y48.0777 Z-2.5 I0.0062 J-0.0108
G2 X74.3365 Y48.0669 Z-2.5333 I-0.0125 J0.0
G2 Y48.0885 Z-2.5667 I0.0063 J0.0108
G2 X74.3553 Y48.0777 Z-2.6 I0.0062 J-0.0108
G2 X74.3365 Y48.0669 Z-2.6333 I-0.0125 J0.0
G2 Y48.0885 Z-2.6667 I0.0063 J0.0108
G2 X74.3553 Y48.0777 Z-2.7 I0.0062 J-0.0108
G2 X74.3365 Y48.0669 Z-2.7333 I-0.0125 J0.0
G2 Y48.0885 Z-2.7667 I0.0063 J0.0108
G2 X74.3553 Y48.0777 Z-2.8 I0.0062 J-0.0108
G2 X74.3365 Y48.0669 Z-2.8333 I-0.0125 J0.0
G2 Y48.0885 Z-2.8667 I0.0063 J0.0108
G2 X74.3553 Y48.0777 Z-2.9 I0.0062 J-0.0108
G2 X74.3365 Y48.0669 Z-2.9333 I-0.0125 J0.0
G2 Y48.0885 Z-2.9667 I0.0063 J0.0108
G2 X74.3553 Y48.0777 Z-3.0 I0.0062 J-0.0108
G2 X74.3365 Y48.0669 Z-3.0333 I-0.0125 J0.0
G2 Y48.0885 Z-3.0667 I0.0063 J0.0108
G2 X74.3553 Y48.0777 Z-3.1 I0.0062 J-0.0108
G2 X74.3365 Y48.0669 Z-3.1333 I-0.0125 J0.0
G2 Y48.0885 Z-3.1667 I0.0063 J0.0108
G2 X74.3553 Y48.0777 Z-3.2 I0.0062 J-0.0108
G2 X74.3365 Y48.0669 I-0.0125 J0.0
G2 Y48.0885 I0.0063 J0.0108
G2 X74.3553 Y48.0777 I0.0062 J-0.0108
G0 Z3.0
G0 X40.3434 Y47.7989
G0 Z0.5
G1 F1000.0 Z0.0
G2 F2000.0 X40.3247 Y47.7881 Z-0.0333 I-0.0125 J0.0
G2 Y47.8097 Z-0.0667 I0.0063 J0.0108
G2 X40.3434 Y47.7989 Z-0.1 I0.0063 J-0.0108
G2 X40.3247 Y47.7881 Z-0.1333 I-0.0125 J0.0
G2 Y47.8097 Z-0.1667 I0.0063 J0.0108
G2 X40.3434 Y47.7989 Z-0.2 I0.0063 J-0.0108
G2 X40.3247 Y47.7881 Z-0.2333 I-0.0125 J0.0
G2 Y47.8097 Z-0.2667 I0.0063 J0.0108
G2 X40.3434 Y47.7989 Z-0.3 I0.0063 J-0.0108
G2 X40.3247 Y47.7881 Z-0.3333 I-0.0125 J0.0
G2 Y47.8097 Z-0.3667 I0.0063 J0.0108
G2 X40.3434 Y47.7989 Z-0.4 I0.0063 J-0.0108
G2 X40.3247 Y47.7881 Z-0.4333 I-0.0125 J0.0
G2 Y47.8097 Z-0.4667 I0.0063 J0.0108
G2 X40.3434 Y47.7989 Z-0.5 I0.0063 J-0.0108
G2 X40.3247 Y47.7881 Z-0.5333 I-0.0125 J0.0
G2 Y47.8097 Z-0.5667 I0.0063 J0.0108
G2 X40.3434 Y47.7989 Z-0.6 I0.0063 J-0.0108
G2 X40.3247 Y47.7881 Z-0.6333 I-0.0125 J0.0
G2 Y47.8097 Z-0.6667 I0.0063 J0.0108
G2 X40.3434 Y47.7989 Z-0.7 I0.0063 J-0.0108
G2 X40.3247 Y47.7881 Z-0.7333 I-0.0125 J0.0
G2 Y47.8097 Z-0.7667 I0.0063 J0.0108
G2 X40.3434 Y47.7989 Z-0.8 I0.0063 J-0.0108
G2 X40.3247 Y47.7881 Z-0.8333 I-0.0125 J0.0
G2 Y47.8097 Z-0.8667 I0.0063 J0.0108
G2 X40.3434 Y47.7989 Z-0.9 I0.0063 J-0.0108
G2 X40.3247 Y47.7881 Z-0.9333 I-0.0125 J0.0
G2 Y47.8097 Z-0.9667 I0.0063 J0.0108
G2 X40.3434 Y47.7989 Z-1.0 I0.0063 J-0.0108
G2 X40.3247 Y47.7881 Z-1.0333 I-0.0125 J0.0
G2 Y47.8097 Z-1.0667 I0.0063 J0.0108
G2 X40.3434 Y47.7989 Z-1.1 I0.0063 J-0.0108
G2 X40.3247 Y47.7881 Z-1.1333 I-0.0125 J0.0
G2 Y47.8097 Z-1.1667 I0.0063 J0.0108
G2 X40.3434 Y47.7989 Z-1.2 I0.0063 J-0.0108
G2 X40.3247 Y47.7881 Z-1.2333 I-0.0125 J0.0
G2 Y47.8097 Z-1.2667 I0.0063 J0.0108
G2 X40.3434 Y47.7989 Z-1.3 I0.0063 J-0.0108
G2 X40.3247 Y47.7881 Z-1.3333 I-0.0125 J0.0
G2 Y47.8097 Z-1.3667 I0.0063 J0.0108
G2 X40.3434 Y47.7989 Z-1.4 I0.0063 J-0.0108
G2 X40.3247 Y47.7881 Z-1.4333 I-0.0125 J0.0
G2 Y47.8097 Z-1.4667 I0.0063 J0.0108
G2 X40.3434 Y47.7989 Z-1.5 I0.0063 J-0.0108
G2 X40.3247 Y47.7881 Z-1.5333 I-0.0125 J0.0
G2 Y47.8097 Z-1.5667 I0.0063 J0.0108
G2 X40.3434 Y47.7989 Z-1.6 I0.0063 J-0.0108
G2 X40.3247 Y47.7881 Z-1.6333 I-0.0125 J0.0
G2 Y47.8097 Z-1.6667 I0.0063 J0.0108
G2 X40.3434 Y47.7989 Z-1.7 I0.0063 J-0.0108
G2 X40.3247 Y47.7881 Z-1.7333 I-0.0125 J0.0
G2 Y47.8097 Z-1.7667 I0.0063 J0.0108
G2 X40.3434 Y47.7989 Z-1.8 I0.0063 J-0.0108
G2 X40.3247 Y47.7881 Z-1.8333 I-0.0125 J0.0
G2 Y47.8097 Z-1.8667 I0.0063 J0.0108
G2 X40.3434 Y47.7989 Z-1.9 I0.0063 J-0.0108
G2 X40.3247 Y47.7881 Z-1.9333 I-0.0125 J0.0
G2 Y47.8097 Z-1.9667 I0.0063 J0.0108
G2 X40.3434 Y47.7989 Z-2.0 I0.0063 J-0.0108
G2 X40.3247 Y47.7881 Z-2.0333 I-0.0125 J0.0
G2 Y47.8097 Z-2.0667 I0.0063 J0.0108
G2 X40.3434 Y47.7989 Z-2.1 I0.0063 J-0.0108
G2 X40.3247 Y47.7881 Z-2.1333 I-0.0125 J0.0
G2 Y47.8097 Z-2.1667 I0.0063 J0.0108
G2 X40.3434 Y47.7989 Z-2.2 I0.0063 J-0.0108
G2 X40.3247 Y47.7881 Z-2.2333 I-0.0125 J0.0
G2 Y47.8097 Z-2.2667 I0.0063 J0.0108
G2 X40.3434 Y47.7989 Z-2.3 I0.0063 J-0.0108
G2 X40.3247 Y47.7881 Z-2.3333 I-0.0125 J0.0
G2 Y47.8097 Z-2.3667 I0.0063 J0.0108
G2 X40.3434 Y47.7989 Z-2.4 I0.0063 J-0.0108
G2 X40.3247 Y47.7881 Z-2.4333 I-0.0125 J0.0
G2 Y47.8097 Z-2.4667 I0.0063 J0.0108
G2 X40.3434 Y47.7989 Z-2.5 I0.0063 J-0.0108
G2 X40.3247 Y47.7881 Z-2.5333 I-0.0125 J0.0
G2 Y47.8097 Z-2.5667 I0.0063 J0.0108
G2 X40.3434 Y47.7989 Z-2.6 I0.0063 J-0.0108
G2 X40.3247 Y47.7881 Z-2.6333 I-0.0125 J0.0
G2 Y47.8097 Z-2.6667 I0.0063 J0.0108
G2 X40.3434 Y47.7989 Z-2.7 I0.0063 J-0.0108
G2 X40.3247 Y47.7881 Z-2.7333 I-0.0125 J0.0
G2 Y47.8097 Z-2.7667 I0.0063 J0.0108
G2 X40.3434 Y47.7989 Z-2.8 I0.0063 J-0.0108
G2 X40.3247 Y47.7881 Z-2.8333 I-0.0125 J0.0
G2 Y47.8097 Z-2.8667 I0.0063 J0.0108
G2 X40.3434 Y47.7989 Z-2.9 I0.0063 J-0.0108
G2 X40.3247 Y47.7881 Z-2.9333 I-0.0125 J0.0
G2 Y47.8097 Z-2.9667 I0.0063 J0.0108
G2 X40.3434 Y47.7989 Z-3.0 I0.0062 J-0.0108
G2 X40.3247 Y47.7881 Z-3.0333 I-0.0125 J0.0
G2 Y47.8097 Z-3.0667 I0.0063 J0.0108
G2 X40.3434 Y47.7989 Z-3.1 I0.0062 J-0.0108
G2 X40.3247 Y47.7881 Z-3.1333 I-0.0125 J0.0
G2 Y47.8097 Z-3.1667 I0.0063 J0.0108
G2 X40.3434 Y47.7989 Z-3.2 I0.0062 J-0.0108
G2 X40.3247 Y47.7881 I-0.0125 J0.0
G2 Y47.8097 I0.0063 J0.0108
G2 X40.3434 Y47.7989 I0.0062 J-0.0108
G0 Z3.0
G0 X25.1164 Y42.7038
G0 Z0.5
G1 F1000.0 Z0.0
G2 F2000.0 X25.0976 Y42.693 Z-0.0333 I-0.0125 J0.0
G2 Y42.7146 Z-0.0667 I0.0063 J0.0108
G2 X25.1164 Y42.7038 Z-0.1 I0.0062 J-0.0108
G2 X25.0976 Y42.693 Z-0.1333 I-0.0125 J0.0
G2 Y42.7146 Z-0.1667 I0.0063 J0.0108
G2 X25.1164 Y42.7038 Z-0.2 I0.0062 J-0.0108
G2 X25.0976 Y42.693 Z-0.2333 I-0.0125 J0.0
G2 Y42.7146 Z-0.2667 I0.0063 J0.0108
G2 X25.1164 Y42.7038 Z-0.3 I0.0062 J-0.0108
G2 X25.0976 Y42.693 Z-0.3333 I-0.0125 J0.0
G2 Y42.7146 Z-0.3667 I0.0063 J0.0108
G2 X25.1164 Y42.7038 Z-0.4 I0.0062 J-0.0108
G2 X25.0976 Y42.693 Z-0.4333 I-0.0125 J0.0
G2 Y42.7146 Z-0.4667 I0.0063 J0.0108
G2 X25.1164 Y42.7038 Z-0.5 I0.0062 J-0.0108
G2 X25.0976 Y42.693 Z-0.5333 I-0.0125 J0.0
G2 Y42.7146 Z-0.5667 I0.0063 J0.0108
G2 X25.1164 Y42.7038 Z-0.6 I0.0062 J-0.0108
G2 X25.0976 Y42.693 Z-0.6333 I-0.0125 J0.0
G2 Y42.7146 Z-0.6667 I0.0063 J0.0108
G2 X25.1164 Y42.7038 Z-0.7 I0.0062 J-0.0108
G2 X25.0976 Y42.693 Z-0.7333 I-0.0125 J0.0
G2 Y42.7146 Z-0.7667 I0.0063 J0.0108
G2 X25.1164 Y42.7038 Z-0.8 I0.0062 J-0.0108
G2 X25.0976 Y42.693 Z-0.8333 I-0.0125 J0.0
G2 Y42.7146 Z-0.8667 I0.0063 J0.0108
G2 X25.1164 Y42.7038 Z-0.9 I0.0062 J-0.0108
G2 X25.0976 Y42.693 Z-0.9333 I-0.0125 J0.0
G2 Y42.7146 Z-0.9667 I0.0063 J0.0108
G2 X25.1164 Y42.7038 Z-1.0 I0.0062 J-0.0108
G2 X25.0976 Y42.693 Z-1.0333 I-0.0125 J0.0
G2 Y42.7146 Z-1.0667 I0.0063 J0.0108
G2 X25.1164 Y42.7038 Z-1.1 I0.0062 J-0.0108
G2 X25.0976 Y42.693 Z-1.1333 I-0.0125 J0.0
G2 Y42.7146 Z-1.1667 I0.0063 J0.0108
G2 X25.1164 Y42.7038 Z-1.2 I0.0062 J-0.0108
G2 X25.0976 Y42.693 Z-1.2333 I-0.0125 J0.0
G2 Y42.7146 Z-1.2667 I0.0063 J0.0108
G2 X25.1164 Y42.7038 Z-1.3 I0.0062 J-0.0108
G2 X25.0976 Y42.693 Z-1.3333 I-0.0125 J0.0
G2 Y42.7146 Z-1.3667 I0.0063 J0.0108
G2 X25.1164 Y42.7038 Z-1.4 I0.0062 J-0.0108
G2 X25.0976 Y42.693 Z-1.4333 I-0.0125 J0.0
G2 Y42.7146 Z-1.4667 I0.0063 J0.0108
G2 X25.1164 Y42.7038 Z-1.5 I0.0062 J-0.0108
G2 X25.0976 Y42.693 Z-1.5333 I-0.0125 J0.0
G2 Y42.7146 Z-1.5667 I0.0063 J0.0108
G2 X25.1164 Y42.7038 Z-1.6 I0.0062 J-0.0108
G2 X25.0976 Y42.693 Z-1.6333 I-0.0125 J0.0
G2 Y42.7146 Z-1.6667 I0.0063 J0.0108
G2 X25.1164 Y42.7038 Z-1.7 I0.0062 J-0.0108
G2 X25.0976 Y42.693 Z-1.7333 I-0.0125 J0.0
G2 Y42.7146 Z-1.7667 I0.0063 J0.0108
G2 X25.1164 Y42.7038 Z-1.8 I0.0062 J-0.0108
G2 X25.0976 Y42.693 Z-1.8333 I-0.0125 J0.0
G2 Y42.7146 Z-1.8667 I0.0063 J0.0108
G2 X25.1164 Y42.7038 Z-1.9 I0.0062 J-0.0108
G2 X25.0976 Y42.693 Z-1.9333 I-0.0125 J0.0
G2 Y42.7146 Z-1.9667 I0.0063 J0.0108
G2 X25.1164 Y42.7038 Z-2.0 I0.0062 J-0.0108
G2 X25.0976 Y42.693 Z-2.0333 I-0.0125 J0.0
G2 Y42.7146 Z-2.0667 I0.0063 J0.0108
G2 X25.1164 Y42.7038 Z-2.1 I0.0062 J-0.0108
G2 X25.0976 Y42.693 Z-2.1333 I-0.0125 J0.0
G2 Y42.7146 Z-2.1667 I0.0063 J0.0108
G2 X25.1164 Y42.7038 Z-2.2 I0.0062 J-0.0108
G2 X25.0976 Y42.693 Z-2.2333 I-0.0125 J0.0
G2 Y42.7146 Z-2.2667 I0.0063 J0.0108
G2 X25.1164 Y42.7038 Z-2.3 I0.0062 J-0.0108
G2 X25.0976 Y42.693 Z-2.3333 I-0.0125 J0.0
G2 Y42.7146 Z-2.3667 I0.0063 J0.0108
G2 X25.1164 Y42.7038 Z-2.4 I0.0062 J-0.0108
G2 X25.0976 Y42.693 Z-2.4333 I-0.0125 J0.0
G2 Y42.7146 Z-2.4667 I0.0063 J0.0108
G2 X25.1164 Y42.7038 Z-2.5 I0.0062 J-0.0108
G2 X25.0976 Y42.693 Z-2.5333 I-0.0125 J0.0
G2 Y42.7146 Z-2.5667 I0.0063 J0.0108
G2 X25.1164 Y42.7038 Z-2.6 I0.0062 J-0.0108
G2 X25.0976 Y42.693 Z-2.6333 I-0.0125 J0.0
G2 Y42.7146 Z-2.6667 I0.0063 J0.0108
G2 X25.1164 Y42.7038 Z-2.7 I0.0062 J-0.0108
G2 X25.0976 Y42.693 Z-2.7333 I-0.0125 J0.0
G2 Y42.7146 Z-2.7667 I0.0063 J0.0108
G2 X25.1164 Y42.7038 Z-2.8 I0.0062 J-0.0108
G2 X25.0976 Y42.693 Z-2.8333 I-0.0125 J0.0
G2 Y42.7146 Z-2.8667 I0.0063 J0.0108
G2 X25.1164 Y42.7038 Z-2.9 I0.0062 J-0.0108
G2 X25.0976 Y42.693 Z-2.9333 I-0.0125 J0.0
G2 Y42.7146 Z-2.9667 I0.0063 J0.0108
G2 X25.1164 Y42.7038 Z-3.0 I0.0062 J-0.0108
G2 X25.0976 Y42.693 Z-3.0333 I-0.0125 J0.0
G2 Y42.7146 Z-3.0667 I0.0063 J0.0108
G2 X25.1164 Y42.7038 Z-3.1 I0.0062 J-0.0108
G2 X25.0976 Y42.693 Z-3.1333 I-0.0125 J0.0
G2 Y42.7146 Z-3.1667 I0.0063 J0.0108
G2 X25.1164 Y42.7038 Z-3.2 I0.0062 J-0.0108
G2 X25.0976 Y42.693 I-0.0125 J0.0
G2 Y42.7146 I0.0063 J0.0108
G2 X25.1164 Y42.7038 I0.0062 J-0.0108
G0 Z3.0
G0 X9.8602 Y42.7329
G0 Z0.5
G1 F1000.0 Z0.0
G2 F2000.0 X9.8414 Y42.7221 Z-0.0333 I-0.0125 J0.0
G2 Y42.7437 Z-0.0667 I0.0063 J0.0108
G2 X9.8602 Y42.7329 Z-0.1 I0.0062 J-0.0108
G2 X9.8414 Y42.7221 Z-0.1333 I-0.0125 J0.0
G2 Y42.7437 Z-0.1667 I0.0063 J0.0108
G2 X9.8602 Y42.7329 Z-0.2 I0.0062 J-0.0108
G2 X9.8414 Y42.7221 Z-0.2333 I-0.0125 J0.0
G2 Y42.7437 Z-0.2667 I0.0063 J0.0108
G2 X9.8602 Y42.7329 Z-0.3 I0.0062 J-0.0108
G2 X9.8414 Y42.7221 Z-0.3333 I-0.0125 J0.0
G2 Y42.7437 Z-0.3667 I0.0063 J0.0108
G2 X9.8602 Y42.7329 Z-0.4 I0.0062 J-0.0108
G2 X9.8414 Y42.7221 Z-0.4333 I-0.0125 J0.0
G2 Y42.7437 Z-0.4667 I0.0063 J0.0108
G2 X9.8602 Y42.7329 Z-0.5 I0.0062 J-0.0108
G2 X9.8414 Y42.7221 Z-0.5333 I-0.0125 J0.0
G2 Y42.7437 Z-0.5667 I0.0063 J0.0108
G2 X9.8602 Y42.7329 Z-0.6 I0.0062 J-0.0108
G2 X9.8414 Y42.7221 Z-0.6333 I-0.0125 J0.0
G2 Y42.7437 Z-0.6667 I0.0063 J0.0108
G2 X9.8602 Y42.7329 Z-0.7 I0.0062 J-0.0108
G2 X9.8414 Y42.7221 Z-0.7333 I-0.0125 J0.0
G2 Y42.7437 Z-0.7667 I0.0063 J0.0108
G2 X9.8602 Y42.7329 Z-0.8 I0.0062 J-0.0108
G2 X9.8414 Y42.7221 Z-0.8333 I-0.0125 J0.0
G2 Y42.7437 Z-0.8667 I0.0063 J0.0108
G2 X9.8602 Y42.7329 Z-0.9 I0.0062 J-0.0108
G2 X9.8414 Y42.7221 Z-0.9333 I-0.0125 J0.0
G2 Y42.7437 Z-0.9667 I0.0063 J0.0108
G2 X9.8602 Y42.7329 Z-1.0 I0.0062 J-0.0108
G2 X9.8414 Y42.7221 Z-1.0333 I-0.0125 J0.0
G2 Y42.7437 Z-1.0667 I0.0063 J0.0108
G2 X9.8602 Y42.7329 Z-1.1 I0.0062 J-0.0108
G2 X9.8414 Y42.7221 Z-1.1333 I-0.0125 J0.0
G2 Y42.7437 Z-1.1667 I0.0063 J0.0108
G2 X9.8602 Y42.7329 Z-1.2 I0.0062 J-0.0108
G2 X9.8414 Y42.7221 Z-1.2333 I-0.0125 J0.0
G2 Y42.7437 Z-1.2667 I0.0063 J0.0108
G2 X9.8602 Y42.7329 Z-1.3 I0.0062 J-0.0108
G2 X9.8414 Y42.7221 Z-1.3333 I-0.0125 J0.0
G2 Y42.7437 Z-1.3667 I0.0063 J0.0108
G2 X9.8602 Y42.7329 Z-1.4 I0.0062 J-0.0108
G2 X9.8414 Y42.7221 Z-1.4333 I-0.0125 J0.0
G2 Y42.7437 Z-1.4667 I0.0063 J0.0108
G2 X9.8602 Y42.7329 Z-1.5 I0.0062 J-0.0108
G2 X9.8414 Y42.7221 Z-1.5333 I-0.0125 J0.0
G2 Y42.7437 Z-1.5667 I0.0063 J0.0108
G2 X9.8602 Y42.7329 Z-1.6 I0.0062 J-0.0108
G2 X9.8414 Y42.7221 Z-1.6333 I-0.0125 J0.0
G2 Y42.7437 Z-1.6667 I0.0063 J0.0108
G2 X9.8602 Y42.7329 Z-1.7 I0.0062 J-0.0108
G2 X9.8414 Y42.7221 Z-1.7333 I-0.0125 J0.0
G2 Y42.7437 Z-1.7667 I0.0063 J0.0108
G2 X9.8602 Y42.7329 Z-1.8 I0.0062 J-0.0108
G2 X9.8414 Y42.7221 Z-1.8333 I-0.0125 J0.0
G2 Y42.7437 Z-1.8667 I0.0063 J0.0108
G2 X9.8602 Y42.7329 Z-1.9 I0.0062 J-0.0108
G2 X9.8414 Y42.7221 Z-1.9333 I-0.0125 J0.0
G2 Y42.7437 Z-1.9667 I0.0063 J0.0108
G2 X9.8602 Y42.7329 Z-2.0 I0.0062 J-0.0108
G2 X9.8414 Y42.7221 Z-2.0333 I-0.0125 J0.0
G2 Y42.7437 Z-2.0667 I0.0063 J0.0108
G2 X9.8602 Y42.7329 Z-2.1 I0.0062 J-0.0108
G2 X9.8414 Y42.7221 Z-2.1333 I-0.0125 J0.0
G2 Y42.7437 Z-2.1667 I0.0063 J0.0108
G2 X9.8602 Y42.7329 Z-2.2 I0.0062 J-0.0108
G2 X9.8414 Y42.7221 Z-2.2333 I-0.0125 J0.0
G2 Y42.7437 Z-2.2667 I0.0063 J0.0108
G2 X9.8602 Y42.7329 Z-2.3 I0.0062 J-0.0108
G2 X9.8414 Y42.7221 Z-2.3333 I-0.0125 J0.0
G2 Y42.7437 Z-2.3667 I0.0063 J0.0108
G2 X9.8602 Y42.7329 Z-2.4 I0.0062 J-0.0108
G2 X9.8414 Y42.7221 Z-2.4333 I-0.0125 J0.0
G2 Y42.7437 Z-2.4667 I0.0063 J0.0108
G2 X9.8602 Y42.7329 Z-2.5 I0.0062 J-0.0108
G2 X9.8414 Y42.7221 Z-2.5333 I-0.0125 J0.0
G2 Y42.7437 Z-2.5667 I0.0063 J0.0108
G2 X9.8602 Y42.7329 Z-2.6 I0.0062 J-0.0108
G2 X9.8414 Y42.7221 Z-2.6333 I-0.0125 J0.0
G2 Y42.7437 Z-2.6667 I0.0063 J0.0108
G2 X9.8602 Y42.7329 Z-2.7 I0.0062 J-0.0108
G2 X9.8414 Y42.7221 Z-2.7333 I-0.0125 J0.0
G2 Y42.7437 Z-2.7667 I0.0063 J0.0108
G2 X9.8602 Y42.7329 Z-2.8 I0.0062 J-0.0108
G2 X9.8414 Y42.7221 Z-2.8333 I-0.0125 J0.0
G2 Y42.7437 Z-2.8667 I0.0063 J0.0108
G2 X9.8602 Y42.7329 Z-2.9 I0.0062 J-0.0108
G2 X9.8414 Y42.7221 Z-2.9333 I-0.0125 J0.0
G2 Y42.7437 Z-2.9667 I0.0063 J0.0108
G2 X9.8602 Y42.7329 Z-3.0 I0.0062 J-0.0108
G2 X9.8414 Y42.7221 Z-3.0333 I-0.0125 J0.0
G2 Y42.7437 Z-3.0667 I0.0063 J0.0108
G2 X9.8602 Y42.7329 Z-3.1 I0.0062 J-0.0108
G2 X9.8414 Y42.7221 Z-3.1333 I-0.0125 J0.0
G2 Y42.7437 Z-3.1667 I0.0063 J0.0108
G2 X9.8602 Y42.7329 Z-3.2 I0.0062 J-0.0108
G2 X9.8414 Y42.7221 I-0.0125 J0.0
G2 Y42.7437 I0.0063 J0.0108
G2 X9.8602 Y42.7329 I0.0062 J-0.0108
G0 Z3.0
G0 X6.1627 Y25.1247
G0 Z0.5
G1 F1000.0 Z0.0
G2 F2000.0 X6.1439 Y25.1138 Z-0.0333 I-0.0125 J0.0
G2 Y25.1355 Z-0.0667 I0.0062 J0.0108
G2 X6.1627 Y25.1247 Z-0.1 I0.0063 J-0.0108
G2 X6.1439 Y25.1138 Z-0.1333 I-0.0125 J0.0
G2 Y25.1355 Z-0.1667 I0.0062 J0.0108
G2 X6.1627 Y25.1247 Z-0.2 I0.0063 J-0.0108
G2 X6.1439 Y25.1138 Z-0.2333 I-0.0125 J0.0
G2 Y25.1355 Z-0.2667 I0.0062 J0.0108
G2 X6.1627 Y25.1247 Z-0.3 I0.0063 J-0.0108
G2 X6.1439 Y25.1138 Z-0.3333 I-0.0125 J0.0
G2 Y25.1355 Z-0.3667 I0.0062 J0.0108
G2 X6.1627 Y25.1247 Z-0.4 I0.0063 J-0.0108
G2 X6.1439 Y25.1138 Z-0.4333 I-0.0125 J0.0
G2 Y25.1355 Z-0.4667 I0.0062 J0.0108
G2 X6.1627 Y25.1247 Z-0.5 I0.0063 J-0.0108
G2 X6.1439 Y25.1138 Z-0.5333 I-0.0125 J0.0
G2 Y25.1355 Z-0.5667 I0.0062 J0.0108
G2 X6.1627 Y25.1247 Z-0.6 I0.0063 J-0.0108
G2 X6.1439 Y25.1138 Z-0.6333 I-0.0125 J0.0
G2 Y25.1355 Z-0.6667 I0.0062 J0.0108
G2 X6.1627 Y25.1247 Z-0.7 I0.0063 J-0.0108
G2 X6.1439 Y25.1138 Z-0.7333 I-0.0125 J0.0
G2 Y25.1355 Z-0.7667 I0.0062 J0.0108
G2 X6.1627 Y25.1247 Z-0.8 I0.0063 J-0.0108
G2 X6.1439 Y25.1138 Z-0.8333 I-0.0125 J0.0
G2 Y25.1355 Z-0.8667 I0.0062 J0.0108
G2 X6.1627 Y25.1247 Z-0.9 I0.0063 J-0.0108
G2 X6.1439 Y25.1138 Z-0.9333 I-0.0125 J0.0
G2 Y25.1355 Z-0.9667 I0.0062 J0.0108
G2 X6.1627 Y25.1247 Z-1.0 I0.0063 J-0.0108
G2 X6.1439 Y25.1138 Z-1.0333 I-0.0125 J0.0
G2 Y25.1355 Z-1.0667 I0.0062 J0.0108
G2 X6.1627 Y25.1247 Z-1.1 I0.0063 J-0.0108
G2 X6.1439 Y25.1138 Z-1.1333 I-0.0125 J0.0
G2 Y25.1355 Z-1.1667 I0.0062 J0.0108
G2 X6.1627 Y25.1247 Z-1.2 I0.0063 J-0.0108
G2 X6.1439 Y25.1138 Z-1.2333 I-0.0125 J0.0
G2 Y25.1355 Z-1.2667 I0.0062 J0.0108
G2 X6.1627 Y25.1247 Z-1.3 I0.0063 J-0.0108
G2 X6.1439 Y25.1138 Z-1.3333 I-0.0125 J0.0
G2 Y25.1355 Z-1.3667 I0.0062 J0.0108
G2 X6.1627 Y25.1247 Z-1.4 I0.0063 J-0.0108
G2 X6.1439 Y25.1138 Z-1.4333 I-0.0125 J0.0
G2 Y25.1355 Z-1.4667 I0.0062 J0.0108
G2 X6.1627 Y25.1247 Z-1.5 I0.0063 J-0.0108
G2 X6.1439 Y25.1138 Z-1.5333 I-0.0125 J0.0
G2 Y25.1355 Z-1.5667 I0.0062 J0.0108
G2 X6.1627 Y25.1247 Z-1.6 I0.0063 J-0.0108
G2 X6.1439 Y25.1138 Z-1.6333 I-0.0125 J0.0
G2 Y25.1355 Z-1.6667 I0.0062 J0.0108
G2 X6.1627 Y25.1247 Z-1.7 I0.0063 J-0.0108
G2 X6.1439 Y25.1138 Z-1.7333 I-0.0125 J0.0
G2 Y25.1355 Z-1.7667 I0.0062 J0.0108
G2 X6.1627 Y25.1247 Z-1.8 I0.0063 J-0.0108
G2 X6.1439 Y25.1138 Z-1.8333 I-0.0125 J0.0
G2 Y25.1355 Z-1.8667 I0.0062 J0.0108
G2 X6.1627 Y25.1247 Z-1.9 I0.0063 J-0.0108
G2 X6.1439 Y25.1138 Z-1.9333 I-0.0125 J0.0
G2 Y25.1355 Z-1.9667 I0.0062 J0.0108
G2 X6.1627 Y25.1247 Z-2.0 I0.0063 J-0.0108
G2 X6.1439 Y25.1138 Z-2.0333 I-0.0125 J0.0
G2 Y25.1355 Z-2.0667 I0.0062 J0.0108
G2 X6.1627 Y25.1247 Z-2.1 I0.0063 J-0.0108
G2 X6.1439 Y25.1138 Z-2.1333 I-0.0125 J0.0
G2 Y25.1355 Z-2.1667 I0.0062 J0.0108
G2 X6.1627 Y25.1247 Z-2.2 I0.0063 J-0.0108
G2 X6.1439 Y25.1138 Z-2.2333 I-0.0125 J0.0
G2 Y25.1355 Z-2.2667 I0.0062 J0.0108
G2 X6.1627 Y25.1247 Z-2.3 I0.0063 J-0.0108
G2 X6.1439 Y25.1138 Z-2.3333 I-0.0125 J0.0
G2 Y25.1355 Z-2.3667 I0.0062 J0.0108
G2 X6.1627 Y25.1247 Z-2.4 I0.0063 J-0.0108
G2 X6.1439 Y25.1138 Z-2.4333 I-0.0125 J0.0
G2 Y25.1355 Z-2.4667 I0.0062 J0.0108
G2 X6.1627 Y25.1247 Z-2.5 I0.0063 J-0.0108
G2 X6.1439 Y25.1138 Z-2.5333 I-0.0125 J0.0
G2 Y25.1355 Z-2.5667 I0.0062 J0.0108
G2 X6.1627 Y25.1247 Z-2.6 I0.0063 J-0.0108
G2 X6.1439 Y25.1138 Z-2.6333 I-0.0125 J0.0
G2 Y25.1355 Z-2.6667 I0.0063 J0.0108
G2 X6.1627 Y25.1247 Z-2.7 I0.0062 J-0.0108
G2 X6.1439 Y25.1138 Z-2.7333 I-0.0125 J0.0
G2 Y25.1355 Z-2.7667 I0.0063 J0.0108
G2 X6.1627 Y25.1247 Z-2.8 I0.0062 J-0.0108
G2 X6.1439 Y25.1138 Z-2.8333 I-0.0125 J0.0
G2 Y25.1355 Z-2.8667 I0.0063 J0.0108
G2 X6.1627 Y25.1247 Z-2.9 I0.0062 J-0.0108
G2 X6.1439 Y25.1138 Z-2.9333 I-0.0125 J0.0
G2 Y25.1355 Z-2.9667 I0.0063 J0.0108
G2 X6.1627 Y25.1247 Z-3.0 I0.0062 J-0.0108
G2 X6.1439 Y25.1138 Z-3.0333 I-0.0125 J0.0
G2 Y25.1355 Z-3.0667 I0.0063 J0.0108
G2 X6.1627 Y25.1247 Z-3.1 I0.0062 J-0.0108
G2 X6.1439 Y25.1138 Z-3.1333 I-0.0125 J0.0
G2 Y25.1355 Z-3.1667 I0.0063 J0.0108
G2 X6.1627 Y25.1247 Z-3.2 I0.0062 J-0.0108
G2 X6.1439 Y25.1138 I-0.0125 J0.0
G2 Y25.1355 I0.0063 J0.0108
G2 X6.1627 Y25.1247 I0.0062 J-0.0108
G0 Z3.0
G0 X17.1682
G0 Z0.5
G1 F1000.0 Z0.0
G2 F2000.0 X17.1494 Y25.1138 Z-0.0333 I-0.0125 J0.0
G2 Y25.1355 Z-0.0667 I0.0062 J0.0108
G2 X17.1682 Y25.1247 Z-0.1 I0.0063 J-0.0108
G2 X17.1494 Y25.1138 Z-0.1333 I-0.0125 J0.0
G2 Y25.1355 Z-0.1667 I0.0062 J0.0108
G2 X17.1682 Y25.1247 Z-0.2 I0.0063 J-0.0108
G2 X17.1494 Y25.1138 Z-0.2333 I-0.0125 J0.0
G2 Y25.1355 Z-0.2667 I0.0062 J0.0108
G2 X17.1682 Y25.1247 Z-0.3 I0.0063 J-0.0108
G2 X17.1494 Y25.1138 Z-0.3333 I-0.0125 J0.0
G2 Y25.1355 Z-0.3667 I0.0062 J0.0108
G2 X17.1682 Y25.1247 Z-0.4 I0.0063 J-0.0108
G2 X17.1494 Y25.1138 Z-0.4333 I-0.0125 J0.0
G2 Y25.1355 Z-0.4667 I0.0062 J0.0108
G2 X17.1682 Y25.1247 Z-0.5 I0.0063 J-0.0108
G2 X17.1494 Y25.1138 Z-0.5333 I-0.0125 J0.0
G2 Y25.1355 Z-0.5667 I0.0062 J0.0108
G2 X17.1682 Y25.1247 Z-0.6 I0.0063 J-0.0108
G2 X17.1494 Y25.1138 Z-0.6333 I-0.0125 J0.0
G2 Y25.1355 Z-0.6667 I0.0062 J0.0108
G2 X17.1682 Y25.1247 Z-0.7 I0.0063 J-0.0108
G2 X17.1494 Y25.1138 Z-0.7333 I-0.0125 J0.0
G2 Y25.1355 Z-0.7667 I0.0062 J0.0108
G2 X17.1682 Y25.1247 Z-0.8 I0.0063 J-0.0108
G2 X17.1494 Y25.1138 Z-0.8333 I-0.0125 J0.0
G2 Y25.1355 Z-0.8667 I0.0062 J0.0108
G2 X17.1682 Y25.1247 Z-0.9 I0.0063 J-0.0108
G2 X17.1494 Y25.1138 Z-0.9333 I-0.0125 J0.0
G2 Y25.1355 Z-0.9667 I0.0062 J0.0108
G2 X17.1682 Y25.1247 Z-1.0 I0.0063 J-0.0108
G2 X17.1494 Y25.1138 Z-1.0333 I-0.0125 J0.0
G2 Y25.1355 Z-1.0667 I0.0062 J0.0108
G2 X17.1682 Y25.1247 Z-1.1 I0.0063 J-0.0108
G2 X17.1494 Y25.1138 Z-1.1333 I-0.0125 J0.0
G2 Y25.1355 Z-1.1667 I0.0062 J0.0108
G2 X17.1682 Y25.1247 Z-1.2 I0.0063 J-0.0108
G2 X17.1494 Y25.1138 Z-1.2333 I-0.0125 J0.0
G2 Y25.1355 Z-1.2667 I0.0062 J0.0108
G2 X17.1682 Y25.1247 Z-1.3 I0.0063 J-0.0108
G2 X17.1494 Y25.1138 Z-1.3333 I-0.0125 J0.0
G2 Y25.1355 Z-1.3667 I0.0062 J0.0108
G2 X17.1682 Y25.1247 Z-1.4 I0.0063 J-0.0108
G2 X17.1494 Y25.1138 Z-1.4333 I-0.0125 J0.0
G2 Y25.1355 Z-1.4667 I0.0062 J0.0108
G2 X17.1682 Y25.1247 Z-1.5 I0.0063 J-0.0108
G2 X17.1494 Y25.1138 Z-1.5333 I-0.0125 J0.0
G2 Y25.1355 Z-1.5667 I0.0062 J0.0108
G2 X17.1682 Y25.1247 Z-1.6 I0.0063 J-0.0108
G2 X17.1494 Y25.1138 Z-1.6333 I-0.0125 J0.0
G2 Y25.1355 Z-1.6667 I0.0062 J0.0108
G2 X17.1682 Y25.1247 Z-1.7 I0.0063 J-0.0108
G2 X17.1494 Y25.1138 Z-1.7333 I-0.0125 J0.0
G2 Y25.1355 Z-1.7667 I0.0062 J0.0108
G2 X17.1682 Y25.1247 Z-1.8 I0.0063 J-0.0108
G2 X17.1494 Y25.1138 Z-1.8333 I-0.0125 J0.0
G2 Y25.1355 Z-1.8667 I0.0062 J0.0108
G2 X17.1682 Y25.1247 Z-1.9 I0.0063 J-0.0108
G2 X17.1494 Y25.1138 Z-1.9333 I-0.0125 J0.0
G2 Y25.1355 Z-1.9667 I0.0062 J0.0108
G2 X17.1682 Y25.1247 Z-2.0 I0.0063 J-0.0108
G2 X17.1494 Y25.1138 Z-2.0333 I-0.0125 J0.0
G2 Y25.1355 Z-2.0667 I0.0062 J0.0108
G2 X17.1682 Y25.1247 Z-2.1 I0.0063 J-0.0108
G2 X17.1494 Y25.1138 Z-2.1333 I-0.0125 J0.0
G2 Y25.1355 Z-2.1667 I0.0062 J0.0108
G2 X17.1682 Y25.1247 Z-2.2 I0.0063 J-0.0108
G2 X17.1494 Y25.1138 Z-2.2333 I-0.0125 J0.0
G2 Y25.1355 Z-2.2667 I0.0062 J0.0108
G2 X17.1682 Y25.1247 Z-2.3 I0.0063 J-0.0108
G2 X17.1494 Y25.1138 Z-2.3333 I-0.0125 J0.0
G2 Y25.1355 Z-2.3667 I0.0062 J0.0108
G2 X17.1682 Y25.1247 Z-2.4 I0.0063 J-0.0108
G2 X17.1494 Y25.1138 Z-2.4333 I-0.0125 J0.0
G2 Y25.1355 Z-2.4667 I0.0063 J0.0108
G2 X17.1682 Y25.1247 Z-2.5 I0.0062 J-0.0108
G2 X17.1494 Y25.1138 Z-2.5333 I-0.0125 J0.0
G2 Y25.1355 Z-2.5667 I0.0063 J0.0108
G2 X17.1682 Y25.1247 Z-2.6 I0.0062 J-0.0108
G2 X17.1494 Y25.1138 Z-2.6333 I-0.0125 J0.0
G2 Y25.1355 Z-2.6667 I0.0063 J0.0108
G2 X17.1682 Y25.1247 Z-2.7 I0.0062 J-0.0108
G2 X17.1494 Y25.1138 Z-2.7333 I-0.0125 J0.0
G2 Y25.1355 Z-2.7667 I0.0063 J0.0108
G2 X17.1682 Y25.1247 Z-2.8 I0.0062 J-0.0108
G2 X17.1494 Y25.1138 Z-2.8333 I-0.0125 J0.0
G2 Y25.1355 Z-2.8667 I0.0063 J0.0108
G2 X17.1682 Y25.1247 Z-2.9 I0.0062 J-0.0108
G2 X17.1494 Y25.1138 Z-2.9333 I-0.0125 J0.0
G2 Y25.1355 Z-2.9667 I0.0063 J0.0108
G2 X17.1682 Y25.1247 Z-3.0 I0.0062 J-0.0108
G2 X17.1494 Y25.1138 Z-3.0333 I-0.0125 J0.0
G2 Y25.1355 Z-3.0667 I0.0063 J0.0108
G2 X17.1682 Y25.1247 Z-3.1 I0.0062 J-0.0108
G2 X17.1494 Y25.1138 Z-3.1333 I-0.0125 J0.0
G2 Y25.1355 Z-3.1667 I0.0063 J0.0108
G2 X17.1682 Y25.1247 Z-3.2 I0.0062 J-0.0108
G2 X17.1494 Y25.1138 I-0.0125 J0.0
G2 Y25.1355 I0.0063 J0.0108
G2 X17.1682 Y25.1247 I0.0062 J-0.0108
G0 Z3.0
G0 X28.4062
G0 Z0.5
G1 F1000.0 Z0.0
G2 F2000.0 X28.3875 Y25.1138 Z-0.0333 I-0.0125 J0.0
G2 Y25.1355 Z-0.0667 I0.0062 J0.0108
G2 X28.4062 Y25.1247 Z-0.1 I0.0063 J-0.0108
G2 X28.3875 Y25.1138 Z-0.1333 I-0.0125 J0.0
G2 Y25.1355 Z-0.1667 I0.0062 J0.0108
G2 X28.4062 Y25.1247 Z-0.2 I0.0063 J-0.0108
G2 X28.3875 Y25.1138 Z-0.2333 I-0.0125 J0.0
G2 Y25.1355 Z-0.2667 I0.0062 J0.0108
G2 X28.4062 Y25.1247 Z-0.3 I0.0063 J-0.0108
G2 X28.3875 Y25.1138 Z-0.3333 I-0.0125 J0.0
G2 Y25.1355 Z-0.3667 I0.0062 J0.0108
G2 X28.4062 Y25.1247 Z-0.4 I0.0063 J-0.0108
G2 X28.3875 Y25.1138 Z-0.4333 I-0.0125 J0.0
G2 Y25.1355 Z-0.4667 I0.0062 J0.0108
G2 X28.4062 Y25.1247 Z-0.5 I0.0063 J-0.0108
G2 X28.3875 Y25.1138 Z-0.5333 I-0.0125 J0.0
G2 Y25.1355 Z-0.5667 I0.0062 J0.0108
G2 X28.4062 Y25.1247 Z-0.6 I0.0063 J-0.0108
G2 X28.3875 Y25.1138 Z-0.6333 I-0.0125 J0.0
G2 Y25.1355 Z-0.6667 I0.0062 J0.0108
G2 X28.4062 Y25.1247 Z-0.7 I0.0063 J-0.0108
G2 X28.3875 Y25.1138 Z-0.7333 I-0.0125 J0.0
G2 Y25.1355 Z-0.7667 I0.0062 J0.0108
G2 X28.4062 Y25.1247 Z-0.8 I0.0063 J-0.0108
G2 X28.3875 Y25.1138 Z-0.8333 I-0.0125 J0.0
G2 Y25.1355 Z-0.8667 I0.0062 J0.0108
G2 X28.4062 Y25.1247 Z-0.9 I0.0063 J-0.0108
G2 X28.3875 Y25.1138 Z-0.9333 I-0.0125 J0.0
G2 Y25.1355 Z-0.9667 I0.0062 J0.0108
G2 X28.4062 Y25.1247 Z-1.0 I0.0063 J-0.0108
G2 X28.3875 Y25.1138 Z-1.0333 I-0.0125 J0.0
G2 Y25.1355 Z-1.0667 I0.0062 J0.0108
G2 X28.4062 Y25.1247 Z-1.1 I0.0063 J-0.0108
G2 X28.3875 Y25.1138 Z-1.1333 I-0.0125 J0.0
G2 Y25.1355 Z-1.1667 I0.0062 J0.0108
G2 X28.4062 Y25.1247 Z-1.2 I0.0063 J-0.0108
G2 X28.3875 Y25.1138 Z-1.2333 I-0.0125 J0.0
G2 Y25.1355 Z-1.2667 I0.0062 J0.0108
G2 X28.4062 Y25.1247 Z-1.3 I0.0063 J-0.0108
G2 X28.3875 Y25.1138 Z-1.3333 I-0.0125 J0.0
G2 Y25.1355 Z-1.3667 I0.0062 J0.0108
G2 X28.4062 Y25.1247 Z-1.4 I0.0063 J-0.0108
G2 X28.3875 Y25.1138 Z-1.4333 I-0.0125 J0.0
G2 Y25.1355 Z-1.4667 I0.0062 J0.0108
G2 X28.4062 Y25.1247 Z-1.5 I0.0063 J-0.0108
G2 X28.3875 Y25.1138 Z-1.5333 I-0.0125 J0.0
G2 Y25.1355 Z-1.5667 I0.0062 J0.0108
G2 X28.4062 Y25.1247 Z-1.6 I0.0063 J-0.0108
G2 X28.3875 Y25.1138 Z-1.6333 I-0.0125 J0.0
G2 Y25.1355 Z-1.6667 I0.0062 J0.0108
G2 X28.4062 Y25.1247 Z-1.7 I0.0063 J-0.0108
G2 X28.3875 Y25.1138 Z-1.7333 I-0.0125 J0.0
G2 Y25.1355 Z-1.7667 I0.0062 J0.0108
G2 X28.4062 Y25.1247 Z-1.8 I0.0063 J-0.0108
G2 X28.3875 Y25.1138 Z-1.8333 I-0.0125 J0.0
G2 Y25.1355 Z-1.8667 I0.0062 J0.0108
G2 X28.4062 Y25.1247 Z-1.9 I0.0063 J-0.0108
G2 X28.3875 Y25.1138 Z-1.9333 I-0.0125 J0.0
G2 Y25.1355 Z-1.9667 I0.0062 J0.0108
G2 X28.4062 Y25.1247 Z-2.0 I0.0063 J-0.0108
G2 X28.3875 Y25.1138 Z-2.0333 I-0.0125 J0.0
G2 Y25.1355 Z-2.0667 I0.0062 J0.0108
G2 X28.4062 Y25.1247 Z-2.1 I0.0063 J-0.0108
G2 X28.3875 Y25.1138 Z-2.1333 I-0.0125 J0.0
G2 Y25.1355 Z-2.1667 I0.0062 J0.0108
G2 X28.4062 Y25.1247 Z-2.2 I0.0063 J-0.0108
G2 X28.3875 Y25.1138 Z-2.2333 I-0.0125 J0.0
G2 Y25.1355 Z-2.2667 I0.0062 J0.0108
G2 X28.4062 Y25.1247 Z-2.3 I0.0063 J-0.0108
G2 X28.3875 Y25.1138 Z-2.3333 I-0.0125 J0.0
G2 Y25.1355 Z-2.3667 I0.0062 J0.0108
G2 X28.4062 Y25.1247 Z-2.4 I0.0063 J-0.0108
G2 X28.3875 Y25.1138 Z-2.4333 I-0.0125 J0.0
G2 Y25.1355 Z-2.4667 I0.0063 J0.0108
G2 X28.4062 Y25.1247 Z-2.5 I0.0062 J-0.0108
G2 X28.3875 Y25.1138 Z-2.5333 I-0.0125 J0.0
G2 Y25.1355 Z-2.5667 I0.0063 J0.0108
G2 X28.4062 Y25.1247 Z-2.6 I0.0062 J-0.0108
G2 X28.3875 Y25.1138 Z-2.6333 I-0.0125 J0.0
G2 Y25.1355 Z-2.6667 I0.0063 J0.0108
G2 X28.4062 Y25.1247 Z-2.7 I0.0062 J-0.0108
G2 X28.3875 Y25.1138 Z-2.7333 I-0.0125 J0.0
G2 Y25.1355 Z-2.7667 I0.0063 J0.0108
G2 X28.4062 Y25.1247 Z-2.8 I0.0062 J-0.0108
G2 X28.3875 Y25.1138 Z-2.8333 I-0.0125 J0.0
G2 Y25.1355 Z-2.8667 I0.0063 J0.0108
G2 X28.4062 Y25.1247 Z-2.9 I0.0062 J-0.0108
G2 X28.3875 Y25.1138 Z-2.9333 I-0.0125 J0.0
G2 Y25.1355 Z-2.9667 I0.0063 J0.0108
G2 X28.4062 Y25.1247 Z-3.0 I0.0062 J-0.0108
G2 X28.3875 Y25.1138 Z-3.0333 I-0.0125 J0.0
G2 Y25.1355 Z-3.0667 I0.0063 J0.0108
G2 X28.4062 Y25.1247 Z-3.1 I0.0062 J-0.0108
G2 X28.3875 Y25.1138 Z-3.1333 I-0.0125 J0.0
G2 Y25.1355 Z-3.1667 I0.0063 J0.0108
G2 X28.4062 Y25.1247 Z-3.2 I0.0062 J-0.0108
G2 X28.3875 Y25.1138 I-0.0125 J0.0
G2 Y25.1355 I0.0063 J0.0108
G2 X28.4062 Y25.1247 I0.0062 J-0.0108
G0 Z3.0
G0 X45.9995 Y28.6123
G0 Z0.5
G1 F1000.0 Z0.0
G2 F2000.0 X45.9808 Y28.6015 Z-0.0333 I-0.0125 J0.0
G2 Y28.6231 Z-0.0667 I0.0063 J0.0108
G2 X45.9995 Y28.6123 Z-0.1 I0.0063 J-0.0108
G2 X45.9808 Y28.6015 Z-0.1333 I-0.0125 J0.0
G2 Y28.6231 Z-0.1667 I0.0063 J0.0108
G2 X45.9995 Y28.6123 Z-0.2 I0.0063 J-0.0108
G2 X45.9808 Y28.6015 Z-0.2333 I-0.0125 J0.0
G2 Y28.6231 Z-0.2667 I0.0063 J0.0108
G2 X45.9995 Y28.6123 Z-0.3 I0.0063 J-0.0108
G2 X45.9808 Y28.6015 Z-0.3333 I-0.0125 J0.0
G2 Y28.6231 Z-0.3667 I0.0063 J0.0108
G2 X45.9995 Y28.6123 Z-0.4 I0.0063 J-0.0108
G2 X45.9808 Y28.6015 Z-0.4333 I-0.0125 J0.0
G2 Y28.6231 Z-0.4667 I0.0063 J0.0108
G2 X45.9995 Y28.6123 Z-0.5 I0.0063 J-0.0108
G2 X45.9808 Y28.6015 Z-0.5333 I-0.0125 J0.0
G2 Y28.6231 Z-0.5667 I0.0063 J0.0108
G2 X45.9995 Y28.6123 Z-0.6 I0.0063 J-0.0108
G2 X45.9808 Y28.6015 Z-0.6333 I-0.0125 J0.0
G2 Y28.6231 Z-0.6667 I0.0063 J0.0108
G2 X45.9995 Y28.6123 Z-0.7 I0.0063 J-0.0108
G2 X45.9808 Y28.6015 Z-0.7333 I-0.0125 J0.0
G2 Y28.6231 Z-0.7667 I0.0063 J0.0108
G2 X45.9995 Y28.6123 Z-0.8 I0.0063 J-0.0108
G2 X45.9808 Y28.6015 Z-0.8333 I-0.0125 J0.0
G2 Y28.6231 Z-0.8667 I0.0063 J0.0108
G2 X45.9995 Y28.6123 Z-0.9 I0.0063 J-0.0108
G2 X45.9808 Y28.6015 Z-0.9333 I-0.0125 J0.0
G2 Y28.6231 Z-0.9667 I0.0063 J0.0108
G2 X45.9995 Y28.6123 Z-1.0 I0.0063 J-0.0108
G2 X45.9808 Y28.6015 Z-1.0333 I-0.0125 J0.0
G2 Y28.6231 Z-1.0667 I0.0063 J0.0108
G2 X45.9995 Y28.6123 Z-1.1 I0.0063 J-0.0108
G2 X45.9808 Y28.6015 Z-1.1333 I-0.0125 J0.0
G2 Y28.6231 Z-1.1667 I0.0063 J0.0108
G2 X45.9995 Y28.6123 Z-1.2 I0.0063 J-0.0108
G2 X45.9808 Y28.6015 Z-1.2333 I-0.0125 J0.0
G2 Y28.6231 Z-1.2667 I0.0063 J0.0108
G2 X45.9995 Y28.6123 Z-1.3 I0.0063 J-0.0108
G2 X45.9808 Y28.6015 Z-1.3333 I-0.0125 J0.0
G2 Y28.6231 Z-1.3667 I0.0063 J0.0108
G2 X45.9995 Y28.6123 Z-1.4 I0.0063 J-0.0108
G2 X45.9808 Y28.6015 Z-1.4333 I-0.0125 J0.0
G2 Y28.6231 Z-1.4667 I0.0063 J0.0108
G2 X45.9995 Y28.6123 Z-1.5 I0.0063 J-0.0108
G2 X45.9808 Y28.6015 Z-1.5333 I-0.0125 J0.0
G2 Y28.6231 Z-1.5667 I0.0063 J0.0108
G2 X45.9995 Y28.6123 Z-1.6 I0.0063 J-0.0108
G2 X45.9808 Y28.6015 Z-1.6333 I-0.0125 J0.0
G2 Y28.6231 Z-1.6667 I0.0063 J0.0108
G2 X45.9995 Y28.6123 Z-1.7 I0.0063 J-0.0108
G2 X45.9808 Y28.6015 Z-1.7333 I-0.0125 J0.0
G2 Y28.6231 Z-1.7667 I0.0063 J0.0108
G2 X45.9995 Y28.6123 Z-1.8 I0.0063 J-0.0108
G2 X45.9808 Y28.6015 Z-1.8333 I-0.0125 J0.0
G2 Y28.6231 Z-1.8667 I0.0063 J0.0108
G2 X45.9995 Y28.6123 Z-1.9 I0.0063 J-0.0108
G2 X45.9808 Y28.6015 Z-1.9333 I-0.0125 J0.0
G2 Y28.6231 Z-1.9667 I0.0063 J0.0108
G2 X45.9995 Y28.6123 Z-2.0 I0.0063 J-0.0108
G2 X45.9808 Y28.6015 Z-2.0333 I-0.0125 J0.0
G2 Y28.6231 Z-2.0667 I0.0063 J0.0108
G2 X45.9995 Y28.6123 Z-2.1 I0.0063 J-0.0108
G2 X45.9808 Y28.6015 Z-2.1333 I-0.0125 J0.0
G2 Y28.6231 Z-2.1667 I0.0063 J0.0108
G2 X45.9995 Y28.6123 Z-2.2 I0.0063 J-0.0108
G2 X45.9808 Y28.6015 Z-2.2333 I-0.0125 J0.0
G2 Y28.6231 Z-2.2667 I0.0063 J0.0108
G2 X45.9995 Y28.6123 Z-2.3 I0.0063 J-0.0108
G2 X45.9808 Y28.6015 Z-2.3333 I-0.0125 J0.0
G2 Y28.6231 Z-2.3667 I0.0063 J0.0108
G2 X45.9995 Y28.6123 Z-2.4 I0.0063 J-0.0108
G2 X45.9808 Y28.6015 Z-2.4333 I-0.0125 J0.0
G2 Y28.6231 Z-2.4667 I0.0063 J0.0108
G2 X45.9995 Y28.6123 Z-2.5 I0.0063 J-0.0108
G2 X45.9808 Y28.6015 Z-2.5333 I-0.0125 J0.0
G2 Y28.6231 Z-2.5667 I0.0063 J0.0108
G2 X45.9995 Y28.6123 Z-2.6 I0.0063 J-0.0108
G2 X45.9808 Y28.6015 Z-2.6333 I-0.0125 J0.0
G2 Y28.6231 Z-2.6667 I0.0063 J0.0108
G2 X45.9995 Y28.6123 Z-2.7 I0.0063 J-0.0108
G2 X45.9808 Y28.6015 Z-2.7333 I-0.0125 J0.0
G2 Y28.6231 Z-2.7667 I0.0063 J0.0108
G2 X45.9995 Y28.6123 Z-2.8 I0.0063 J-0.0108
G2 X45.9808 Y28.6015 Z-2.8333 I-0.0125 J0.0
G2 Y28.6231 Z-2.8667 I0.0063 J0.0108
G2 X45.9995 Y28.6123 Z-2.9 I0.0063 J-0.0108
G2 X45.9808 Y28.6015 Z-2.9333 I-0.0125 J0.0
G2 Y28.6231 Z-2.9667 I0.0063 J0.0108
G2 X45.9995 Y28.6123 Z-3.0 I0.0062 J-0.0108
G2 X45.9808 Y28.6015 Z-3.0333 I-0.0125 J0.0
G2 Y28.6231 Z-3.0667 I0.0063 J0.0108
G2 X45.9995 Y28.6123 Z-3.1 I0.0062 J-0.0108
G2 X45.9808 Y28.6015 Z-3.1333 I-0.0125 J0.0
G2 Y28.6231 Z-3.1667 I0.0063 J0.0108
G2 X45.9995 Y28.6123 Z-3.2 I0.0062 J-0.0108
G2 X45.9808 Y28.6015 I-0.0125 J0.0
G2 Y28.6231 I0.0063 J0.0108
G2 X45.9995 Y28.6123 I0.0062 J-0.0108
G0 Z3.0
G0 X46.0383 Y16.173
G0 Z0.5
G1 F1000.0 Z0.0
G2 F2000.0 X46.0195 Y16.1622 Z-0.0333 I-0.0125 J0.0
G2 Y16.1838 Z-0.0667 I0.0063 J0.0108
G2 X46.0383 Y16.173 Z-0.1 I0.0063 J-0.0108
G2 X46.0195 Y16.1622 Z-0.1333 I-0.0125 J0.0
G2 Y16.1838 Z-0.1667 I0.0063 J0.0108
G2 X46.0383 Y16.173 Z-0.2 I0.0063 J-0.0108
G2 X46.0195 Y16.1622 Z-0.2333 I-0.0125 J0.0
G2 Y16.1838 Z-0.2667 I0.0063 J0.0108
G2 X46.0383 Y16.173 Z-0.3 I0.0063 J-0.0108
G2 X46.0195 Y16.1622 Z-0.3333 I-0.0125 J0.0
G2 Y16.1838 Z-0.3667 I0.0063 J0.0108
G2 X46.0383 Y16.173 Z-0.4 I0.0063 J-0.0108
G2 X46.0195 Y16.1622 Z-0.4333 I-0.0125 J0.0
G2 Y16.1838 Z-0.4667 I0.0063 J0.0108
G2 X46.0383 Y16.173 Z-0.5 I0.0063 J-0.0108
G2 X46.0195 Y16.1622 Z-0.5333 I-0.0125 J0.0
G2 Y16.1838 Z-0.5667 I0.0063 J0.0108
G2 X46.0383 Y16.173 Z-0.6 I0.0063 J-0.0108
G2 X46.0195 Y16.1622 Z-0.6333 I-0.0125 J0.0
G2 Y16.1838 Z-0.6667 I0.0063 J0.0108
G2 X46.0383 Y16.173 Z-0.7 I0.0063 J-0.0108
G2 X46.0195 Y16.1622 Z-0.7333 I-0.0125 J0.0
G2 Y16.1838 Z-0.7667 I0.0063 J0.0108
G2 X46.0383 Y16.173 Z-0.8 I0.0063 J-0.0108
G2 X46.0195 Y16.1622 Z-0.8333 I-0.0125 J0.0
G2 Y16.1838 Z-0.8667 I0.0063 J0.0108
G2 X46.0383 Y16.173 Z-0.9 I0.0063 J-0.0108
G2 X46.0195 Y16.1622 Z-0.9333 I-0.0125 J0.0
G2 Y16.1838 Z-0.9667 I0.0063 J0.0108
G2 X46.0383 Y16.173 Z-1.0 I0.0063 J-0.0108
G2 X46.0195 Y16.1622 Z-1.0333 I-0.0125 J0.0
G2 Y16.1838 Z-1.0667 I0.0063 J0.0108
G2 X46.0383 Y16.173 Z-1.1 I0.0063 J-0.0108
G2 X46.0195 Y16.1622 Z-1.1333 I-0.0125 J0.0
G2 Y16.1838 Z-1.1667 I0.0063 J0.0108
G2 X46.0383 Y16.173 Z-1.2 I0.0063 J-0.0108
G2 X46.0195 Y16.1622 Z-1.2333 I-0.0125 J0.0
G2 Y16.1838 Z-1.2667 I0.0063 J0.0108
G2 X46.0383 Y16.173 Z-1.3 I0.0063 J-0.0108
G2 X46.0195 Y16.1622 Z-1.3333 I-0.0125 J0.0
G2 Y16.1838 Z-1.3667 I0.0063 J0.0108
G2 X46.0383 Y16.173 Z-1.4 I0.0063 J-0.0108
G2 X46.0195 Y16.1622 Z-1.4333 I-0.0125 J0.0
G2 Y16.1838 Z-1.4667 I0.0063 J0.0108
G2 X46.0383 Y16.173 Z-1.5 I0.0063 J-0.0108
G2 X46.0195 Y16.1622 Z-1.5333 I-0.0125 J0.0
G2 Y16.1838 Z-1.5667 I0.0063 J0.0108
G2 X46.0383 Y16.173 Z-1.6 I0.0063 J-0.0108
G2 X46.0195 Y16.1622 Z-1.6333 I-0.0125 J0.0
G2 Y16.1838 Z-1.6667 I0.0063 J0.0108
G2 X46.0383 Y16.173 Z-1.7 I0.0063 J-0.0108
G2 X46.0195 Y16.1622 Z-1.7333 I-0.0125 J0.0
G2 Y16.1838 Z-1.7667 I0.0063 J0.0108
G2 X46.0383 Y16.173 Z-1.8 I0.0063 J-0.0108
G2 X46.0195 Y16.1622 Z-1.8333 I-0.0125 J0.0
G2 Y16.1838 Z-1.8667 I0.0063 J0.0108
G2 X46.0383 Y16.173 Z-1.9 I0.0063 J-0.0108
G2 X46.0195 Y16.1622 Z-1.9333 I-0.0125 J0.0
G2 Y16.1838 Z-1.9667 I0.0063 J0.0108
G2 X46.0383 Y16.173 Z-2.0 I0.0063 J-0.0108
G2 X46.0195 Y16.1622 Z-2.0333 I-0.0125 J0.0
G2 Y16.1838 Z-2.0667 I0.0063 J0.0108
G2 X46.0383 Y16.173 Z-2.1 I0.0063 J-0.0108
G2 X46.0195 Y16.1622 Z-2.1333 I-0.0125 J0.0
G2 Y16.1838 Z-2.1667 I0.0063 J0.0108
G2 X46.0383 Y16.173 Z-2.2 I0.0063 J-0.0108
G2 X46.0195 Y16.1622 Z-2.2333 I-0.0125 J0.0
G2 Y16.1838 Z-2.2667 I0.0063 J0.0108
G2 X46.0383 Y16.173 Z-2.3 I0.0063 J-0.0108
G2 X46.0195 Y16.1622 Z-2.3333 I-0.0125 J0.0
G2 Y16.1838 Z-2.3667 I0.0063 J0.0108
G2 X46.0383 Y16.173 Z-2.4 I0.0063 J-0.0108
G2 X46.0195 Y16.1622 Z-2.4333 I-0.0125 J0.0
G2 Y16.1838 Z-2.4667 I0.0063 J0.0108
G2 X46.0383 Y16.173 Z-2.5 I0.0063 J-0.0108
G2 X46.0195 Y16.1622 Z-2.5333 I-0.0125 J0.0
G2 Y16.1838 Z-2.5667 I0.0063 J0.0108
G2 X46.0383 Y16.173 Z-2.6 I0.0063 J-0.0108
G2 X46.0195 Y16.1622 Z-2.6333 I-0.0125 J0.0
G2 Y16.1838 Z-2.6667 I0.0063 J0.0108
G2 X46.0383 Y16.173 Z-2.7 I0.0063 J-0.0108
G2 X46.0195 Y16.1622 Z-2.7333 I-0.0125 J0.0
G2 Y16.1838 Z-2.7667 I0.0063 J0.0108
G2 X46.0383 Y16.173 Z-2.8 I0.0063 J-0.0108
G2 X46.0195 Y16.1622 Z-2.8333 I-0.0125 J0.0
G2 Y16.1838 Z-2.8667 I0.0063 J0.0108
G2 X46.0383 Y16.173 Z-2.9 I0.0063 J-0.0108
G2 X46.0195 Y16.1622 Z-2.9333 I-0.0125 J0.0
G2 Y16.1838 Z-2.9667 I0.0063 J0.0108
G2 X46.0383 Y16.173 Z-3.0 I0.0062 J-0.0108
G2 X46.0195 Y16.1622 Z-3.0333 I-0.0125 J0.0
G2 Y16.1838 Z-3.0667 I0.0063 J0.0108
G2 X46.0383 Y16.173 Z-3.1 I0.0062 J-0.0108
G2 X46.0195 Y16.1622 Z-3.1333 I-0.0125 J0.0
G2 Y16.1838 Z-3.1667 I0.0063 J0.0108
G2 X46.0383 Y16.173 Z-3.2 I0.0062 J-0.0108
G2 X46.0195 Y16.1622 I-0.0125 J0.0
G2 Y16.1838 I0.0063 J0.0108
G2 X46.0383 Y16.173 I0.0062 J-0.0108
G0 Z3.0
G0 X8.7705 Y3.6763
G0 Z0.5
G1 F1000.0 Z0.0
G2 F2000.0 X8.7517 Y3.6655 Z-0.0333 I-0.0125 J0.0
G2 Y3.6872 Z-0.0667 I0.0062 J0.0108
G2 X8.7705 Y3.6763 Z-0.1 I0.0062 J-0.0108
G2 X8.7517 Y3.6655 Z-0.1333 I-0.0125 J0.0
G2 Y3.6872 Z-0.1667 I0.0062 J0.0108
G2 X8.7705 Y3.6763 Z-0.2 I0.0062 J-0.0108
G2 X8.7517 Y3.6655 Z-0.2333 I-0.0125 J0.0
G2 Y3.6872 Z-0.2667 I0.0062 J0.0108
G2 X8.7705 Y3.6763 Z-0.3 I0.0062 J-0.0108
G2 X8.7517 Y3.6655 Z-0.3333 I-0.0125 J0.0
G2 Y3.6872 Z-0.3667 I0.0062 J0.0108
G2 X8.7705 Y3.6763 Z-0.4 I0.0062 J-0.0108
G2 X8.7517 Y3.6655 Z-0.4333 I-0.0125 J0.0
G2 Y3.6872 Z-0.4667 I0.0062 J0.0108
G2 X8.7705 Y3.6763 Z-0.5 I0.0062 J-0.0108
G2 X8.7517 Y3.6655 Z-0.5333 I-0.0125 J0.0
G2 Y3.6872 Z-0.5667 I0.0062 J0.0108
G2 X8.7705 Y3.6763 Z-0.6 I0.0062 J-0.0108
G2 X8.7517 Y3.6655 Z-0.6333 I-0.0125 J0.0
G2 Y3.6872 Z-0.6667 I0.0062 J0.0108
G2 X8.7705 Y3.6763 Z-0.7 I0.0062 J-0.0108
G2 X8.7517 Y3.6655 Z-0.7333 I-0.0125 J0.0
G2 Y3.6872 Z-0.7667 I0.0062 J0.0108
G2 X8.7705 Y3.6763 Z-0.8 I0.0062 J-0.0108
G2 X8.7517 Y3.6655 Z-0.8333 I-0.0125 J0.0
G2 Y3.6872 Z-0.8667 I0.0062 J0.0108
G2 X8.7705 Y3.6763 Z-0.9 I0.0062 J-0.0108
G2 X8.7517 Y3.6655 Z-0.9333 I-0.0125 J0.0
G2 Y3.6872 Z-0.9667 I0.0062 J0.0108
G2 X8.7705 Y3.6763 Z-1.0 I0.0062 J-0.0108
G2 X8.7517 Y3.6655 Z-1.0333 I-0.0125 J0.0
G2 Y3.6872 Z-1.0667 I0.0062 J0.0108
G2 X8.7705 Y3.6763 Z-1.1 I0.0062 J-0.0108
G2 X8.7517 Y3.6655 Z-1.1333 I-0.0125 J0.0
G2 Y3.6872 Z-1.1667 I0.0062 J0.0108
G2 X8.7705 Y3.6763 Z-1.2 I0.0062 J-0.0108
G2 X8.7517 Y3.6655 Z-1.2333 I-0.0125 J0.0
G2 Y3.6872 Z-1.2667 I0.0062 J0.0108
G2 X8.7705 Y3.6763 Z-1.3 I0.0062 J-0.0108
G2 X8.7517 Y3.6655 Z-1.3333 I-0.0125 J0.0
G2 Y3.6872 Z-1.3667 I0.0062 J0.0108
G2 X8.7705 Y3.6763 Z-1.4 I0.0063 J-0.0108
G2 X8.7517 Y3.6655 Z-1.4333 I-0.0125 J0.0
G2 Y3.6872 Z-1.4667 I0.0062 J0.0108
G2 X8.7705 Y3.6763 Z-1.5 I0.0063 J-0.0108
G2 X8.7517 Y3.6655 Z-1.5333 I-0.0125 J0.0
G2 Y3.6872 Z-1.5667 I0.0062 J0.0108
G2 X8.7705 Y3.6763 Z-1.6 I0.0063 J-0.0108
G2 X8.7517 Y3.6655 Z-1.6333 I-0.0125 J0.0
G2 Y3.6872 Z-1.6667 I0.0062 J0.0108
G2 X8.7705 Y3.6763 Z-1.7 I0.0063 J-0.0108
G2 X8.7517 Y3.6655 Z-1.7333 I-0.0125 J0.0
G2 Y3.6872 Z-1.7667 I0.0062 J0.0108
G2 X8.7705 Y3.6763 Z-1.8 I0.0063 J-0.0108
G2 X8.7517 Y3.6655 Z-1.8333 I-0.0125 J0.0
G2 Y3.6872 Z-1.8667 I0.0062 J0.0108
G2 X8.7705 Y3.6763 Z-1.9 I0.0063 J-0.0108
G2 X8.7517 Y3.6655 Z-1.9333 I-0.0125 J0.0
G2 Y3.6872 Z-1.9667 I0.0062 J0.0108
G2 X8.7705 Y3.6763 Z-2.0 I0.0063 J-0.0108
G2 X8.7517 Y3.6655 Z-2.0333 I-0.0125 J0.0
G2 Y3.6872 Z-2.0667 I0.0062 J0.0108
G2 X8.7705 Y3.6763 Z-2.1 I0.0063 J-0.0108
G2 X8.7517 Y3.6655 Z-2.1333 I-0.0125 J0.0
G2 Y3.6872 Z-2.1667 I0.0062 J0.0108
G2 X8.7705 Y3.6763 Z-2.2 I0.0062 J-0.0108
G2 X8.7517 Y3.6655 Z-2.2333 I-0.0125 J0.0
G2 Y3.6872 Z-2.2667 I0.0062 J0.0108
G2 X8.7705 Y3.6763 Z-2.3 I0.0062 J-0.0108
G2 X8.7517 Y3.6655 Z-2.3333 I-0.0125 J0.0
G2 Y3.6872 Z-2.3667 I0.0062 J0.0108
G2 X8.7705 Y3.6763 Z-2.4 I0.0062 J-0.0108
G2 X8.7517 Y3.6655 Z-2.4333 I-0.0125 J0.0
G2 Y3.6872 Z-2.4667 I0.0062 J0.0108
G2 X8.7705 Y3.6763 Z-2.5 I0.0062 J-0.0108
G2 X8.7517 Y3.6655 Z-2.5333 I-0.0125 J0.0
G2 Y3.6872 Z-2.5667 I0.0063 J0.0108
G2 X8.7705 Y3.6763 Z-2.6 I0.0062 J-0.0108
G2 X8.7517 Y3.6655 Z-2.6333 I-0.0125 J0.0
G2 Y3.6872 Z-2.6667 I0.0063 J0.0108
G2 X8.7705 Y3.6763 Z-2.7 I0.0062 J-0.0108
G2 X8.7517 Y3.6655 Z-2.7333 I-0.0125 J0.0
G2 Y3.6872 Z-2.7667 I0.0063 J0.0108
G2 X8.7705 Y3.6763 Z-2.8 I0.0062 J-0.0108
G2 X8.7517 Y3.6655 Z-2.8333 I-0.0125 J0.0
G2 Y3.6872 Z-2.8667 I0.0063 J0.0108
G2 X8.7705 Y3.6763 Z-2.9 I0.0062 J-0.0108
G2 X8.7517 Y3.6655 Z-2.9333 I-0.0125 J0.0
G2 Y3.6872 Z-2.9667 I0.0063 J0.0108
G2 X8.7705 Y3.6763 Z-3.0 I0.0062 J-0.0108
G2 X8.7517 Y3.6655 Z-3.0333 I-0.0125 J0.0
G2 Y3.6872 Z-3.0667 I0.0063 J0.0108
G2 X8.7705 Y3.6763 Z-3.1 I0.0062 J-0.0108
G2 X8.7517 Y3.6655 Z-3.1333 I-0.0125 J0.0
G2 Y3.6872 Z-3.1667 I0.0063 J0.0108
G2 X8.7705 Y3.6763 Z-3.2 I0.0062 J-0.0108
G2 X8.7517 Y3.6655 I-0.0125 J0.0
G2 Y3.6872 I0.0063 J0.0108
G2 X8.7705 Y3.6763 I0.0062 J-0.0108
G0 Z3.0
G0 X9.8665 Y67.0292
G0 Z0.5
G1 F1000.0 Z0.0
G2 F2000.0 X9.8478 Y67.0183 Z-0.0333 I-0.0125 J0.0
G2 Y67.04 Z-0.0667 I0.0062 J0.0108
G2 X9.8665 Y67.0292 Z-0.1 I0.0063 J-0.0108
G2 X9.8478 Y67.0183 Z-0.1333 I-0.0125 J0.0
G2 Y67.04 Z-0.1667 I0.0062 J0.0108
G2 X9.8665 Y67.0292 Z-0.2 I0.0063 J-0.0108
G2 X9.8478 Y67.0183 Z-0.2333 I-0.0125 J0.0
G2 Y67.04 Z-0.2667 I0.0062 J0.0108
G2 X9.8665 Y67.0292 Z-0.3 I0.0063 J-0.0108
G2 X9.8478 Y67.0183 Z-0.3333 I-0.0125 J0.0
G2 Y67.04 Z-0.3667 I0.0062 J0.0108
G2 X9.8665 Y67.0292 Z-0.4 I0.0063 J-0.0108
G2 X9.8478 Y67.0183 Z-0.4333 I-0.0125 J0.0
G2 Y67.04 Z-0.4667 I0.0062 J0.0108
G2 X9.8665 Y67.0292 Z-0.5 I0.0063 J-0.0108
G2 X9.8478 Y67.0183 Z-0.5333 I-0.0125 J0.0
G2 Y67.04 Z-0.5667 I0.0062 J0.0108
G2 X9.8665 Y67.0292 Z-0.6 I0.0063 J-0.0108
G2 X9.8478 Y67.0183 Z-0.6333 I-0.0125 J0.0
G2 Y67.04 Z-0.6667 I0.0062 J0.0108
G2 X9.8665 Y67.0292 Z-0.7 I0.0063 J-0.0108
G2 X9.8478 Y67.0183 Z-0.7333 I-0.0125 J0.0
G2 Y67.04 Z-0.7667 I0.0062 J0.0108
G2 X9.8665 Y67.0292 Z-0.8 I0.0063 J-0.0108
G2 X9.8478 Y67.0183 Z-0.8333 I-0.0125 J0.0
G2 Y67.04 Z-0.8667 I0.0062 J0.0108
G2 X9.8665 Y67.0292 Z-0.9 I0.0063 J-0.0108
G2 X9.8478 Y67.0183 Z-0.9333 I-0.0125 J0.0
G2 Y67.04 Z-0.9667 I0.0062 J0.0108
G2 X9.8665 Y67.0292 Z-1.0 I0.0063 J-0.0108
G2 X9.8478 Y67.0183 Z-1.0333 I-0.0125 J0.0
G2 Y67.04 Z-1.0667 I0.0062 J0.0108
G2 X9.8665 Y67.0292 Z-1.1 I0.0063 J-0.0108
G2 X9.8478 Y67.0183 Z-1.1333 I-0.0125 J0.0
G2 Y67.04 Z-1.1667 I0.0062 J0.0108
G2 X9.8665 Y67.0292 Z-1.2 I0.0063 J-0.0108
G2 X9.8478 Y67.0183 Z-1.2333 I-0.0125 J0.0
G2 Y67.04 Z-1.2667 I0.0062 J0.0108
G2 X9.8665 Y67.0292 Z-1.3 I0.0063 J-0.0108
G2 X9.8478 Y67.0183 Z-1.3333 I-0.0125 J0.0
G2 Y67.04 Z-1.3667 I0.0062 J0.0108
G2 X9.8665 Y67.0292 Z-1.4 I0.0063 J-0.0108
G2 X9.8478 Y67.0183 Z-1.4333 I-0.0125 J0.0
G2 Y67.04 Z-1.4667 I0.0062 J0.0108
G2 X9.8665 Y67.0292 Z-1.5 I0.0063 J-0.0108
G2 X9.8478 Y67.0183 Z-1.5333 I-0.0125 J0.0
G2 Y67.04 Z-1.5667 I0.0062 J0.0108
G2 X9.8665 Y67.0292 Z-1.6 I0.0063 J-0.0108
G2 X9.8478 Y67.0183 Z-1.6333 I-0.0125 J0.0
G2 Y67.04 Z-1.6667 I0.0062 J0.0108
G2 X9.8665 Y67.0292 Z-1.7 I0.0063 J-0.0108
G2 X9.8478 Y67.0183 Z-1.7333 I-0.0125 J0.0
G2 Y67.04 Z-1.7667 I0.0062 J0.0108
G2 X9.8665 Y67.0292 Z-1.8 I0.0063 J-0.0108
G2 X9.8478 Y67.0183 Z-1.8333 I-0.0125 J0.0
G2 Y67.04 Z-1.8667 I0.0062 J0.0108
G2 X9.8665 Y67.0292 Z-1.9 I0.0063 J-0.0108
G2 X9.8478 Y67.0183 Z-1.9333 I-0.0125 J0.0
G2 Y67.04 Z-1.9667 I0.0062 J0.0108
G2 X9.8665 Y67.0292 Z-2.0 I0.0063 J-0.0108
G2 X9.8478 Y67.0183 Z-2.0333 I-0.0125 J0.0
G2 Y67.04 Z-2.0667 I0.0062 J0.0108
G2 X9.8665 Y67.0292 Z-2.1 I0.0063 J-0.0108
G2 X9.8478 Y67.0183 Z-2.1333 I-0.0125 J0.0
G2 Y67.04 Z-2.1667 I0.0062 J0.0108
G2 X9.8665 Y67.0292 Z-2.2 I0.0063 J-0.0108
G2 X9.8478 Y67.0183 Z-2.2333 I-0.0125 J0.0
G2 Y67.04 Z-2.2667 I0.0062 J0.0108
G2 X9.8665 Y67.0292 Z-2.3 I0.0063 J-0.0108
G2 X9.8478 Y67.0183 Z-2.3333 I-0.0125 J0.0
G2 Y67.04 Z-2.3667 I0.0062 J0.0108
G2 X9.8665 Y67.0292 Z-2.4 I0.0063 J-0.0108
G2 X9.8478 Y67.0183 Z-2.4333 I-0.0125 J0.0
G2 Y67.04 Z-2.4667 I0.0062 J0.0108
G2 X9.8665 Y67.0292 Z-2.5 I0.0063 J-0.0108
G2 X9.8478 Y67.0183 Z-2.5333 I-0.0125 J0.0
G2 Y67.04 Z-2.5667 I0.0062 J0.0108
G2 X9.8665 Y67.0292 Z-2.6 I0.0063 J-0.0108
G2 X9.8478 Y67.0183 Z-2.6333 I-0.0125 J0.0
G2 Y67.04 Z-2.6667 I0.0062 J0.0108
G2 X9.8665 Y67.0292 Z-2.7 I0.0063 J-0.0108
G2 X9.8478 Y67.0183 Z-2.7333 I-0.0125 J0.0
G2 Y67.04 Z-2.7667 I0.0062 J0.0108
G2 X9.8665 Y67.0292 Z-2.8 I0.0062 J-0.0108
G2 X9.8478 Y67.0183 Z-2.8333 I-0.0125 J0.0
G2 Y67.04 Z-2.8667 I0.0062 J0.0108
G2 X9.8665 Y67.0292 Z-2.9 I0.0062 J-0.0108
G2 X9.8478 Y67.0183 Z-2.9333 I-0.0125 J0.0
G2 Y67.04 Z-2.9667 I0.0062 J0.0108
G2 X9.8665 Y67.0292 Z-3.0 I0.0062 J-0.0108
G2 X9.8478 Y67.0183 Z-3.0333 I-0.0125 J0.0
G2 Y67.04 Z-3.0667 I0.0062 J0.0108
G2 X9.8665 Y67.0292 Z-3.1 I0.0062 J-0.0108
G2 X9.8478 Y67.0183 Z-3.1333 I-0.0125 J0.0
G2 Y67.04 Z-3.1667 I0.0063 J0.0108
G2 X9.8665 Y67.0292 Z-3.2 I0.0062 J-0.0108
G2 X9.8478 Y67.0183 I-0.0125 J0.0
G2 Y67.04 I0.0063 J0.0108
G2 X9.8665 Y67.0292 I0.0062 J-0.0108
G0 Z3.0
G0 Y79.4298
G0 Z0.5
G1 F1000.0 Z0.0
G2 F2000.0 X9.8478 Y79.419 Z-0.0333 I-0.0125 J0.0
G2 Y79.4406 Z-0.0667 I0.0062 J0.0108
G2 X9.8665 Y79.4298 Z-0.1 I0.0063 J-0.0108
G2 X9.8478 Y79.419 Z-0.1333 I-0.0125 J0.0
G2 Y79.4406 Z-0.1667 I0.0062 J0.0108
G2 X9.8665 Y79.4298 Z-0.2 I0.0063 J-0.0108
G2 X9.8478 Y79.419 Z-0.2333 I-0.0125 J0.0
G2 Y79.4406 Z-0.2667 I0.0062 J0.0108
G2 X9.8665 Y79.4298 Z-0.3 I0.0063 J-0.0108
G2 X9.8478 Y79.419 Z-0.3333 I-0.0125 J0.0
G2 Y79.4406 Z-0.3667 I0.0062 J0.0108
G2 X9.8665 Y79.4298 Z-0.4 I0.0063 J-0.0108
G2 X9.8478 Y79.419 Z-0.4333 I-0.0125 J0.0
G2 Y79.4406 Z-0.4667 I0.0062 J0.0108
G2 X9.8665 Y79.4298 Z-0.5 I0.0063 J-0.0108
G2 X9.8478 Y79.419 Z-0.5333 I-0.0125 J0.0
G2 Y79.4406 Z-0.5667 I0.0062 J0.0108
G2 X9.8665 Y79.4298 Z-0.6 I0.0063 J-0.0108
G2 X9.8478 Y79.419 Z-0.6333 I-0.0125 J0.0
G2 Y79.4406 Z-0.6667 I0.0062 J0.0108
G2 X9.8665 Y79.4298 Z-0.7 I0.0063 J-0.0108
G2 X9.8478 Y79.419 Z-0.7333 I-0.0125 J0.0
G2 Y79.4406 Z-0.7667 I0.0062 J0.0108
G2 X9.8665 Y79.4298 Z-0.8 I0.0063 J-0.0108
G2 X9.8478 Y79.419 Z-0.8333 I-0.0125 J0.0
G2 Y79.4406 Z-0.8667 I0.0062 J0.0108
G2 X9.8665 Y79.4298 Z-0.9 I0.0063 J-0.0108
G2 X9.8478 Y79.419 Z-0.9333 I-0.0125 J0.0
G2 Y79.4406 Z-0.9667 I0.0062 J0.0108
G2 X9.8665 Y79.4298 Z-1.0 I0.0063 J-0.0108
G2 X9.8478 Y79.419 Z-1.0333 I-0.0125 J0.0
G2 Y79.4406 Z-1.0667 I0.0062 J0.0108
G2 X9.8665 Y79.4298 Z-1.1 I0.0063 J-0.0108
G2 X9.8478 Y79.419 Z-1.1333 I-0.0125 J0.0
G2 Y79.4406 Z-1.1667 I0.0062 J0.0108
G2 X9.8665 Y79.4298 Z-1.2 I0.0063 J-0.0108
G2 X9.8478 Y79.419 Z-1.2333 I-0.0125 J0.0
G2 Y79.4406 Z-1.2667 I0.0062 J0.0108
G2 X9.8665 Y79.4298 Z-1.3 I0.0063 J-0.0108
G2 X9.8478 Y79.419 Z-1.3333 I-0.0125 J0.0
G2 Y79.4406 Z-1.3667 I0.0062 J0.0108
G2 X9.8665 Y79.4298 Z-1.4 I0.0063 J-0.0108
G2 X9.8478 Y79.419 Z-1.4333 I-0.0125 J0.0
G2 Y79.4406 Z-1.4667 I0.0062 J0.0108
G2 X9.8665 Y79.4298 Z-1.5 I0.0063 J-0.0108
G2 X9.8478 Y79.419 Z-1.5333 I-0.0125 J0.0
G2 Y79.4406 Z-1.5667 I0.0062 J0.0108
G2 X9.8665 Y79.4298 Z-1.6 I0.0063 J-0.0108
G2 X9.8478 Y79.419 Z-1.6333 I-0.0125 J0.0
G2 Y79.4406 Z-1.6667 I0.0062 J0.0108
G2 X9.8665 Y79.4298 Z-1.7 I0.0063 J-0.0108
G2 X9.8478 Y79.419 Z-1.7333 I-0.0125 J0.0
G2 Y79.4406 Z-1.7667 I0.0062 J0.0108
G2 X9.8665 Y79.4298 Z-1.8 I0.0063 J-0.0108
G2 X9.8478 Y79.419 Z-1.8333 I-0.0125 J0.0
G2 Y79.4406 Z-1.8667 I0.0062 J0.0108
G2 X9.8665 Y79.4298 Z-1.9 I0.0063 J-0.0108
G2 X9.8478 Y79.419 Z-1.9333 I-0.0125 J0.0
G2 Y79.4406 Z-1.9667 I0.0062 J0.0108
G2 X9.8665 Y79.4298 Z-2.0 I0.0063 J-0.0108
G2 X9.8478 Y79.419 Z-2.0333 I-0.0125 J0.0
G2 Y79.4406 Z-2.0667 I0.0062 J0.0108
G2 X9.8665 Y79.4298 Z-2.1 I0.0063 J-0.0108
G2 X9.8478 Y79.419 Z-2.1333 I-0.0125 J0.0
G2 Y79.4406 Z-2.1667 I0.0062 J0.0108
G2 X9.8665 Y79.4298 Z-2.2 I0.0063 J-0.0108
G2 X9.8478 Y79.419 Z-2.2333 I-0.0125 J0.0
G2 Y79.4406 Z-2.2667 I0.0062 J0.0108
G2 X9.8665 Y79.4298 Z-2.3 I0.0063 J-0.0108
G2 X9.8478 Y79.419 Z-2.3333 I-0.0125 J0.0
G2 Y79.4406 Z-2.3667 I0.0062 J0.0108
G2 X9.8665 Y79.4298 Z-2.4 I0.0063 J-0.0108
G2 X9.8478 Y79.419 Z-2.4333 I-0.0125 J0.0
G2 Y79.4406 Z-2.4667 I0.0062 J0.0108
G2 X9.8665 Y79.4298 Z-2.5 I0.0063 J-0.0108
G2 X9.8478 Y79.419 Z-2.5333 I-0.0125 J0.0
G2 Y79.4406 Z-2.5667 I0.0062 J0.0108
G2 X9.8665 Y79.4298 Z-2.6 I0.0063 J-0.0108
G2 X9.8478 Y79.419 Z-2.6333 I-0.0125 J0.0
G2 Y79.4406 Z-2.6667 I0.0062 J0.0108
G2 X9.8665 Y79.4298 Z-2.7 I0.0063 J-0.0108
G2 X9.8478 Y79.419 Z-2.7333 I-0.0125 J0.0
G2 Y79.4406 Z-2.7667 I0.0062 J0.0108
G2 X9.8665 Y79.4298 Z-2.8 I0.0062 J-0.0108
G2 X9.8478 Y79.419 Z-2.8333 I-0.0125 J0.0
G2 Y79.4406 Z-2.8667 I0.0062 J0.0108
G2 X9.8665 Y79.4298 Z-2.9 I0.0062 J-0.0108
G2 X9.8478 Y79.419 Z-2.9333 I-0.0125 J0.0
G2 Y79.4406 Z-2.9667 I0.0062 J0.0108
G2 X9.8665 Y79.4298 Z-3.0 I0.0062 J-0.0108
G2 X9.8478 Y79.419 Z-3.0333 I-0.0125 J0.0
G2 Y79.4406 Z-3.0667 I0.0062 J0.0108
G2 X9.8665 Y79.4298 Z-3.1 I0.0062 J-0.0108
G2 X9.8478 Y79.419 Z-3.1333 I-0.0125 J0.0
G2 Y79.4406 Z-3.1667 I0.0063 J0.0108
G2 X9.8665 Y79.4298 Z-3.2 I0.0062 J-0.0108
G2 X9.8478 Y79.419 I-0.0125 J0.0
G2 Y79.4406 I0.0063 J0.0108
G2 X9.8665 Y79.4298 I0.0062 J-0.0108
G0 Z3.0
G0 X25.0961
G0 Z0.5
G1 F1000.0 Z0.0
G2 F2000.0 X25.0773 Y79.419 Z-0.0333 I-0.0125 J0.0
G2 Y79.4406 Z-0.0667 I0.0062 J0.0108
G2 X25.0961 Y79.4298 Z-0.1 I0.0063 J-0.0108
G2 X25.0773 Y79.419 Z-0.1333 I-0.0125 J0.0
G2 Y79.4406 Z-0.1667 I0.0062 J0.0108
G2 X25.0961 Y79.4298 Z-0.2 I0.0063 J-0.0108
G2 X25.0773 Y79.419 Z-0.2333 I-0.0125 J0.0
G2 Y79.4406 Z-0.2667 I0.0062 J0.0108
G2 X25.0961 Y79.4298 Z-0.3 I0.0063 J-0.0108
G2 X25.0773 Y79.419 Z-0.3333 I-0.0125 J0.0
G2 Y79.4406 Z-0.3667 I0.0062 J0.0108
G2 X25.0961 Y79.4298 Z-0.4 I0.0063 J-0.0108
G2 X25.0773 Y79.419 Z-0.4333 I-0.0125 J0.0
G2 Y79.4406 Z-0.4667 I0.0062 J0.0108
G2 X25.0961 Y79.4298 Z-0.5 I0.0063 J-0.0108
G2 X25.0773 Y79.419 Z-0.5333 I-0.0125 J0.0
G2 Y79.4406 Z-0.5667 I0.0062 J0.0108
G2 X25.0961 Y79.4298 Z-0.6 I0.0063 J-0.0108
G2 X25.0773 Y79.419 Z-0.6333 I-0.0125 J0.0
G2 Y79.4406 Z-0.6667 I0.0062 J0.0108
G2 X25.0961 Y79.4298 Z-0.7 I0.0063 J-0.0108
G2 X25.0773 Y79.419 Z-0.7333 I-0.0125 J0.0
G2 Y79.4406 Z-0.7667 I0.0062 J0.0108
G2 X25.0961 Y79.4298 Z-0.8 I0.0063 J-0.0108
G2 X25.0773 Y79.419 Z-0.8333 I-0.0125 J0.0
G2 Y79.4406 Z-0.8667 I0.0062 J0.0108
G2 X25.0961 Y79.4298 Z-0.9 I0.0063 J-0.0108
G2 X25.0773 Y79.419 Z-0.9333 I-0.0125 J0.0
G2 Y79.4406 Z-0.9667 I0.0062 J0.0108
G2 X25.0961 Y79.4298 Z-1.0 I0.0063 J-0.0108
G2 X25.0773 Y79.419 Z-1.0333 I-0.0125 J0.0
G2 Y79.4406 Z-1.0667 I0.0062 J0.0108
G2 X25.0961 Y79.4298 Z-1.1 I0.0063 J-0.0108
G2 X25.0773 Y79.419 Z-1.1333 I-0.0125 J0.0
G2 Y79.4406 Z-1.1667 I0.0062 J0.0108
G2 X25.0961 Y79.4298 Z-1.2 I0.0063 J-0.0108
G2 X25.0773 Y79.419 Z-1.2333 I-0.0125 J0.0
G2 Y79.4406 Z-1.2667 I0.0062 J0.0108
G2 X25.0961 Y79.4298 Z-1.3 I0.0063 J-0.0108
G2 X25.0773 Y79.419 Z-1.3333 I-0.0125 J0.0
G2 Y79.4406 Z-1.3667 I0.0062 J0.0108
G2 X25.0961 Y79.4298 Z-1.4 I0.0063 J-0.0108
G2 X25.0773 Y79.419 Z-1.4333 I-0.0125 J0.0
G2 Y79.4406 Z-1.4667 I0.0062 J0.0108
G2 X25.0961 Y79.4298 Z-1.5 I0.0063 J-0.0108
G2 X25.0773 Y79.419 Z-1.5333 I-0.0125 J0.0
G2 Y79.4406 Z-1.5667 I0.0062 J0.0108
G2 X25.0961 Y79.4298 Z-1.6 I0.0063 J-0.0108
G2 X25.0773 Y79.419 Z-1.6333 I-0.0125 J0.0
G2 Y79.4406 Z-1.6667 I0.0062 J0.0108
G2 X25.0961 Y79.4298 Z-1.7 I0.0063 J-0.0108
G2 X25.0773 Y79.419 Z-1.7333 I-0.0125 J0.0
G2 Y79.4406 Z-1.7667 I0.0062 J0.0108
G2 X25.0961 Y79.4298 Z-1.8 I0.0063 J-0.0108
G2 X25.0773 Y79.419 Z-1.8333 I-0.0125 J0.0
G2 Y79.4406 Z-1.8667 I0.0062 J0.0108
G2 X25.0961 Y79.4298 Z-1.9 I0.0063 J-0.0108
G2 X25.0773 Y79.419 Z-1.9333 I-0.0125 J0.0
G2 Y79.4406 Z-1.9667 I0.0062 J0.0108
G2 X25.0961 Y79.4298 Z-2.0 I0.0063 J-0.0108
G2 X25.0773 Y79.419 Z-2.0333 I-0.0125 J0.0
G2 Y79.4406 Z-2.0667 I0.0062 J0.0108
G2 X25.0961 Y79.4298 Z-2.1 I0.0063 J-0.0108
G2 X25.0773 Y79.419 Z-2.1333 I-0.0125 J0.0
G2 Y79.4406 Z-2.1667 I0.0062 J0.0108
G2 X25.0961 Y79.4298 Z-2.2 I0.0063 J-0.0108
G2 X25.0773 Y79.419 Z-2.2333 I-0.0125 J0.0
G2 Y79.4406 Z-2.2667 I0.0062 J0.0108
G2 X25.0961 Y79.4298 Z-2.3 I0.0063 J-0.0108
G2 X25.0773 Y79.419 Z-2.3333 I-0.0125 J0.0
G2 Y79.4406 Z-2.3667 I0.0062 J0.0108
G2 X25.0961 Y79.4298 Z-2.4 I0.0063 J-0.0108
G2 X25.0773 Y79.419 Z-2.4333 I-0.0125 J0.0
G2 Y79.4406 Z-2.4667 I0.0062 J0.0108
G2 X25.0961 Y79.4298 Z-2.5 I0.0063 J-0.0108
G2 X25.0773 Y79.419 Z-2.5333 I-0.0125 J0.0
G2 Y79.4406 Z-2.5667 I0.0062 J0.0108
G2 X25.0961 Y79.4298 Z-2.6 I0.0063 J-0.0108
G2 X25.0773 Y79.419 Z-2.6333 I-0.0125 J0.0
G2 Y79.4406 Z-2.6667 I0.0062 J0.0108
G2 X25.0961 Y79.4298 Z-2.7 I0.0063 J-0.0108
G2 X25.0773 Y79.419 Z-2.7333 I-0.0125 J0.0
G2 Y79.4406 Z-2.7667 I0.0062 J0.0108
G2 X25.0961 Y79.4298 Z-2.8 I0.0063 J-0.0108
G2 X25.0773 Y79.419 Z-2.8333 I-0.0125 J0.0
G2 Y79.4406 Z-2.8667 I0.0062 J0.0108
G2 X25.0961 Y79.4298 Z-2.9 I0.0063 J-0.0108
G2 X25.0773 Y79.419 Z-2.9333 I-0.0125 J0.0
G2 Y79.4406 Z-2.9667 I0.0062 J0.0108
G2 X25.0961 Y79.4298 Z-3.0 I0.0063 J-0.0108
G2 X25.0773 Y79.419 Z-3.0333 I-0.0125 J0.0
G2 Y79.4406 Z-3.0667 I0.0062 J0.0108
G2 X25.0961 Y79.4298 Z-3.1 I0.0063 J-0.0108
G2 X25.0773 Y79.419 Z-3.1333 I-0.0125 J0.0
G2 Y79.4406 Z-3.1667 I0.0062 J0.0108
G2 X25.0961 Y79.4298 Z-3.2 I0.0063 J-0.0108
G2 X25.0773 Y79.419 I-0.0125 J0.0
G2 Y79.4406 I0.0063 J0.0108
G2 X25.0961 Y79.4298 I0.0062 J-0.0108
G0 Z3.0
G0 X25.1348 Y66.9904
G0 Z0.5
G1 F1000.0 Z0.0
G2 F2000.0 X25.1161 Y66.9796 Z-0.0333 I-0.0125 J0.0
G2 Y67.0012 Z-0.0667 I0.0062 J0.0108
G2 X25.1348 Y66.9904 Z-0.1 I0.0063 J-0.0108
G2 X25.1161 Y66.9796 Z-0.1333 I-0.0125 J0.0
G2 Y67.0012 Z-0.1667 I0.0062 J0.0108
G2 X25.1348 Y66.9904 Z-0.2 I0.0063 J-0.0108
G2 X25.1161 Y66.9796 Z-0.2333 I-0.0125 J0.0
G2 Y67.0012 Z-0.2667 I0.0062 J0.0108
G2 X25.1348 Y66.9904 Z-0.3 I0.0063 J-0.0108
G2 X25.1161 Y66.9796 Z-0.3333 I-0.0125 J0.0
G2 Y67.0012 Z-0.3667 I0.0062 J0.0108
G2 X25.1348 Y66.9904 Z-0.4 I0.0063 J-0.0108
G2 X25.1161 Y66.9796 Z-0.4333 I-0.0125 J0.0
G2 Y67.0012 Z-0.4667 I0.0062 J0.0108
G2 X25.1348 Y66.9904 Z-0.5 I0.0063 J-0.0108
G2 X25.1161 Y66.9796 Z-0.5333 I-0.0125 J0.0
G2 Y67.0012 Z-0.5667 I0.0062 J0.0108
G2 X25.1348 Y66.9904 Z-0.6 I0.0063 J-0.0108
G2 X25.1161 Y66.9796 Z-0.6333 I-0.0125 J0.0
G2 Y67.0012 Z-0.6667 I0.0062 J0.0108
G2 X25.1348 Y66.9904 Z-0.7 I0.0063 J-0.0108
G2 X25.1161 Y66.9796 Z-0.7333 I-0.0125 J0.0
G2 Y67.0012 Z-0.7667 I0.0062 J0.0108
G2 X25.1348 Y66.9904 Z-0.8 I0.0063 J-0.0108
G2 X25.1161 Y66.9796 Z-0.8333 I-0.0125 J0.0
G2 Y67.0012 Z-0.8667 I0.0062 J0.0108
G2 X25.1348 Y66.9904 Z-0.9 I0.0063 J-0.0108
G2 X25.1161 Y66.9796 Z-0.9333 I-0.0125 J0.0
G2 Y67.0012 Z-0.9667 I0.0062 J0.0108
G2 X25.1348 Y66.9904 Z-1.0 I0.0063 J-0.0108
G2 X25.1161 Y66.9796 Z-1.0333 I-0.0125 J0.0
G2 Y67.0012 Z-1.0667 I0.0062 J0.0108
G2 X25.1348 Y66.9904 Z-1.1 I0.0063 J-0.0108
G2 X25.1161 Y66.9796 Z-1.1333 I-0.0125 J0.0
G2 Y67.0012 Z-1.1667 I0.0062 J0.0108
G2 X25.1348 Y66.9904 Z-1.2 I0.0063 J-0.0108
G2 X25.1161 Y66.9796 Z-1.2333 I-0.0125 J0.0
G2 Y67.0012 Z-1.2667 I0.0062 J0.0108
G2 X25.1348 Y66.9904 Z-1.3 I0.0063 J-0.0108
G2 X25.1161 Y66.9796 Z-1.3333 I-0.0125 J0.0
G2 Y67.0012 Z-1.3667 I0.0062 J0.0108
G2 X25.1348 Y66.9904 Z-1.4 I0.0063 J-0.0108
G2 X25.1161 Y66.9796 Z-1.4333 I-0.0125 J0.0
G2 Y67.0012 Z-1.4667 I0.0062 J0.0108
G2 X25.1348 Y66.9904 Z-1.5 I0.0063 J-0.0108
G2 X25.1161 Y66.9796 Z-1.5333 I-0.0125 J0.0
G2 Y67.0012 Z-1.5667 I0.0062 J0.0108
G2 X25.1348 Y66.9904 Z-1.6 I0.0063 J-0.0108
G2 X25.1161 Y66.9796 Z-1.6333 I-0.0125 J0.0
G2 Y67.0012 Z-1.6667 I0.0062 J0.0108
G2 X25.1348 Y66.9904 Z-1.7 I0.0063 J-0.0108
G2 X25.1161 Y66.9796 Z-1.7333 I-0.0125 J0.0
G2 Y67.0012 Z-1.7667 I0.0062 J0.0108
G2 X25.1348 Y66.9904 Z-1.8 I0.0063 J-0.0108
G2 X25.1161 Y66.9796 Z-1.8333 I-0.0125 J0.0
G2 Y67.0012 Z-1.8667 I0.0062 J0.0108
G2 X25.1348 Y66.9904 Z-1.9 I0.0063 J-0.0108
G2 X25.1161 Y66.9796 Z-1.9333 I-0.0125 J0.0
G2 Y67.0012 Z-1.9667 I0.0062 J0.0108
G2 X25.1348 Y66.9904 Z-2.0 I0.0063 J-0.0108
G2 X25.1161 Y66.9796 Z-2.0333 I-0.0125 J0.0
G2 Y67.0012 Z-2.0667 I0.0062 J0.0108
G2 X25.1348 Y66.9904 Z-2.1 I0.0063 J-0.0108
G2 X25.1161 Y66.9796 Z-2.1333 I-0.0125 J0.0
G2 Y67.0012 Z-2.1667 I0.0062 J0.0108
G2 X25.1348 Y66.9904 Z-2.2 I0.0063 J-0.0108
G2 X25.1161 Y66.9796 Z-2.2333 I-0.0125 J0.0
G2 Y67.0012 Z-2.2667 I0.0062 J0.0108
G2 X25.1348 Y66.9904 Z-2.3 I0.0063 J-0.0108
G2 X25.1161 Y66.9796 Z-2.3333 I-0.0125 J0.0
G2 Y67.0012 Z-2.3667 I0.0062 J0.0108
G2 X25.1348 Y66.9904 Z-2.4 I0.0063 J-0.0108
G2 X25.1161 Y66.9796 Z-2.4333 I-0.0125 J0.0
G2 Y67.0012 Z-2.4667 I0.0062 J0.0108
G2 X25.1348 Y66.9904 Z-2.5 I0.0063 J-0.0108
G2 X25.1161 Y66.9796 Z-2.5333 I-0.0125 J0.0
G2 Y67.0012 Z-2.5667 I0.0062 J0.0108
G2 X25.1348 Y66.9904 Z-2.6 I0.0063 J-0.0108
G2 X25.1161 Y66.9796 Z-2.6333 I-0.0125 J0.0
G2 Y67.0012 Z-2.6667 I0.0062 J0.0108
G2 X25.1348 Y66.9904 Z-2.7 I0.0063 J-0.0108
G2 X25.1161 Y66.9796 Z-2.7333 I-0.0125 J0.0
G2 Y67.0012 Z-2.7667 I0.0062 J0.0108
G2 X25.1348 Y66.9904 Z-2.8 I0.0063 J-0.0108
G2 X25.1161 Y66.9796 Z-2.8333 I-0.0125 J0.0
G2 Y67.0012 Z-2.8667 I0.0062 J0.0108
G2 X25.1348 Y66.9904 Z-2.9 I0.0063 J-0.0108
G2 X25.1161 Y66.9796 Z-2.9333 I-0.0125 J0.0
G2 Y67.0012 Z-2.9667 I0.0062 J0.0108
G2 X25.1348 Y66.9904 Z-3.0 I0.0063 J-0.0108
G2 X25.1161 Y66.9796 Z-3.0333 I-0.0125 J0.0
G2 Y67.0012 Z-3.0667 I0.0062 J0.0108
G2 X25.1348 Y66.9904 Z-3.1 I0.0063 J-0.0108
G2 X25.1161 Y66.9796 Z-3.1333 I-0.0125 J0.0
G2 Y67.0012 Z-3.1667 I0.0062 J0.0108
G2 X25.1348 Y66.9904 Z-3.2 I0.0063 J-0.0108
G2 X25.1161 Y66.9796 I-0.0125 J0.0
G2 Y67.0012 I0.0063 J0.0108
G2 X25.1348 Y66.9904 I0.0062 J-0.0108
G0 Z3.0
G0 X40.3643 Y67.0292
G0 Z0.5
G1 F1000.0 Z0.0
G2 F2000.0 X40.3456 Y67.0183 Z-0.0333 I-0.0125 J0.0
G2 Y67.04 Z-0.0667 I0.0062 J0.0108
G2 X40.3643 Y67.0292 Z-0.1 I0.0063 J-0.0108
G2 X40.3456 Y67.0183 Z-0.1333 I-0.0125 J0.0
G2 Y67.04 Z-0.1667 I0.0062 J0.0108
G2 X40.3643 Y67.0292 Z-0.2 I0.0063 J-0.0108
G2 X40.3456 Y67.0183 Z-0.2333 I-0.0125 J0.0
G2 Y67.04 Z-0.2667 I0.0062 J0.0108
G2 X40.3643 Y67.0292 Z-0.3 I0.0063 J-0.0108
G2 X40.3456 Y67.0183 Z-0.3333 I-0.0125 J0.0
G2 Y67.04 Z-0.3667 I0.0062 J0.0108
G2 X40.3643 Y67.0292 Z-0.4 I0.0063 J-0.0108
G2 X40.3456 Y67.0183 Z-0.4333 I-0.0125 J0.0
G2 Y67.04 Z-0.4667 I0.0062 J0.0108
G2 X40.3643 Y67.0292 Z-0.5 I0.0063 J-0.0108
G2 X40.3456 Y67.0183 Z-0.5333 I-0.0125 J0.0
G2 Y67.04 Z-0.5667 I0.0062 J0.0108
G2 X40.3643 Y67.0292 Z-0.6 I0.0063 J-0.0108
G2 X40.3456 Y67.0183 Z-0.6333 I-0.0125 J0.0
G2 Y67.04 Z-0.6667 I0.0062 J0.0108
G2 X40.3643 Y67.0292 Z-0.7 I0.0063 J-0.0108
G2 X40.3456 Y67.0183 Z-0.7333 I-0.0125 J0.0
G2 Y67.04 Z-0.7667 I0.0062 J0.0108
G2 X40.3643 Y67.0292 Z-0.8 I0.0063 J-0.0108
G2 X40.3456 Y67.0183 Z-0.8333 I-0.0125 J0.0
G2 Y67.04 Z-0.8667 I0.0062 J0.0108
G2 X40.3643 Y67.0292 Z-0.9 I0.0063 J-0.0108
G2 X40.3456 Y67.0183 Z-0.9333 I-0.0125 J0.0
G2 Y67.04 Z-0.9667 I0.0062 J0.0108
G2 X40.3643 Y67.0292 Z-1.0 I0.0063 J-0.0108
G2 X40.3456 Y67.0183 Z-1.0333 I-0.0125 J0.0
G2 Y67.04 Z-1.0667 I0.0062 J0.0108
G2 X40.3643 Y67.0292 Z-1.1 I0.0063 J-0.0108
G2 X40.3456 Y67.0183 Z-1.1333 I-0.0125 J0.0
G2 Y67.04 Z-1.1667 I0.0062 J0.0108
G2 X40.3643 Y67.0292 Z-1.2 I0.0063 J-0.0108
G2 X40.3456 Y67.0183 Z-1.2333 I-0.0125 J0.0
G2 Y67.04 Z-1.2667 I0.0062 J0.0108
G2 X40.3643 Y67.0292 Z-1.3 I0.0063 J-0.0108
G2 X40.3456 Y67.0183 Z-1.3333 I-0.0125 J0.0
G2 Y67.04 Z-1.3667 I0.0062 J0.0108
G2 X40.3643 Y67.0292 Z-1.4 I0.0063 J-0.0108
G2 X40.3456 Y67.0183 Z-1.4333 I-0.0125 J0.0
G2 Y67.04 Z-1.4667 I0.0062 J0.0108
G2 X40.3643 Y67.0292 Z-1.5 I0.0063 J-0.0108
G2 X40.3456 Y67.0183 Z-1.5333 I-0.0125 J0.0
G2 Y67.04 Z-1.5667 I0.0062 J0.0108
G2 X40.3643 Y67.0292 Z-1.6 I0.0063 J-0.0108
G2 X40.3456 Y67.0183 Z-1.6333 I-0.0125 J0.0
G2 Y67.04 Z-1.6667 I0.0062 J0.0108
G2 X40.3643 Y67.0292 Z-1.7 I0.0063 J-0.0108
G2 X40.3456 Y67.0183 Z-1.7333 I-0.0125 J0.0
G2 Y67.04 Z-1.7667 I0.0062 J0.0108
G2 X40.3643 Y67.0292 Z-1.8 I0.0063 J-0.0108
G2 X40.3456 Y67.0183 Z-1.8333 I-0.0125 J0.0
G2 Y67.04 Z-1.8667 I0.0062 J0.0108
G2 X40.3643 Y67.0292 Z-1.9 I0.0063 J-0.0108
G2 X40.3456 Y67.0183 Z-1.9333 I-0.0125 J0.0
G2 Y67.04 Z-1.9667 I0.0062 J0.0108
G2 X40.3643 Y67.0292 Z-2.0 I0.0063 J-0.0108
G2 X40.3456 Y67.0183 Z-2.0333 I-0.0125 J0.0
G2 Y67.04 Z-2.0667 I0.0062 J0.0108
G2 X40.3643 Y67.0292 Z-2.1 I0.0063 J-0.0108
G2 X40.3456 Y67.0183 Z-2.1333 I-0.0125 J0.0
G2 Y67.04 Z-2.1667 I0.0062 J0.0108
G2 X40.3643 Y67.0292 Z-2.2 I0.0063 J-0.0108
G2 X40.3456 Y67.0183 Z-2.2333 I-0.0125 J0.0
G2 Y67.04 Z-2.2667 I0.0062 J0.0108
G2 X40.3643 Y67.0292 Z-2.3 I0.0063 J-0.0108
G2 X40.3456 Y67.0183 Z-2.3333 I-0.0125 J0.0
G2 Y67.04 Z-2.3667 I0.0062 J0.0108
G2 X40.3643 Y67.0292 Z-2.4 I0.0063 J-0.0108
G2 X40.3456 Y67.0183 Z-2.4333 I-0.0125 J0.0
G2 Y67.04 Z-2.4667 I0.0062 J0.0108
G2 X40.3643 Y67.0292 Z-2.5 I0.0063 J-0.0108
G2 X40.3456 Y67.0183 Z-2.5333 I-0.0125 J0.0
G2 Y67.04 Z-2.5667 I0.0062 J0.0108
G2 X40.3643 Y67.0292 Z-2.6 I0.0063 J-0.0108
G2 X40.3456 Y67.0183 Z-2.6333 I-0.0125 J0.0
G2 Y67.04 Z-2.6667 I0.0062 J0.0108
G2 X40.3643 Y67.0292 Z-2.7 I0.0063 J-0.0108
G2 X40.3456 Y67.0183 Z-2.7333 I-0.0125 J0.0
G2 Y67.04 Z-2.7667 I0.0062 J0.0108
G2 X40.3643 Y67.0292 Z-2.8 I0.0063 J-0.0108
G2 X40.3456 Y67.0183 Z-2.8333 I-0.0125 J0.0
G2 Y67.04 Z-2.8667 I0.0062 J0.0108
G2 X40.3643 Y67.0292 Z-2.9 I0.0063 J-0.0108
G2 X40.3456 Y67.0183 Z-2.9333 I-0.0125 J0.0
G2 Y67.04 Z-2.9667 I0.0063 J0.0108
G2 X40.3643 Y67.0292 Z-3.0 I0.0063 J-0.0108
G2 X40.3456 Y67.0183 Z-3.0333 I-0.0125 J0.0
G2 Y67.04 Z-3.0667 I0.0063 J0.0108
G2 X40.3643 Y67.0292 Z-3.1 I0.0063 J-0.0108
G2 X40.3456 Y67.0183 Z-3.1333 I-0.0125 J0.0
G2 Y67.04 Z-3.1667 I0.0063 J0.0108
G2 X40.3643 Y67.0292 Z-3.2 I0.0063 J-0.0108
G2 X40.3456 Y67.0183 I-0.0125 J0.0
G2 Y67.04 I0.0063 J0.0108
G2 X40.3643 Y67.0292 I0.0062 J-0.0108
G0 Z3.0
G0 X84.5287 Y125.0763
G0 Z0.5
G1 F1000.0 Z0.0
G2 F2000.0 X84.51 Y125.0654 Z-0.0333 I-0.0125 J0.0
G2 Y125.0871 Z-0.0667 I0.0062 J0.0108
G2 X84.5287 Y125.0763 Z-0.1 I0.0062 J-0.0108
G2 X84.51 Y125.0654 Z-0.1333 I-0.0125 J0.0
G2 Y125.0871 Z-0.1667 I0.0062 J0.0108
G2 X84.5287 Y125.0763 Z-0.2 I0.0062 J-0.0108
G2 X84.51 Y125.0654 Z-0.2333 I-0.0125 J0.0
G2 Y125.0871 Z-0.2667 I0.0062 J0.0108
G2 X84.5287 Y125.0763 Z-0.3 I0.0062 J-0.0108
G2 X84.51 Y125.0654 Z-0.3333 I-0.0125 J0.0
G2 Y125.0871 Z-0.3667 I0.0062 J0.0108
G2 X84.5287 Y125.0763 Z-0.4 I0.0062 J-0.0108
G2 X84.51 Y125.0654 Z-0.4333 I-0.0125 J0.0
G2 Y125.0871 Z-0.4667 I0.0062 J0.0108
G2 X84.5287 Y125.0763 Z-0.5 I0.0062 J-0.0108
G2 X84.51 Y125.0654 Z-0.5333 I-0.0125 J0.0
G2 Y125.0871 Z-0.5667 I0.0062 J0.0108
G2 X84.5287 Y125.0763 Z-0.6 I0.0062 J-0.0108
G2 X84.51 Y125.0654 Z-0.6333 I-0.0125 J0.0
G2 Y125.0871 Z-0.6667 I0.0062 J0.0108
G2 X84.5287 Y125.0763 Z-0.7 I0.0062 J-0.0108
G2 X84.51 Y125.0654 Z-0.7333 I-0.0125 J0.0
G2 Y125.0871 Z-0.7667 I0.0062 J0.0108
G2 X84.5287 Y125.0763 Z-0.8 I0.0062 J-0.0108
G2 X84.51 Y125.0654 Z-0.8333 I-0.0125 J0.0
G2 Y125.0871 Z-0.8667 I0.0062 J0.0108
G2 X84.5287 Y125.0763 Z-0.9 I0.0062 J-0.0108
G2 X84.51 Y125.0654 Z-0.9333 I-0.0125 J0.0
G2 Y125.0871 Z-0.9667 I0.0062 J0.0108
G2 X84.5287 Y125.0763 Z-1.0 I0.0062 J-0.0108
G2 X84.51 Y125.0654 Z-1.0333 I-0.0125 J0.0
G2 Y125.0871 Z-1.0667 I0.0062 J0.0108
G2 X84.5287 Y125.0763 Z-1.1 I0.0062 J-0.0108
G2 X84.51 Y125.0654 Z-1.1333 I-0.0125 J0.0
G2 Y125.0871 Z-1.1667 I0.0062 J0.0108
G2 X84.5287 Y125.0763 Z-1.2 I0.0062 J-0.0108
G2 X84.51 Y125.0654 Z-1.2333 I-0.0125 J0.0
G2 Y125.0871 Z-1.2667 I0.0062 J0.0108
G2 X84.5287 Y125.0763 Z-1.3 I0.0062 J-0.0108
G2 X84.51 Y125.0654 Z-1.3333 I-0.0125 J0.0
G2 Y125.0871 Z-1.3667 I0.0062 J0.0108
G2 X84.5287 Y125.0763 Z-1.4 I0.0062 J-0.0108
G2 X84.51 Y125.0654 Z-1.4333 I-0.0125 J0.0
G2 Y125.0871 Z-1.4667 I0.0062 J0.0108
G2 X84.5287 Y125.0763 Z-1.5 I0.0062 J-0.0108
G2 X84.51 Y125.0654 Z-1.5333 I-0.0125 J0.0
G2 Y125.0871 Z-1.5667 I0.0062 J0.0108
