(/Applications/pcbgcode.repo/pcb-gcode.ulp)
(Copyright 2005 - 2012 by John Johnson)
(See readme.txt for licensing terms.)
(This file generated from the board:)
(.../monosynth/eagle/midi_to_cv.brd)
(Current profile is .../pcbgcode.repo/profiles/mach.pp  )
(This file generated 9/4/15 11:40 PM)
(Settings from pcb-machine.h)
(spindle on time = 0.0000)
(spindle speed = 20000.0000)
(tool change at 0.0000  0.0000  3.0000  )
(feed rate xy = F0     )
(feed rate z  = F20    )
(Z Axis Settings)
(  High     Up        Down     Drill)
(1.0000  	0.0500  	-0.0040 	-0.0730 )
(Settings from pcb-defaults.h)
(isolate min = 0.0010)
(isolate max = 0.0150)
(isolate step = 0.0015)
(Generated bottom outlines, bottom drill, )
(Unit of measure: inch)
( Tool|       Size       |  Min Sub |  Max Sub |   Count )
( T01 | 0.800mm 0.0315in | 0.0000in | 0.0000in |       0 )
( T02 | 0.813mm 0.0320in | 0.0000in | 0.0000in |       0 )
( T03 | 0.914mm 0.0360in | 0.0000in | 0.0000in |       0 )
( T04 | 0.991mm 0.0390in | 0.0000in | 0.0000in |       0 )
( T05 | 1.016mm 0.0400in | 0.0000in | 0.0000in |       0 )
( T06 | 1.200mm 0.0472in | 0.0000in | 0.0000in |       0 )
(Inch Mode)
G20
(Absolute Coordinates)
G90
S20000
G00 Z1.0000  
G00 X0.0000  Y0.0000  
M03
G04 P0.000000
M05
G00 Z3.0000  
M06 T01  ; 0.0315  
G01 Z0.0000  F20    
M06 
G00 Z0.0500  
M03
G04 P0.000000
G82 X-0.2800 Y1.5900  Z-0.0730 F20    R0.0500  P0.010000
G82 X-0.7100 Y1.8000  
G82 X-0.6300 Y1.9700  
G82 X-0.7100 Y2.2500  
G82 X-1.7100 Y2.6600  
G82 X-1.6200 Y2.9000  
G82 X-1.8500 Y2.3000  
G82 X-1.9200 Y2.3000  
G82 X-2.2000 Y2.2000  
G82 X-2.2800 Y2.3000  
G82 X-2.2000 Y1.9000  
G82 X-1.8300 Y1.7900  
G82 X-2.4500 Y1.5400  
G82 X-2.4800 Y0.8400  
M05
G00 Z3.0000  
G00 X0.0000  Y0.0000  
M06 T02  ; 0.0320  
G01 Z0.0000  F20    
M06 
G00 Z0.0500  
M03
G04 P0.000000
G82 X-0.1400 Y1.9700  Z-0.0730 F20    R0.0500  P0.010000
G82 X-0.3500 Y2.1500  
G82 X-0.5500 Y2.1500  
G82 X-0.5400 Y1.9700  
G82 X-0.8000 Y1.9000  
G82 X-0.9000 Y1.9000  
G82 X-1.0000 Y1.9000  
G82 X-1.1000 Y1.9000  
G82 X-1.2000 Y1.9000  
G82 X-1.3000 Y1.9000  
G82 X-1.4000 Y1.9000  
G82 X-1.5000 Y1.9000  
G82 X-1.6000 Y1.9000  
G82 X-1.7000 Y1.9000  
G82 X-1.8000 Y1.9000  
G82 X-1.9000 Y1.9000  
G82 X-2.0000 Y1.9000  
G82 X-2.1000 Y1.9000  
G82 X-1.9000 Y1.7000  
G82 X-2.1100 Y1.5900  
G82 X-2.1100 Y1.4900  
G82 X-2.0000 Y1.1000  
G82 X-2.1600 Y1.0800  
G82 X-2.1600 Y0.9800  
G82 X-2.3400 Y1.0000  
G82 X-2.5800 Y1.0400  
G82 X-2.8300 Y0.8300  
G82 X-2.9500 Y0.6700  
G82 X-2.8300 Y0.4300  
G82 X-2.9500 Y0.2700  
G82 X-2.6000 Y0.5000  
G82 X-2.3400 Y0.6000  
G82 X-2.2000 Y0.5000  
G82 X-2.0500 Y0.4000  
G82 X-2.2500 Y0.3000  
G82 X-2.3500 Y0.3000  
G82 X-1.8000 Y0.3300  
G82 X-1.8000 Y0.5000  
G82 X-1.7000 Y0.5000  
G82 X-1.6000 Y0.5000  
G82 X-1.5000 Y0.5000  
G82 X-1.4000 Y0.3300  
G82 X-1.2900 Y0.5600  
G82 X-1.0000 Y0.5500  
G82 X-0.9000 Y0.8000  
G82 X-0.7500 Y0.7500  
G82 X-0.7500 Y0.9000  
G82 X-0.7500 Y1.0000  
G82 X-0.7500 Y1.1000  
G82 X-0.7500 Y1.2000  
G82 X-0.7500 Y1.3000  
G82 X-0.7500 Y1.4000  
G82 X-0.7500 Y1.5000  
G82 X-0.8500 Y1.7000  
G82 X-1.0000 Y1.4500  
G82 X-0.9000 Y1.2000  
G82 X-1.0000 Y1.0500  
G82 X-1.2900 Y0.9600  
G82 X-1.4000 Y0.9800  
G82 X-1.5000 Y0.8000  
G82 X-1.6000 Y0.8000  
G82 X-1.7000 Y0.8000  
G82 X-1.8000 Y0.8000  
G82 X-1.8000 Y0.9800  
G82 X-1.6000 Y1.1000  
G82 X-2.0500 Y0.8000  
G82 X-2.9800 Y1.0400  
G82 X-3.0500 Y1.5500  
G82 X-3.0000 Y1.8000  
G82 X-2.8900 Y1.8900  
G82 X-2.9000 Y2.0500  
G82 X-2.8000 Y2.0500  
G82 X-2.7000 Y2.0500  
G82 X-2.5500 Y2.1000  
G82 X-2.5500 Y2.3000  
G82 X-2.7000 Y2.3500  
G82 X-2.8000 Y2.3500  
G82 X-2.9000 Y2.3500  
G82 X-3.0000 Y2.3500  
G82 X-3.1000 Y2.3500  
G82 X-3.2000 Y2.3500  
G82 X-3.3000 Y2.3500  
G82 X-3.2100 Y2.5500  
G82 X-3.3100 Y2.6500  
G82 X-3.2100 Y2.7500  
G82 X-3.1800 Y2.8900  
G82 X-2.9500 Y2.6500  
G82 X-2.9500 Y2.5200  
G82 X-2.5500 Y2.5200  
G82 X-2.5500 Y2.6500  
G82 X-2.3600 Y2.9000  
G82 X-2.7600 Y2.9000  
G82 X-3.5800 Y2.8900  
G82 X-3.3000 Y2.0500  
G82 X-3.2000 Y2.0500  
G82 X-3.1000 Y2.0500  
G82 X-3.0000 Y2.0500  
G82 X-3.2900 Y1.8900  
G82 X-3.5500 Y1.9500  
G82 X-3.5500 Y1.5500  
G82 X-3.4500 Y1.5500  
G82 X-2.6000 Y1.8000  
G82 X-2.1000 Y2.2000  
G82 X-2.0000 Y2.2000  
G82 X-1.9000 Y2.2000  
G82 X-1.8000 Y2.2000  
G82 X-1.7000 Y2.2000  
G82 X-1.6000 Y2.2000  
G82 X-1.5000 Y2.2000  
G82 X-1.4000 Y2.2000  
G82 X-1.3000 Y2.2000  
G82 X-1.2000 Y2.2000  
G82 X-1.1000 Y2.2000  
G82 X-1.0000 Y2.2000  
G82 X-0.9000 Y2.2000  
G82 X-0.8000 Y2.2000  
G82 X-0.8500 Y2.3500  
G82 X-0.7000 Y2.4500  
G82 X-0.7000 Y2.5500  
G82 X-0.7000 Y2.6500  
G82 X-0.7000 Y2.7500  
G82 X-0.7000 Y2.9000  
G82 X-0.8500 Y2.7500  
G82 X-0.4000 Y2.7500  
G82 X-0.4000 Y2.6500  
G82 X-0.4000 Y2.5500  
G82 X-0.4000 Y2.4500  
G82 X-0.2500 Y2.3500  
G82 X-0.2500 Y2.7500  
G82 X-0.3000 Y2.9000  
G82 X-1.2100 Y2.3400  
G82 X-1.6100 Y2.3400  
G82 X-1.8700 Y2.4400  
G82 X-1.8700 Y2.6400  
G82 X-1.5000 Y1.7000  
G82 X-1.4200 Y1.6900  
G82 X-1.3200 Y1.6900  
G82 X-0.4500 Y1.7000  
G82 X-0.4500 Y1.5000  
G82 X-0.4500 Y1.4000  
G82 X-0.4500 Y1.3000  
G82 X-0.4500 Y1.2000  
G82 X-0.4500 Y1.1000  
G82 X-0.4500 Y1.0000  
G82 X-0.4500 Y0.9000  
G82 X-0.3500 Y0.8500  
G82 X-0.2000 Y0.8500  
G82 X-0.5500 Y0.7500  
G82 X-0.6000 Y0.5500  
G82 X-0.3500 Y0.4500  
G82 X-0.2000 Y0.4500  
M05
G00 Z3.0000  
G00 X0.0000  Y0.0000  
M06 T03  ; 0.0360  
G01 Z0.0000  F20    
M06 
G00 Z0.0500  
M03
G04 P0.000000
G82 X-0.2500 Y2.2000  Z-0.0730 F20    R0.0500  P0.010000
G82 X-0.5500 Y2.3000  
G82 X-0.4600 Y1.8400  
G82 X-0.3300 Y1.7200  
G82 X-0.3000 Y1.0000  
G82 X-0.3000 Y0.3000  
G82 X-0.4500 Y0.3000  
G82 X-1.1200 Y0.3900  
G82 X-1.0500 Y0.7500  
G82 X-1.0500 Y0.9000  
G82 X-1.1500 Y2.4500  
G82 X-0.8000 Y2.9000  
G82 X-2.6500 Y1.9200  
G82 X-3.4500 Y2.0500  
G82 X-3.5500 Y2.6000  
G82 X-3.3600 Y3.0600  
G82 X-3.1500 Y1.1300  
G82 X-3.1500 Y1.0000  
G82 X-3.1500 Y0.8700  
G82 X-3.1000 Y0.5000  
M05
G00 Z3.0000  
G00 X0.0000  Y0.0000  
M06 T04  ; 0.0390  
G01 Z0.0000  F20    
M06 
G00 Z0.0500  
M03
G04 P0.000000
G82 X-2.0400 Y2.4500  Z-0.0730 F20    R0.0500  P0.010000
G82 X-2.1400 Y2.4500  
G82 X-2.2400 Y2.4500  
G82 X-2.3400 Y2.4500  
G82 X-2.3400 Y2.7500  
G82 X-2.2400 Y2.7500  
G82 X-2.1400 Y2.7500  
G82 X-2.0400 Y2.7500  
G82 X-2.5500 Y1.5500  
G82 X-2.5500 Y1.4500  
G82 X-2.5500 Y1.3500  
G82 X-2.5500 Y1.2500  
G82 X-2.8500 Y1.2500  
G82 X-2.8500 Y1.3500  
G82 X-2.8500 Y1.4500  
G82 X-2.8500 Y1.5500  
M05
G00 Z3.0000  
G00 X0.0000  Y0.0000  
M06 T05  ; 0.0400  
G01 Z0.0000  F20    
M06 
G00 Z0.0500  
M03
G04 P0.000000
G82 X-1.4000 Y2.6500  Z-0.0730 F20    R0.0500  P0.010000
G82 X-1.4000 Y2.7500  
G82 X-1.5000 Y2.7500  
G82 X-1.5000 Y2.6500  
G82 X-1.6000 Y2.6500  
G82 X-1.6000 Y2.7500  
G82 X-1.4050 Y1.4500  
G82 X-1.8950 Y1.4500  
G82 X-3.4000 Y1.3000  
G82 X-3.4000 Y1.2000  
G82 X-3.4000 Y1.1000  
G82 X-3.4000 Y1.0000  
G82 X-3.4000 Y0.9000  
G82 X-3.4000 Y0.8000  
G82 X-3.4000 Y0.7000  
G82 X-3.4000 Y0.6000  
G82 X-3.5000 Y0.6000  
G82 X-3.5000 Y0.7000  
G82 X-3.5000 Y0.8000  
G82 X-3.5000 Y0.9000  
G82 X-3.5000 Y1.0000  
G82 X-3.5000 Y1.1000  
G82 X-3.5000 Y1.2000  
G82 X-3.5000 Y1.3000  
M05
G00 Z3.0000  
G00 X0.0000  Y0.0000  
M06 T06  ; 0.0472  
G01 Z0.0000  F20    
M06 
G00 Z0.0500  
M03
G04 P0.000000
G82 X-1.3031 Y3.0500  Z-0.0730 F20    R0.0500  P0.010000
G82 X-1.5000 Y3.0500  
G82 X-1.6969 Y3.0500  
G82 X-2.5531 Y3.0500  
G82 X-2.7500 Y3.0500  
G82 X-2.9469 Y3.0500  
T01 
G00 Z1.0000  
M05
M02
