(/Applications/pcbgcode.repo/pcb-gcode.ulp)
(Copyright 2005 - 2012 by John Johnson)
(See readme.txt for licensing terms.)
(This file generated from the board:)
(.../atmega_midi_to_cv/midi_to_cv.brd)
(Current profile is .../pcbgcode.repo/profiles/mach.pp  )
(This file generated 10/19/14 10:06 AM)
(Settings from pcb-machine.h)
(spindle on time = 0.0000)
(  Tool Size)
(0.0062  )
(spindle speed = 30000.0000)
(tool change at 0.0000  0.0000  3.0000  )
(feed rate xy = F20    )
(feed rate z  = F10    )
(Z Axis Settings)
(  High     Up        Down     Drill)
(0.5000  	0.1000  	-0.0020 	-0.0630 )
(Settings from pcb-defaults.h)
(isolate min = 0.0010)
(isolate max = 0.0200)
(isolate step = 0.0050)
(Generated bottom outlines, bottom drill, )
(Unit of measure: inch)
(Inch Mode)
G20
(Absolute Coordinates)
G90
S30000
G00 Z0.5000  
G00 X0.0000  Y0.0000  
M03
G04 P0.000000
G00 Z0.1000  
G00 X-0.2089 Y0.1330  
G01 Z-0.0020 F10    
G01 X-0.2330 Y0.1089  F20    
G01 X-0.2670 Y0.1089  
G01 X-0.2911 Y0.1330  
G01 X-0.2911 Y0.1670  
G01 X-0.2670 Y0.1911  
G01 X-0.2330 Y0.1911  
G01 X-0.2089 Y0.1670  
G01 X-0.2089 Y0.1330  
G00 Z0.1000  
G00 X-0.3089 Y0.1330  
G01 Z-0.0020 F10    
G01 X-0.3330 Y0.1089  F20    
G01 X-0.3670 Y0.1089  
G01 X-0.3911 Y0.1330  
G01 X-0.3911 Y0.1479  
G01 X-0.4089 Y0.1479  
G01 X-0.4089 Y0.1330  
G01 X-0.4330 Y0.1089  
G01 X-0.4670 Y0.1089  
G01 X-0.4911 Y0.1330  
G01 X-0.4911 Y0.1670  
G01 X-0.4670 Y0.1911  
G01 X-0.4601 Y0.1911  
G01 X-0.4601 Y0.2089  
G01 X-0.4670 Y0.2089  
G01 X-0.4911 Y0.2330  
G01 X-0.4911 Y0.2439  
G01 X-0.5089 Y0.2439  
G01 X-0.5089 Y0.2330  
G01 X-0.5330 Y0.2089  
G01 X-0.5479 Y0.2089  
G01 X-0.5479 Y0.1911  
G01 X-0.5330 Y0.1911  
G01 X-0.5089 Y0.1670  
G01 X-0.5089 Y0.1330  
G01 X-0.5330 Y0.1089  
G01 X-0.5670 Y0.1089  
G01 X-0.5725 Y0.1144  
G01 X-0.6166 Y0.0703  
G01 X-0.6193 Y0.0687  
G01 X-0.6224 Y0.0679  
G01 X-1.3936 Y0.0679  
G01 X-1.3967 Y0.0687  
G01 X-1.3994 Y0.0703  
G01 X-1.4017 Y0.0726  
G01 X-1.8177 Y0.4886  
G01 X-1.8193 Y0.4913  
G01 X-1.8201 Y0.4944  
G01 X-1.8201 Y0.5070  
G01 X-1.8232 Y0.5101  
G01 X-1.8233 Y0.5097  
G01 X-1.8266 Y0.5048  
G01 X-1.8308 Y0.5006  
G01 X-1.8357 Y0.4973  
G01 X-1.8412 Y0.4951  
G01 X-1.8470 Y0.4939  
G01 X-1.8530 Y0.4939  
G01 X-1.8588 Y0.4951  
G01 X-1.8643 Y0.4973  
G01 X-1.8692 Y0.5006  
G01 X-1.8734 Y0.5048  
G01 X-1.8767 Y0.5097  
G01 X-1.8789 Y0.5152  
G01 X-1.8801 Y0.5210  
G01 X-1.8801 Y0.5790  
G01 X-1.8789 Y0.5848  
G01 X-1.8767 Y0.5903  
G01 X-1.8734 Y0.5952  
G01 X-1.8692 Y0.5994  
G01 X-1.8643 Y0.6027  
G01 X-1.8588 Y0.6049  
G01 X-1.8530 Y0.6061  
G01 X-1.8470 Y0.6061  
G01 X-1.8412 Y0.6049  
G01 X-1.8357 Y0.6027  
G01 X-1.8308 Y0.5994  
G01 X-1.8266 Y0.5952  
G01 X-1.8233 Y0.5903  
G01 X-1.8211 Y0.5848  
G01 X-1.8199 Y0.5790  
G01 X-1.8199 Y0.5410  
G01 X-1.8006 Y0.5217  
G01 X-1.7983 Y0.5194  
G01 X-1.7967 Y0.5167  
G01 X-1.7959 Y0.5136  
G01 X-1.7959 Y0.5010  
G01 X-1.3870 Y0.0921  
G01 X-0.6290 Y0.0921  
G01 X-0.5896 Y0.1315  
G01 X-0.5911 Y0.1330  
G01 X-0.5911 Y0.1670  
G01 X-0.5721 Y0.1860  
G01 X-0.5721 Y0.2140  
G01 X-0.5911 Y0.2330  
G01 X-0.5911 Y0.2670  
G01 X-0.5670 Y0.2911  
G01 X-0.5330 Y0.2911  
G01 X-0.5100 Y0.2681  
G01 X-0.4900 Y0.2681  
G01 X-0.4670 Y0.2911  
G01 X-0.4601 Y0.2911  
G01 X-0.4601 Y0.4699  
G01 X-0.4625 Y0.4699  
G01 X-0.4801 Y0.4875  
G01 X-0.4801 Y0.5125  
G01 X-0.4625 Y0.5301  
G01 X-0.4470 Y0.5301  
G01 X-0.3001 Y0.6770  
G01 X-0.3001 Y0.8110  
G01 X-0.3410 Y0.8519  
G01 X-0.3790 Y0.8519  
G01 X-0.5663 Y0.6646  
G01 X-0.7199 Y0.5110  
G01 X-0.7199 Y0.4875  
G01 X-0.7375 Y0.4699  
G01 X-0.7625 Y0.4699  
G01 X-0.7801 Y0.4875  
G01 X-0.7801 Y0.5125  
G01 X-0.7625 Y0.5301  
G01 X-0.7375 Y0.5301  
G01 X-0.7363 Y0.5288  
G01 X-0.5931 Y0.6720  
G01 X-0.8370 Y0.9159  
G01 X-1.6750 Y0.9159  
G01 X-1.7199 Y0.8710  
G01 X-1.7199 Y0.8210  
G01 X-1.7211 Y0.8152  
G01 X-1.7233 Y0.8097  
G01 X-1.7266 Y0.8048  
G01 X-1.7308 Y0.8006  
G01 X-1.7357 Y0.7973  
G01 X-1.7412 Y0.7951  
G01 X-1.7470 Y0.7939  
G01 X-1.7530 Y0.7939  
G01 X-1.7588 Y0.7951  
G01 X-1.7643 Y0.7973  
G01 X-1.7692 Y0.8006  
G01 X-1.7734 Y0.8048  
G01 X-1.7767 Y0.8097  
G01 X-1.7789 Y0.8152  
G01 X-1.7801 Y0.8210  
G01 X-1.7801 Y0.8790  
G01 X-1.7789 Y0.8848  
G01 X-1.7767 Y0.8903  
G01 X-1.7734 Y0.8952  
G01 X-1.7692 Y0.8994  
G01 X-1.7643 Y0.9027  
G01 X-1.7588 Y0.9049  
G01 X-1.7530 Y0.9061  
G01 X-1.7470 Y0.9061  
G01 X-1.7412 Y0.9049  
G01 X-1.7357 Y0.9027  
G01 X-1.7308 Y0.8994  
G01 X-1.7283 Y0.8968  
G01 X-1.6897 Y0.9354  
G01 X-1.6874 Y0.9377  
G01 X-1.6847 Y0.9393  
G01 X-1.6816 Y0.9401  
G01 X-0.8304 Y0.9401  
G01 X-0.8273 Y0.9393  
G01 X-0.8246 Y0.9377  
G01 X-0.5760 Y0.6891  
G01 X-0.3937 Y0.8714  
G01 X-0.3914 Y0.8737  
G01 X-0.3887 Y0.8753  
G01 X-0.3856 Y0.8761  
G01 X-0.3344 Y0.8761  
G01 X-0.3313 Y0.8753  
G01 X-0.3286 Y0.8737  
G01 X-0.2806 Y0.8257  
G01 X-0.2783 Y0.8234  
G01 X-0.2767 Y0.8207  
G01 X-0.2759 Y0.8176  
G01 X-0.2759 Y0.6704  
G01 X-0.2767 Y0.6673  
G01 X-0.2783 Y0.6646  
G01 X-0.2806 Y0.6623  
G01 X-0.4252 Y0.5177  
G01 X-0.4199 Y0.5125  
G01 X-0.4199 Y0.4875  
G01 X-0.4359 Y0.4715  
G01 X-0.4359 Y0.2911  
G01 X-0.4330 Y0.2911  
G01 X-0.4089 Y0.2670  
G01 X-0.4089 Y0.2330  
G01 X-0.4330 Y0.2089  
G01 X-0.4359 Y0.2089  
G01 X-0.4359 Y0.1911  
G01 X-0.4330 Y0.1911  
G01 X-0.4140 Y0.1721  
G01 X-0.3860 Y0.1721  
G01 X-0.3670 Y0.1911  
G01 X-0.3641 Y0.1911  
G01 X-0.3641 Y0.2089  
G01 X-0.3670 Y0.2089  
G01 X-0.3911 Y0.2330  
G01 X-0.3911 Y0.2670  
G01 X-0.3670 Y0.2911  
G01 X-0.3330 Y0.2911  
G01 X-0.3089 Y0.2670  
G01 X-0.3089 Y0.2330  
G01 X-0.3330 Y0.2089  
G01 X-0.3399 Y0.2089  
G01 X-0.3399 Y0.1911  
G01 X-0.3330 Y0.1911  
G01 X-0.3089 Y0.1670  
G01 X-0.3089 Y0.1330  
G00 Z0.1000  
G00 X-0.2911 Y0.2330  
G01 Z-0.0020 F10    
G01 X-0.2911 Y0.2670  F20    
G01 X-0.2670 Y0.2911  
G01 X-0.2330 Y0.2911  
G01 X-0.2089 Y0.2670  
G01 X-0.2089 Y0.2330  
G01 X-0.2330 Y0.2089  
G01 X-0.2670 Y0.2089  
G01 X-0.2911 Y0.2330  
G00 Z0.1000  
G00 X-0.6089 Y0.2330  
G01 Z-0.0020 F10    
G01 X-0.6330 Y0.2089  F20    
G01 X-0.6439 Y0.2089  
G01 X-0.6439 Y0.1911  
G01 X-0.6330 Y0.1911  
G01 X-0.6089 Y0.1670  
G01 X-0.6089 Y0.1330  
G01 X-0.6330 Y0.1089  
G01 X-0.6670 Y0.1089  
G01 X-0.6911 Y0.1330  
G01 X-0.6911 Y0.1670  
G01 X-0.6681 Y0.1900  
G01 X-0.6681 Y0.2100  
G01 X-0.6911 Y0.2330  
G01 X-0.6911 Y0.2670  
G01 X-0.6876 Y0.2705  
G01 X-0.7250 Y0.3079  
G01 X-1.5216 Y0.3079  
G01 X-1.5247 Y0.3087  
G01 X-1.5274 Y0.3103  
G01 X-1.5297 Y0.3126  
G01 X-1.7247 Y0.5076  
G01 X-1.7266 Y0.5048  
G01 X-1.7308 Y0.5006  
G01 X-1.7357 Y0.4973  
G01 X-1.7412 Y0.4951  
G01 X-1.7470 Y0.4939  
G01 X-1.7530 Y0.4939  
G01 X-1.7588 Y0.4951  
G01 X-1.7643 Y0.4973  
G01 X-1.7692 Y0.5006  
G01 X-1.7734 Y0.5048  
G01 X-1.7767 Y0.5097  
G01 X-1.7789 Y0.5152  
G01 X-1.7801 Y0.5210  
G01 X-1.7801 Y0.5790  
G01 X-1.7789 Y0.5848  
G01 X-1.7767 Y0.5903  
G01 X-1.7734 Y0.5952  
G01 X-1.7692 Y0.5994  
G01 X-1.7643 Y0.6027  
G01 X-1.7588 Y0.6049  
G01 X-1.7530 Y0.6061  
G01 X-1.7470 Y0.6061  
G01 X-1.7412 Y0.6049  
G01 X-1.7357 Y0.6027  
G01 X-1.7308 Y0.5994  
G01 X-1.7266 Y0.5952  
G01 X-1.7233 Y0.5903  
G01 X-1.7211 Y0.5848  
G01 X-1.7199 Y0.5790  
G01 X-1.7199 Y0.5370  
G01 X-1.5150 Y0.3321  
G01 X-0.7184 Y0.3321  
G01 X-0.7153 Y0.3313  
G01 X-0.7126 Y0.3297  
G01 X-0.6705 Y0.2876  
G01 X-0.6670 Y0.2911  
G01 X-0.6330 Y0.2911  
G01 X-0.6089 Y0.2670  
G01 X-0.6089 Y0.2330  
G00 Z0.1000  
G00 X-0.7089 Y0.2330  
G01 Z-0.0020 F10    
G01 X-0.7330 Y0.2089  F20    
G01 X-0.7670 Y0.2089  
G01 X-0.7911 Y0.2330  
G01 X-0.7911 Y0.2670  
G01 X-0.7670 Y0.2911  
G01 X-0.7330 Y0.2911  
G01 X-0.7089 Y0.2670  
G01 X-0.7089 Y0.2330  
G00 Z0.1000  
G00 X-0.7330 Y0.1911  
G01 Z-0.0020 F10    
G01 X-0.7089 Y0.1670  F20    
G01 X-0.7089 Y0.1330  
G01 X-0.7330 Y0.1089  
G01 X-0.7670 Y0.1089  
G01 X-0.7911 Y0.1330  
G01 X-0.7911 Y0.1670  
G01 X-0.7670 Y0.1911  
G01 X-0.7330 Y0.1911  
G00 Z0.1000  
G00 X-0.8330 Y0.1911  
G01 Z-0.0020 F10    
G01 X-0.8089 Y0.1670  F20    
G01 X-0.8089 Y0.1330  
G01 X-0.8330 Y0.1089  
G01 X-0.8670 Y0.1089  
G01 X-0.8911 Y0.1330  
G01 X-0.8911 Y0.1670  
G01 X-0.8670 Y0.1911  
G01 X-0.8330 Y0.1911  
G00 Z0.1000  
G00 X-0.8330 Y0.2089  
G01 Z-0.0020 F10    
G01 X-0.8670 Y0.2089  F20    
G01 X-0.8911 Y0.2330  
G01 X-0.8911 Y0.2670  
G01 X-0.8670 Y0.2911  
G01 X-0.8330 Y0.2911  
G01 X-0.8089 Y0.2670  
G01 X-0.8089 Y0.2330  
G01 X-0.8330 Y0.2089  
G00 Z0.1000  
G00 X-0.9089 Y0.2330  
G01 Z-0.0020 F10    
G01 X-0.9330 Y0.2089  F20    
G01 X-0.9670 Y0.2089  
G01 X-0.9911 Y0.2330  
G01 X-0.9911 Y0.2670  
G01 X-0.9670 Y0.2911  
G01 X-0.9330 Y0.2911  
G01 X-0.9089 Y0.2670  
G01 X-0.9089 Y0.2330  
G00 Z0.1000  
G00 X-0.9330 Y0.1911  
G01 Z-0.0020 F10    
G01 X-0.9089 Y0.1670  F20    
G01 X-0.9089 Y0.1330  
G01 X-0.9330 Y0.1089  
G01 X-0.9670 Y0.1089  
G01 X-0.9911 Y0.1330  
G01 X-0.9911 Y0.1670  
G01 X-0.9670 Y0.1911  
G01 X-0.9330 Y0.1911  
G00 Z0.1000  
G00 X-0.8625 Y0.4699  
G01 Z-0.0020 F10    
G01 X-0.8801 Y0.4875  F20    
G01 X-0.8801 Y0.5125  
G01 X-0.8625 Y0.5301  
G01 X-0.8601 Y0.5301  
G01 X-0.8601 Y0.6279  
G01 X-1.8670 Y0.6279  
G01 X-1.8919 Y0.6030  
G01 X-1.8919 Y0.5904  
G01 X-1.8927 Y0.5873  
G01 X-1.8943 Y0.5846  
G01 X-1.8966 Y0.5823  
G01 X-1.9199 Y0.5590  
G01 X-1.9199 Y0.5210  
G01 X-1.9211 Y0.5152  
G01 X-1.9233 Y0.5097  
G01 X-1.9266 Y0.5048  
G01 X-1.9308 Y0.5006  
G01 X-1.9357 Y0.4973  
G01 X-1.9412 Y0.4951  
G01 X-1.9470 Y0.4939  
G01 X-1.9530 Y0.4939  
G01 X-1.9588 Y0.4951  
G01 X-1.9643 Y0.4973  
G01 X-1.9692 Y0.5006  
G01 X-1.9734 Y0.5048  
G01 X-1.9767 Y0.5097  
G01 X-1.9789 Y0.5152  
G01 X-1.9801 Y0.5210  
G01 X-1.9801 Y0.5790  
G01 X-1.9789 Y0.5848  
G01 X-1.9767 Y0.5903  
G01 X-1.9734 Y0.5952  
G01 X-1.9692 Y0.5994  
G01 X-1.9643 Y0.6027  
G01 X-1.9588 Y0.6049  
G01 X-1.9530 Y0.6061  
G01 X-1.9470 Y0.6061  
G01 X-1.9412 Y0.6049  
G01 X-1.9357 Y0.6027  
G01 X-1.9308 Y0.5994  
G01 X-1.9266 Y0.5952  
G01 X-1.9233 Y0.5903  
G01 X-1.9232 Y0.5899  
G01 X-1.9161 Y0.5970  
G01 X-1.9161 Y0.6096  
G01 X-1.9153 Y0.6127  
G01 X-1.9137 Y0.6154  
G01 X-1.8817 Y0.6474  
G01 X-1.8794 Y0.6497  
G01 X-1.8767 Y0.6513  
G01 X-1.8736 Y0.6521  
G01 X-0.8601 Y0.6521  
G01 X-0.8601 Y0.7693  
G01 X-0.8612 Y0.7698  
G01 X-0.8667 Y0.7735  
G01 X-0.8715 Y0.7783  
G01 X-0.8752 Y0.7838  
G01 X-0.8778 Y0.7901  
G01 X-0.8791 Y0.7966  
G01 X-0.8791 Y0.8034  
G01 X-0.8778 Y0.8099  
G01 X-0.8752 Y0.8162  
G01 X-0.8715 Y0.8217  
G01 X-0.8667 Y0.8265  
G01 X-0.8612 Y0.8302  
G01 X-0.8549 Y0.8328  
G01 X-0.8484 Y0.8341  
G01 X-0.8416 Y0.8341  
G01 X-0.8351 Y0.8328  
G01 X-0.8288 Y0.8302  
G01 X-0.8233 Y0.8265  
G01 X-0.8185 Y0.8217  
G01 X-0.8148 Y0.8162  
G01 X-0.8122 Y0.8099  
G01 X-0.8109 Y0.8034  
G01 X-0.8109 Y0.7966  
G01 X-0.8122 Y0.7901  
G01 X-0.8148 Y0.7838  
G01 X-0.8185 Y0.7783  
G01 X-0.8233 Y0.7735  
G01 X-0.8288 Y0.7698  
G01 X-0.8351 Y0.7672  
G01 X-0.8359 Y0.7670  
G01 X-0.8359 Y0.5285  
G01 X-0.8199 Y0.5125  
G01 X-0.8199 Y0.4875  
G01 X-0.8375 Y0.4699  
G01 X-0.8625 Y0.4699  
G00 Z0.1000  
G00 X-0.8121 Y0.4624  
G01 Z-0.0020 F10    
G01 X-0.8121 Y0.5296  F20    
G01 X-0.8113 Y0.5327  
G01 X-0.8097 Y0.5354  
G01 X-0.8074 Y0.5377  
G01 X-0.7961 Y0.5490  
G01 X-0.7961 Y0.8110  
G01 X-0.8370 Y0.8519  
G01 X-0.8590 Y0.8519  
G01 X-0.9526 Y0.7583  
G01 X-0.9553 Y0.7567  
G01 X-0.9584 Y0.7559  
G01 X-1.8350 Y0.7559  
G01 X-2.0199 Y0.5710  
G01 X-2.0199 Y0.5210  
G01 X-2.0211 Y0.5152  
G01 X-2.0233 Y0.5097  
G01 X-2.0266 Y0.5048  
G01 X-2.0308 Y0.5006  
G01 X-2.0357 Y0.4973  
G01 X-2.0412 Y0.4951  
G01 X-2.0470 Y0.4939  
G01 X-2.0530 Y0.4939  
G01 X-2.0588 Y0.4951  
G01 X-2.0643 Y0.4973  
G01 X-2.0692 Y0.5006  
G01 X-2.0734 Y0.5048  
G01 X-2.0767 Y0.5097  
G01 X-2.0789 Y0.5152  
G01 X-2.0801 Y0.5210  
G01 X-2.0801 Y0.5790  
G01 X-2.0789 Y0.5848  
G01 X-2.0767 Y0.5903  
G01 X-2.0734 Y0.5952  
G01 X-2.0692 Y0.5994  
G01 X-2.0643 Y0.6027  
G01 X-2.0588 Y0.6049  
G01 X-2.0530 Y0.6061  
G01 X-2.0470 Y0.6061  
G01 X-2.0412 Y0.6049  
G01 X-2.0357 Y0.6027  
G01 X-2.0308 Y0.5994  
G01 X-2.0283 Y0.5968  
G01 X-1.8497 Y0.7754  
G01 X-1.8474 Y0.7777  
G01 X-1.8447 Y0.7793  
G01 X-1.8416 Y0.7801  
G01 X-0.9650 Y0.7801  
G01 X-0.8737 Y0.8714  
G01 X-0.8714 Y0.8737  
G01 X-0.8687 Y0.8753  
G01 X-0.8656 Y0.8761  
G01 X-0.8304 Y0.8761  
G01 X-0.8273 Y0.8753  
G01 X-0.8246 Y0.8737  
G01 X-0.7743 Y0.8234  
G01 X-0.7727 Y0.8207  
G01 X-0.7719 Y0.8176  
G01 X-0.7719 Y0.5424  
G01 X-0.7727 Y0.5393  
G01 X-0.7743 Y0.5366  
G01 X-0.7879 Y0.5230  
G01 X-0.7879 Y0.4690  
G01 X-0.7790 Y0.4601  
G01 X-0.6130 Y0.4601  
G01 X-0.5801 Y0.4930  
G01 X-0.5801 Y0.5125  
G01 X-0.5625 Y0.5301  
G01 X-0.5561 Y0.5301  
G01 X-0.5561 Y0.6256  
G01 X-0.5553 Y0.6287  
G01 X-0.5537 Y0.6314  
G01 X-0.3890 Y0.7961  
G01 X-0.3891 Y0.7966  
G01 X-0.3891 Y0.8034  
G01 X-0.3878 Y0.8099  
G01 X-0.3852 Y0.8162  
G01 X-0.3815 Y0.8217  
G01 X-0.3767 Y0.8265  
G01 X-0.3712 Y0.8302  
G01 X-0.3649 Y0.8328  
G01 X-0.3584 Y0.8341  
G01 X-0.3516 Y0.8341  
G01 X-0.3451 Y0.8328  
G01 X-0.3388 Y0.8302  
G01 X-0.3333 Y0.8265  
G01 X-0.3285 Y0.8217  
G01 X-0.3248 Y0.8162  
G01 X-0.3222 Y0.8099  
G01 X-0.3209 Y0.8034  
G01 X-0.3209 Y0.7966  
G01 X-0.3222 Y0.7901  
G01 X-0.3248 Y0.7838  
G01 X-0.3285 Y0.7783  
G01 X-0.3333 Y0.7735  
G01 X-0.3388 Y0.7698  
G01 X-0.3451 Y0.7672  
G01 X-0.3516 Y0.7659  
G01 X-0.3584 Y0.7659  
G01 X-0.3649 Y0.7672  
G01 X-0.3712 Y0.7698  
G01 X-0.3767 Y0.7735  
G01 X-0.3771 Y0.7738  
G01 X-0.5319 Y0.6190  
G01 X-0.5319 Y0.5245  
G01 X-0.5199 Y0.5125  
G01 X-0.5199 Y0.4875  
G01 X-0.5375 Y0.4699  
G01 X-0.5625 Y0.4699  
G01 X-0.5657 Y0.4732  
G01 X-0.6006 Y0.4383  
G01 X-0.6033 Y0.4367  
G01 X-0.6064 Y0.4359  
G01 X-0.7856 Y0.4359  
G01 X-0.7887 Y0.4367  
G01 X-0.7914 Y0.4383  
G01 X-0.7937 Y0.4406  
G01 X-0.8097 Y0.4566  
G01 X-0.8113 Y0.4593  
G01 X-0.8121 Y0.4624  
G00 Z0.1000  
G00 X-1.1266 Y0.5048  
G01 Z-0.0020 F10    
G01 X-1.1308 Y0.5006  F20    
G01 X-1.1357 Y0.4973  
G01 X-1.1412 Y0.4951  
G01 X-1.1470 Y0.4939  
G01 X-1.1530 Y0.4939  
G01 X-1.1588 Y0.4951  
G01 X-1.1643 Y0.4973  
G01 X-1.1692 Y0.5006  
G01 X-1.1734 Y0.5048  
G01 X-1.1767 Y0.5097  
G01 X-1.1789 Y0.5152  
G01 X-1.1801 Y0.5210  
G01 X-1.1801 Y0.5790  
G01 X-1.1789 Y0.5848  
G01 X-1.1767 Y0.5903  
G01 X-1.1734 Y0.5952  
G01 X-1.1692 Y0.5994  
G01 X-1.1643 Y0.6027  
G01 X-1.1588 Y0.6049  
G01 X-1.1530 Y0.6061  
G01 X-1.1470 Y0.6061  
G01 X-1.1412 Y0.6049  
G01 X-1.1357 Y0.6027  
G01 X-1.1308 Y0.5994  
G01 X-1.1266 Y0.5952  
G01 X-1.1233 Y0.5903  
G01 X-1.1211 Y0.5848  
G01 X-1.1199 Y0.5790  
G01 X-1.1199 Y0.5210  
G01 X-1.1211 Y0.5152  
G01 X-1.1233 Y0.5097  
G01 X-1.1266 Y0.5048  
G00 Z0.1000  
G00 X-1.2266 Y0.5048  
G01 Z-0.0020 F10    
G01 X-1.2308 Y0.5006  F20    
G01 X-1.2357 Y0.4973  
G01 X-1.2412 Y0.4951  
G01 X-1.2470 Y0.4939  
G01 X-1.2530 Y0.4939  
G01 X-1.2588 Y0.4951  
G01 X-1.2643 Y0.4973  
G01 X-1.2692 Y0.5006  
G01 X-1.2734 Y0.5048  
G01 X-1.2767 Y0.5097  
G01 X-1.2789 Y0.5152  
G01 X-1.2801 Y0.5210  
G01 X-1.2801 Y0.5790  
G01 X-1.2789 Y0.5848  
G01 X-1.2767 Y0.5903  
G01 X-1.2734 Y0.5952  
G01 X-1.2692 Y0.5994  
G01 X-1.2643 Y0.6027  
G01 X-1.2588 Y0.6049  
G01 X-1.2530 Y0.6061  
G01 X-1.2470 Y0.6061  
G01 X-1.2412 Y0.6049  
G01 X-1.2357 Y0.6027  
G01 X-1.2308 Y0.5994  
G01 X-1.2266 Y0.5952  
G01 X-1.2233 Y0.5903  
G01 X-1.2211 Y0.5848  
G01 X-1.2199 Y0.5790  
G01 X-1.2199 Y0.5210  
G01 X-1.2211 Y0.5152  
G01 X-1.2233 Y0.5097  
G01 X-1.2266 Y0.5048  
G00 Z0.1000  
G00 X-1.3266 Y0.5048  
G01 Z-0.0020 F10    
G01 X-1.3308 Y0.5006  F20    
G01 X-1.3357 Y0.4973  
G01 X-1.3412 Y0.4951  
G01 X-1.3470 Y0.4939  
G01 X-1.3530 Y0.4939  
G01 X-1.3588 Y0.4951  
G01 X-1.3643 Y0.4973  
G01 X-1.3692 Y0.5006  
G01 X-1.3734 Y0.5048  
G01 X-1.3767 Y0.5097  
G01 X-1.3789 Y0.5152  
G01 X-1.3801 Y0.5210  
G01 X-1.3801 Y0.5790  
G01 X-1.3789 Y0.5848  
G01 X-1.3767 Y0.5903  
G01 X-1.3734 Y0.5952  
G01 X-1.3692 Y0.5994  
G01 X-1.3643 Y0.6027  
G01 X-1.3588 Y0.6049  
G01 X-1.3530 Y0.6061  
G01 X-1.3470 Y0.6061  
G01 X-1.3412 Y0.6049  
G01 X-1.3357 Y0.6027  
G01 X-1.3308 Y0.5994  
G01 X-1.3266 Y0.5952  
G01 X-1.3233 Y0.5903  
G01 X-1.3211 Y0.5848  
G01 X-1.3199 Y0.5790  
G01 X-1.3199 Y0.5210  
G01 X-1.3211 Y0.5152  
G01 X-1.3233 Y0.5097  
G01 X-1.3266 Y0.5048  
G00 Z0.1000  
G00 X-1.4266 Y0.5048  
G01 Z-0.0020 F10    
G01 X-1.4308 Y0.5006  F20    
G01 X-1.4357 Y0.4973  
G01 X-1.4412 Y0.4951  
G01 X-1.4470 Y0.4939  
G01 X-1.4530 Y0.4939  
G01 X-1.4588 Y0.4951  
G01 X-1.4643 Y0.4973  
G01 X-1.4692 Y0.5006  
G01 X-1.4734 Y0.5048  
G01 X-1.4767 Y0.5097  
G01 X-1.4789 Y0.5152  
G01 X-1.4801 Y0.5210  
G01 X-1.4801 Y0.5790  
G01 X-1.4789 Y0.5848  
G01 X-1.4767 Y0.5903  
G01 X-1.4734 Y0.5952  
G01 X-1.4692 Y0.5994  
G01 X-1.4643 Y0.6027  
G01 X-1.4588 Y0.6049  
G01 X-1.4530 Y0.6061  
G01 X-1.4470 Y0.6061  
G01 X-1.4412 Y0.6049  
G01 X-1.4357 Y0.6027  
G01 X-1.4308 Y0.5994  
G01 X-1.4266 Y0.5952  
G01 X-1.4233 Y0.5903  
G01 X-1.4211 Y0.5848  
G01 X-1.4199 Y0.5790  
G01 X-1.4199 Y0.5210  
G01 X-1.4211 Y0.5152  
G01 X-1.4233 Y0.5097  
G01 X-1.4266 Y0.5048  
G00 Z0.1000  
G00 X-1.5266 Y0.5048  
G01 Z-0.0020 F10    
G01 X-1.5308 Y0.5006  F20    
G01 X-1.5357 Y0.4973  
G01 X-1.5412 Y0.4951  
G01 X-1.5470 Y0.4939  
G01 X-1.5530 Y0.4939  
G01 X-1.5588 Y0.4951  
G01 X-1.5643 Y0.4973  
G01 X-1.5692 Y0.5006  
G01 X-1.5734 Y0.5048  
G01 X-1.5767 Y0.5097  
G01 X-1.5789 Y0.5152  
G01 X-1.5801 Y0.5210  
G01 X-1.5801 Y0.5790  
G01 X-1.5789 Y0.5848  
G01 X-1.5767 Y0.5903  
G01 X-1.5734 Y0.5952  
G01 X-1.5692 Y0.5994  
G01 X-1.5643 Y0.6027  
G01 X-1.5588 Y0.6049  
G01 X-1.5530 Y0.6061  
G01 X-1.5470 Y0.6061  
G01 X-1.5412 Y0.6049  
G01 X-1.5357 Y0.6027  
G01 X-1.5308 Y0.5994  
G01 X-1.5266 Y0.5952  
G01 X-1.5233 Y0.5903  
G01 X-1.5211 Y0.5848  
G01 X-1.5199 Y0.5790  
G01 X-1.5199 Y0.5210  
G01 X-1.5211 Y0.5152  
G01 X-1.5233 Y0.5097  
G01 X-1.5266 Y0.5048  
G00 Z0.1000  
G00 X-1.6266 Y0.5048  
G01 Z-0.0020 F10    
G01 X-1.6308 Y0.5006  F20    
G01 X-1.6357 Y0.4973  
G01 X-1.6412 Y0.4951  
G01 X-1.6470 Y0.4939  
G01 X-1.6530 Y0.4939  
G01 X-1.6588 Y0.4951  
G01 X-1.6643 Y0.4973  
G01 X-1.6692 Y0.5006  
G01 X-1.6734 Y0.5048  
G01 X-1.6767 Y0.5097  
G01 X-1.6789 Y0.5152  
G01 X-1.6801 Y0.5210  
G01 X-1.6801 Y0.5790  
G01 X-1.6789 Y0.5848  
G01 X-1.6767 Y0.5903  
G01 X-1.6734 Y0.5952  
G01 X-1.6692 Y0.5994  
G01 X-1.6643 Y0.6027  
G01 X-1.6588 Y0.6049  
G01 X-1.6530 Y0.6061  
G01 X-1.6470 Y0.6061  
G01 X-1.6412 Y0.6049  
G01 X-1.6357 Y0.6027  
G01 X-1.6308 Y0.5994  
G01 X-1.6266 Y0.5952  
G01 X-1.6233 Y0.5903  
G01 X-1.6211 Y0.5848  
G01 X-1.6199 Y0.5790  
G01 X-1.6199 Y0.5210  
G01 X-1.6211 Y0.5152  
G01 X-1.6233 Y0.5097  
G01 X-1.6266 Y0.5048  
G00 Z0.1000  
G00 X-1.6266 Y0.8048  
G01 Z-0.0020 F10    
G01 X-1.6308 Y0.8006  F20    
G01 X-1.6357 Y0.7973  
G01 X-1.6412 Y0.7951  
G01 X-1.6470 Y0.7939  
G01 X-1.6530 Y0.7939  
G01 X-1.6588 Y0.7951  
G01 X-1.6643 Y0.7973  
G01 X-1.6692 Y0.8006  
G01 X-1.6734 Y0.8048  
G01 X-1.6767 Y0.8097  
G01 X-1.6789 Y0.8152  
G01 X-1.6801 Y0.8210  
G01 X-1.6801 Y0.8790  
G01 X-1.6789 Y0.8848  
G01 X-1.6767 Y0.8903  
G01 X-1.6734 Y0.8952  
G01 X-1.6692 Y0.8994  
G01 X-1.6643 Y0.9027  
G01 X-1.6588 Y0.9049  
G01 X-1.6530 Y0.9061  
G01 X-1.6470 Y0.9061  
G01 X-1.6412 Y0.9049  
G01 X-1.6357 Y0.9027  
G01 X-1.6308 Y0.8994  
G01 X-1.6266 Y0.8952  
G01 X-1.6233 Y0.8903  
G01 X-1.6211 Y0.8848  
G01 X-1.6199 Y0.8790  
G01 X-1.6199 Y0.8210  
G01 X-1.6211 Y0.8152  
G01 X-1.6233 Y0.8097  
G01 X-1.6266 Y0.8048  
G00 Z0.1000  
G00 X-1.5734 Y0.8048  
G01 Z-0.0020 F10    
G01 X-1.5767 Y0.8097  F20    
G01 X-1.5789 Y0.8152  
G01 X-1.5801 Y0.8210  
G01 X-1.5801 Y0.8790  
G01 X-1.5789 Y0.8848  
G01 X-1.5767 Y0.8903  
G01 X-1.5734 Y0.8952  
G01 X-1.5692 Y0.8994  
G01 X-1.5643 Y0.9027  
G01 X-1.5588 Y0.9049  
G01 X-1.5530 Y0.9061  
G01 X-1.5470 Y0.9061  
G01 X-1.5412 Y0.9049  
G01 X-1.5357 Y0.9027  
G01 X-1.5308 Y0.8994  
G01 X-1.5266 Y0.8952  
G01 X-1.5233 Y0.8903  
G01 X-1.5211 Y0.8848  
G01 X-1.5199 Y0.8790  
G01 X-1.5199 Y0.8210  
G01 X-1.5211 Y0.8152  
G01 X-1.5233 Y0.8097  
G01 X-1.5266 Y0.8048  
G01 X-1.5308 Y0.8006  
G01 X-1.5357 Y0.7973  
G01 X-1.5412 Y0.7951  
G01 X-1.5470 Y0.7939  
G01 X-1.5530 Y0.7939  
G01 X-1.5588 Y0.7951  
G01 X-1.5643 Y0.7973  
G01 X-1.5692 Y0.8006  
G01 X-1.5734 Y0.8048  
G00 Z0.1000  
G00 X-1.4734 Y0.8048  
G01 Z-0.0020 F10    
G01 X-1.4767 Y0.8097  F20    
G01 X-1.4789 Y0.8152  
G01 X-1.4801 Y0.8210  
G01 X-1.4801 Y0.8790  
G01 X-1.4789 Y0.8848  
G01 X-1.4767 Y0.8903  
G01 X-1.4734 Y0.8952  
G01 X-1.4692 Y0.8994  
G01 X-1.4643 Y0.9027  
G01 X-1.4588 Y0.9049  
G01 X-1.4530 Y0.9061  
G01 X-1.4470 Y0.9061  
G01 X-1.4412 Y0.9049  
G01 X-1.4357 Y0.9027  
G01 X-1.4308 Y0.8994  
G01 X-1.4266 Y0.8952  
G01 X-1.4233 Y0.8903  
G01 X-1.4211 Y0.8848  
G01 X-1.4199 Y0.8790  
G01 X-1.4199 Y0.8210  
G01 X-1.4211 Y0.8152  
G01 X-1.4233 Y0.8097  
G01 X-1.4266 Y0.8048  
G01 X-1.4308 Y0.8006  
G01 X-1.4357 Y0.7973  
G01 X-1.4412 Y0.7951  
G01 X-1.4470 Y0.7939  
G01 X-1.4530 Y0.7939  
G01 X-1.4588 Y0.7951  
G01 X-1.4643 Y0.7973  
G01 X-1.4692 Y0.8006  
G01 X-1.4734 Y0.8048  
G00 Z0.1000  
G00 X-1.3734 Y0.8048  
G01 Z-0.0020 F10    
G01 X-1.3767 Y0.8097  F20    
G01 X-1.3789 Y0.8152  
G01 X-1.3801 Y0.8210  
G01 X-1.3801 Y0.8790  
G01 X-1.3789 Y0.8848  
G01 X-1.3767 Y0.8903  
G01 X-1.3734 Y0.8952  
G01 X-1.3692 Y0.8994  
G01 X-1.3643 Y0.9027  
G01 X-1.3588 Y0.9049  
G01 X-1.3530 Y0.9061  
G01 X-1.3470 Y0.9061  
G01 X-1.3412 Y0.9049  
G01 X-1.3357 Y0.9027  
G01 X-1.3308 Y0.8994  
G01 X-1.3266 Y0.8952  
G01 X-1.3233 Y0.8903  
G01 X-1.3211 Y0.8848  
G01 X-1.3199 Y0.8790  
G01 X-1.3199 Y0.8210  
G01 X-1.3211 Y0.8152  
G01 X-1.3233 Y0.8097  
G01 X-1.3266 Y0.8048  
G01 X-1.3308 Y0.8006  
G01 X-1.3357 Y0.7973  
G01 X-1.3412 Y0.7951  
G01 X-1.3470 Y0.7939  
G01 X-1.3530 Y0.7939  
G01 X-1.3588 Y0.7951  
G01 X-1.3643 Y0.7973  
G01 X-1.3692 Y0.8006  
G01 X-1.3734 Y0.8048  
G00 Z0.1000  
G00 X-1.2734 Y0.8048  
G01 Z-0.0020 F10    
G01 X-1.2767 Y0.8097  F20    
G01 X-1.2789 Y0.8152  
G01 X-1.2801 Y0.8210  
G01 X-1.2801 Y0.8790  
G01 X-1.2789 Y0.8848  
G01 X-1.2767 Y0.8903  
G01 X-1.2734 Y0.8952  
G01 X-1.2692 Y0.8994  
G01 X-1.2643 Y0.9027  
G01 X-1.2588 Y0.9049  
G01 X-1.2530 Y0.9061  
G01 X-1.2470 Y0.9061  
G01 X-1.2412 Y0.9049  
G01 X-1.2357 Y0.9027  
G01 X-1.2308 Y0.8994  
G01 X-1.2266 Y0.8952  
G01 X-1.2233 Y0.8903  
G01 X-1.2211 Y0.8848  
G01 X-1.2199 Y0.8790  
G01 X-1.2199 Y0.8210  
G01 X-1.2211 Y0.8152  
G01 X-1.2233 Y0.8097  
G01 X-1.2266 Y0.8048  
G01 X-1.2308 Y0.8006  
G01 X-1.2357 Y0.7973  
G01 X-1.2412 Y0.7951  
G01 X-1.2470 Y0.7939  
G01 X-1.2530 Y0.7939  
G01 X-1.2588 Y0.7951  
G01 X-1.2643 Y0.7973  
G01 X-1.2692 Y0.8006  
G01 X-1.2734 Y0.8048  
G00 Z0.1000  
G00 X-1.1734 Y0.8048  
G01 Z-0.0020 F10    
G01 X-1.1767 Y0.8097  F20    
G01 X-1.1789 Y0.8152  
G01 X-1.1801 Y0.8210  
G01 X-1.1801 Y0.8790  
G01 X-1.1789 Y0.8848  
G01 X-1.1767 Y0.8903  
G01 X-1.1734 Y0.8952  
G01 X-1.1692 Y0.8994  
G01 X-1.1643 Y0.9027  
G01 X-1.1588 Y0.9049  
G01 X-1.1530 Y0.9061  
G01 X-1.1470 Y0.9061  
G01 X-1.1412 Y0.9049  
G01 X-1.1357 Y0.9027  
G01 X-1.1308 Y0.8994  
G01 X-1.1266 Y0.8952  
G01 X-1.1233 Y0.8903  
G01 X-1.1211 Y0.8848  
G01 X-1.1199 Y0.8790  
G01 X-1.1199 Y0.8210  
G01 X-1.1211 Y0.8152  
G01 X-1.1233 Y0.8097  
G01 X-1.1266 Y0.8048  
G01 X-1.1308 Y0.8006  
G01 X-1.1357 Y0.7973  
G01 X-1.1412 Y0.7951  
G01 X-1.1470 Y0.7939  
G01 X-1.1530 Y0.7939  
G01 X-1.1588 Y0.7951  
G01 X-1.1643 Y0.7973  
G01 X-1.1692 Y0.8006  
G01 X-1.1734 Y0.8048  
G00 Z0.1000  
G00 X-1.8266 Y0.8048  
G01 Z-0.0020 F10    
G01 X-1.8308 Y0.8006  F20    
G01 X-1.8357 Y0.7973  
G01 X-1.8412 Y0.7951  
G01 X-1.8470 Y0.7939  
G01 X-1.8530 Y0.7939  
G01 X-1.8588 Y0.7951  
G01 X-1.8643 Y0.7973  
G01 X-1.8692 Y0.8006  
G01 X-1.8734 Y0.8048  
G01 X-1.8767 Y0.8097  
G01 X-1.8789 Y0.8152  
G01 X-1.8801 Y0.8210  
G01 X-1.8801 Y0.8790  
G01 X-1.8789 Y0.8848  
G01 X-1.8767 Y0.8903  
G01 X-1.8734 Y0.8952  
G01 X-1.8692 Y0.8994  
G01 X-1.8643 Y0.9027  
G01 X-1.8588 Y0.9049  
G01 X-1.8530 Y0.9061  
G01 X-1.8470 Y0.9061  
G01 X-1.8412 Y0.9049  
G01 X-1.8357 Y0.9027  
G01 X-1.8308 Y0.8994  
G01 X-1.8266 Y0.8952  
G01 X-1.8233 Y0.8903  
G01 X-1.8211 Y0.8848  
G01 X-1.8199 Y0.8790  
G01 X-1.8199 Y0.8210  
G01 X-1.8211 Y0.8152  
G01 X-1.8233 Y0.8097  
G01 X-1.8266 Y0.8048  
G00 Z0.1000  
G00 X-1.9266 Y0.8048  
G01 Z-0.0020 F10    
G01 X-1.9308 Y0.8006  F20    
G01 X-1.9357 Y0.7973  
G01 X-1.9412 Y0.7951  
G01 X-1.9470 Y0.7939  
G01 X-1.9530 Y0.7939  
G01 X-1.9588 Y0.7951  
G01 X-1.9643 Y0.7973  
G01 X-1.9692 Y0.8006  
G01 X-1.9734 Y0.8048  
G01 X-1.9767 Y0.8097  
G01 X-1.9789 Y0.8152  
G01 X-1.9801 Y0.8210  
G01 X-1.9801 Y0.8790  
G01 X-1.9789 Y0.8848  
G01 X-1.9767 Y0.8903  
G01 X-1.9734 Y0.8952  
G01 X-1.9692 Y0.8994  
G01 X-1.9643 Y0.9027  
G01 X-1.9588 Y0.9049  
G01 X-1.9530 Y0.9061  
G01 X-1.9470 Y0.9061  
G01 X-1.9412 Y0.9049  
G01 X-1.9357 Y0.9027  
G01 X-1.9308 Y0.8994  
G01 X-1.9266 Y0.8952  
G01 X-1.9233 Y0.8903  
G01 X-1.9211 Y0.8848  
G01 X-1.9199 Y0.8790  
G01 X-1.9199 Y0.8210  
G01 X-1.9211 Y0.8152  
G01 X-1.9233 Y0.8097  
G01 X-1.9266 Y0.8048  
G00 Z0.1000  
G00 X-2.0266 Y0.8048  
G01 Z-0.0020 F10    
G01 X-2.0308 Y0.8006  F20    
G01 X-2.0357 Y0.7973  
G01 X-2.0412 Y0.7951  
G01 X-2.0470 Y0.7939  
G01 X-2.0530 Y0.7939  
G01 X-2.0588 Y0.7951  
G01 X-2.0643 Y0.7973  
G01 X-2.0692 Y0.8006  
G01 X-2.0734 Y0.8048  
G01 X-2.0767 Y0.8097  
G01 X-2.0789 Y0.8152  
G01 X-2.0801 Y0.8210  
G01 X-2.0801 Y0.8790  
G01 X-2.0789 Y0.8848  
G01 X-2.0767 Y0.8903  
G01 X-2.0734 Y0.8952  
G01 X-2.0692 Y0.8994  
G01 X-2.0643 Y0.9027  
G01 X-2.0588 Y0.9049  
G01 X-2.0530 Y0.9061  
G01 X-2.0470 Y0.9061  
G01 X-2.0412 Y0.9049  
G01 X-2.0357 Y0.9027  
G01 X-2.0308 Y0.8994  
G01 X-2.0266 Y0.8952  
G01 X-2.0233 Y0.8903  
G01 X-2.0211 Y0.8848  
G01 X-2.0199 Y0.8790  
G01 X-2.0199 Y0.8210  
G01 X-2.0211 Y0.8152  
G01 X-2.0233 Y0.8097  
G01 X-2.0266 Y0.8048  
G00 Z0.1000  
G00 X-2.1266 Y0.8048  
G01 Z-0.0020 F10    
G01 X-2.1308 Y0.8006  F20    
G01 X-2.1357 Y0.7973  
G01 X-2.1412 Y0.7951  
G01 X-2.1470 Y0.7939  
G01 X-2.1530 Y0.7939  
G01 X-2.1588 Y0.7951  
G01 X-2.1643 Y0.7973  
G01 X-2.1692 Y0.8006  
G01 X-2.1734 Y0.8048  
G01 X-2.1767 Y0.8097  
G01 X-2.1789 Y0.8152  
G01 X-2.1801 Y0.8210  
G01 X-2.1801 Y0.8790  
G01 X-2.1789 Y0.8848  
G01 X-2.1767 Y0.8903  
G01 X-2.1734 Y0.8952  
G01 X-2.1692 Y0.8994  
G01 X-2.1643 Y0.9027  
G01 X-2.1588 Y0.9049  
G01 X-2.1530 Y0.9061  
G01 X-2.1470 Y0.9061  
G01 X-2.1412 Y0.9049  
G01 X-2.1357 Y0.9027  
G01 X-2.1308 Y0.8994  
G01 X-2.1266 Y0.8952  
G01 X-2.1233 Y0.8903  
G01 X-2.1211 Y0.8848  
G01 X-2.1199 Y0.8790  
G01 X-2.1199 Y0.8210  
G01 X-2.1211 Y0.8152  
G01 X-2.1233 Y0.8097  
G01 X-2.1266 Y0.8048  
G00 Z0.1000  
G00 X-2.2266 Y0.8048  
G01 Z-0.0020 F10    
G01 X-2.2308 Y0.8006  F20    
G01 X-2.2357 Y0.7973  
G01 X-2.2412 Y0.7951  
G01 X-2.2470 Y0.7939  
G01 X-2.2530 Y0.7939  
G01 X-2.2588 Y0.7951  
G01 X-2.2643 Y0.7973  
G01 X-2.2692 Y0.8006  
G01 X-2.2734 Y0.8048  
G01 X-2.2767 Y0.8097  
G01 X-2.2789 Y0.8152  
G01 X-2.2801 Y0.8210  
G01 X-2.2801 Y0.8790  
G01 X-2.2789 Y0.8848  
G01 X-2.2767 Y0.8903  
G01 X-2.2734 Y0.8952  
G01 X-2.2692 Y0.8994  
G01 X-2.2643 Y0.9027  
G01 X-2.2588 Y0.9049  
G01 X-2.2530 Y0.9061  
G01 X-2.2470 Y0.9061  
G01 X-2.2412 Y0.9049  
G01 X-2.2357 Y0.9027  
G01 X-2.2308 Y0.8994  
G01 X-2.2266 Y0.8952  
G01 X-2.2233 Y0.8903  
G01 X-2.2211 Y0.8848  
G01 X-2.2199 Y0.8790  
G01 X-2.2199 Y0.8210  
G01 X-2.2211 Y0.8152  
G01 X-2.2233 Y0.8097  
G01 X-2.2266 Y0.8048  
G00 Z0.1000  
G00 X-2.3266 Y0.8048  
G01 Z-0.0020 F10    
G01 X-2.3308 Y0.8006  F20    
G01 X-2.3357 Y0.7973  
G01 X-2.3412 Y0.7951  
G01 X-2.3470 Y0.7939  
G01 X-2.3530 Y0.7939  
G01 X-2.3588 Y0.7951  
G01 X-2.3643 Y0.7973  
G01 X-2.3692 Y0.8006  
G01 X-2.3734 Y0.8048  
G01 X-2.3767 Y0.8097  
G01 X-2.3789 Y0.8152  
G01 X-2.3801 Y0.8210  
G01 X-2.3801 Y0.8790  
G01 X-2.3789 Y0.8848  
G01 X-2.3767 Y0.8903  
G01 X-2.3734 Y0.8952  
G01 X-2.3692 Y0.8994  
G01 X-2.3643 Y0.9027  
G01 X-2.3588 Y0.9049  
G01 X-2.3530 Y0.9061  
G01 X-2.3470 Y0.9061  
G01 X-2.3412 Y0.9049  
G01 X-2.3357 Y0.9027  
G01 X-2.3308 Y0.8994  
G01 X-2.3266 Y0.8952  
G01 X-2.3233 Y0.8903  
G01 X-2.3211 Y0.8848  
G01 X-2.3199 Y0.8790  
G01 X-2.3199 Y0.8210  
G01 X-2.3211 Y0.8152  
G01 X-2.3233 Y0.8097  
G01 X-2.3266 Y0.8048  
G00 Z0.1000  
G00 X-2.4266 Y0.8048  
G01 Z-0.0020 F10    
G01 X-2.4308 Y0.8006  F20    
G01 X-2.4357 Y0.7973  
G01 X-2.4412 Y0.7951  
G01 X-2.4470 Y0.7939  
G01 X-2.4530 Y0.7939  
G01 X-2.4588 Y0.7951  
G01 X-2.4643 Y0.7973  
G01 X-2.4692 Y0.8006  
G01 X-2.4734 Y0.8048  
G01 X-2.4767 Y0.8097  
G01 X-2.4789 Y0.8152  
G01 X-2.4801 Y0.8210  
G01 X-2.4801 Y0.8790  
G01 X-2.4789 Y0.8848  
G01 X-2.4767 Y0.8903  
G01 X-2.4734 Y0.8952  
G01 X-2.4692 Y0.8994  
G01 X-2.4643 Y0.9027  
G01 X-2.4588 Y0.9049  
G01 X-2.4530 Y0.9061  
G01 X-2.4470 Y0.9061  
G01 X-2.4412 Y0.9049  
G01 X-2.4357 Y0.9027  
G01 X-2.4308 Y0.8994  
G01 X-2.4266 Y0.8952  
G01 X-2.4233 Y0.8903  
G01 X-2.4211 Y0.8848  
G01 X-2.4199 Y0.8790  
G01 X-2.4199 Y0.8210  
G01 X-2.4211 Y0.8152  
G01 X-2.4233 Y0.8097  
G01 X-2.4266 Y0.8048  
G00 Z0.1000  
G00 X-2.4308 Y0.5994  
G01 Z-0.0020 F10    
G01 X-2.4266 Y0.5952  F20    
G01 X-2.4233 Y0.5903  
G01 X-2.4211 Y0.5848  
G01 X-2.4199 Y0.5790  
G01 X-2.4199 Y0.5210  
G01 X-2.4211 Y0.5152  
G01 X-2.4233 Y0.5097  
G01 X-2.4266 Y0.5048  
G01 X-2.4308 Y0.5006  
G01 X-2.4357 Y0.4973  
G01 X-2.4412 Y0.4951  
G01 X-2.4470 Y0.4939  
G01 X-2.4530 Y0.4939  
G01 X-2.4588 Y0.4951  
G01 X-2.4643 Y0.4973  
G01 X-2.4692 Y0.5006  
G01 X-2.4734 Y0.5048  
G01 X-2.4767 Y0.5097  
G01 X-2.4789 Y0.5152  
G01 X-2.4801 Y0.5210  
G01 X-2.4801 Y0.5790  
G01 X-2.4789 Y0.5848  
G01 X-2.4767 Y0.5903  
G01 X-2.4734 Y0.5952  
G01 X-2.4692 Y0.5994  
G01 X-2.4643 Y0.6027  
G01 X-2.4588 Y0.6049  
G01 X-2.4530 Y0.6061  
G01 X-2.4470 Y0.6061  
G01 X-2.4412 Y0.6049  
G01 X-2.4357 Y0.6027  
G01 X-2.4308 Y0.5994  
G00 Z0.1000  
G00 X-2.3734 Y0.5952  
G01 Z-0.0020 F10    
G01 X-2.3692 Y0.5994  F20    
G01 X-2.3643 Y0.6027  
G01 X-2.3588 Y0.6049  
G01 X-2.3530 Y0.6061  
G01 X-2.3470 Y0.6061  
G01 X-2.3412 Y0.6049  
G01 X-2.3357 Y0.6027  
G01 X-2.3308 Y0.5994  
G01 X-2.3266 Y0.5952  
G01 X-2.3233 Y0.5903  
G01 X-2.3211 Y0.5848  
G01 X-2.3199 Y0.5790  
G01 X-2.3199 Y0.5210  
G01 X-2.3211 Y0.5152  
G01 X-2.3233 Y0.5097  
G01 X-2.3266 Y0.5048  
G01 X-2.3308 Y0.5006  
G01 X-2.3357 Y0.4973  
G01 X-2.3412 Y0.4951  
G01 X-2.3470 Y0.4939  
G01 X-2.3530 Y0.4939  
G01 X-2.3588 Y0.4951  
G01 X-2.3643 Y0.4973  
G01 X-2.3692 Y0.5006  
G01 X-2.3734 Y0.5048  
G01 X-2.3767 Y0.5097  
G01 X-2.3789 Y0.5152  
G01 X-2.3801 Y0.5210  
G01 X-2.3801 Y0.5790  
G01 X-2.3789 Y0.5848  
G01 X-2.3767 Y0.5903  
G01 X-2.3734 Y0.5952  
G00 Z0.1000  
G00 X-2.2734 Y0.5952  
G01 Z-0.0020 F10    
G01 X-2.2692 Y0.5994  F20    
G01 X-2.2643 Y0.6027  
G01 X-2.2588 Y0.6049  
G01 X-2.2530 Y0.6061  
G01 X-2.2470 Y0.6061  
G01 X-2.2412 Y0.6049  
G01 X-2.2357 Y0.6027  
G01 X-2.2308 Y0.5994  
G01 X-2.2266 Y0.5952  
G01 X-2.2233 Y0.5903  
G01 X-2.2211 Y0.5848  
G01 X-2.2199 Y0.5790  
G01 X-2.2199 Y0.5210  
G01 X-2.2211 Y0.5152  
G01 X-2.2233 Y0.5097  
G01 X-2.2266 Y0.5048  
G01 X-2.2308 Y0.5006  
G01 X-2.2357 Y0.4973  
G01 X-2.2412 Y0.4951  
G01 X-2.2470 Y0.4939  
G01 X-2.2530 Y0.4939  
G01 X-2.2588 Y0.4951  
G01 X-2.2643 Y0.4973  
G01 X-2.2692 Y0.5006  
G01 X-2.2734 Y0.5048  
G01 X-2.2767 Y0.5097  
G01 X-2.2789 Y0.5152  
G01 X-2.2801 Y0.5210  
G01 X-2.2801 Y0.5790  
G01 X-2.2789 Y0.5848  
G01 X-2.2767 Y0.5903  
G01 X-2.2734 Y0.5952  
G00 Z0.1000  
G00 X-2.1734 Y0.5952  
G01 Z-0.0020 F10    
G01 X-2.1692 Y0.5994  F20    
G01 X-2.1643 Y0.6027  
G01 X-2.1588 Y0.6049  
G01 X-2.1530 Y0.6061  
G01 X-2.1470 Y0.6061  
G01 X-2.1412 Y0.6049  
G01 X-2.1357 Y0.6027  
G01 X-2.1308 Y0.5994  
G01 X-2.1266 Y0.5952  
G01 X-2.1233 Y0.5903  
G01 X-2.1211 Y0.5848  
G01 X-2.1199 Y0.5790  
G01 X-2.1199 Y0.5210  
G01 X-2.1211 Y0.5152  
G01 X-2.1233 Y0.5097  
G01 X-2.1266 Y0.5048  
G01 X-2.1308 Y0.5006  
G01 X-2.1357 Y0.4973  
G01 X-2.1412 Y0.4951  
G01 X-2.1470 Y0.4939  
G01 X-2.1530 Y0.4939  
G01 X-2.1588 Y0.4951  
G01 X-2.1643 Y0.4973  
G01 X-2.1692 Y0.5006  
G01 X-2.1734 Y0.5048  
G01 X-2.1767 Y0.5097  
G01 X-2.1789 Y0.5152  
G01 X-2.1801 Y0.5210  
G01 X-2.1801 Y0.5790  
G01 X-2.1789 Y0.5848  
G01 X-2.1767 Y0.5903  
G01 X-2.1734 Y0.5952  
G00 Z0.1000  
G00 X-0.2039 Y0.1309  
G01 Z-0.0020 F10    
G01 X-0.2309 Y0.1039  F20    
G01 X-0.2691 Y0.1039  
G01 X-0.2961 Y0.1309  
G01 X-0.2961 Y0.1691  
G01 X-0.2691 Y0.1961  
G01 X-0.2309 Y0.1961  
G01 X-0.2039 Y0.1691  
G01 X-0.2039 Y0.1309  
G00 Z0.1000  
G00 X-0.2039 Y0.2309  
G01 Z-0.0020 F10    
G01 X-0.2309 Y0.2039  F20    
G01 X-0.2691 Y0.2039  
G01 X-0.2961 Y0.2309  
G01 X-0.2961 Y0.2691  
G01 X-0.2691 Y0.2961  
G01 X-0.2309 Y0.2961  
G01 X-0.2039 Y0.2691  
G01 X-0.2039 Y0.2309  
G00 Z0.1000  
G00 X-0.3039 Y0.2309  
G01 Z-0.0020 F10    
G01 X-0.3309 Y0.2039  F20    
G01 X-0.3349 Y0.2039  
G01 X-0.3349 Y0.1961  
G01 X-0.3309 Y0.1961  
G01 X-0.3039 Y0.1691  
G01 X-0.3039 Y0.1309  
G01 X-0.3309 Y0.1039  
G01 X-0.3691 Y0.1039  
G01 X-0.3961 Y0.1309  
G01 X-0.3961 Y0.1429  
G01 X-0.4039 Y0.1429  
G01 X-0.4039 Y0.1309  
G01 X-0.4309 Y0.1039  
G01 X-0.4691 Y0.1039  
G01 X-0.4961 Y0.1309  
G01 X-0.4961 Y0.1691  
G01 X-0.4691 Y0.1961  
G01 X-0.4651 Y0.1961  
G01 X-0.4651 Y0.2039  
G01 X-0.4691 Y0.2039  
G01 X-0.4961 Y0.2309  
G01 X-0.4961 Y0.2389  
G01 X-0.5039 Y0.2389  
G01 X-0.5039 Y0.2309  
G01 X-0.5309 Y0.2039  
G01 X-0.5429 Y0.2039  
G01 X-0.5429 Y0.1961  
G01 X-0.5309 Y0.1961  
G01 X-0.5039 Y0.1691  
G01 X-0.5039 Y0.1309  
G01 X-0.5309 Y0.1039  
G01 X-0.5691 Y0.1039  
G01 X-0.5725 Y0.1073  
G01 X-0.6135 Y0.0663  
G01 X-0.6174 Y0.0641  
G01 X-0.6217 Y0.0629  
G01 X-1.3943 Y0.0629  
G01 X-1.3986 Y0.0641  
G01 X-1.4025 Y0.0663  
G01 X-1.4057 Y0.0695  
G01 X-1.8217 Y0.4855  
G01 X-1.8239 Y0.4894  
G01 X-1.8251 Y0.4937  
G01 X-1.8251 Y0.4993  
G01 X-1.8276 Y0.4967  
G01 X-1.8334 Y0.4929  
G01 X-1.8398 Y0.4902  
G01 X-1.8465 Y0.4889  
G01 X-1.8535 Y0.4889  
G01 X-1.8602 Y0.4902  
G01 X-1.8666 Y0.4929  
G01 X-1.8724 Y0.4967  
G01 X-1.8773 Y0.5016  
G01 X-1.8811 Y0.5074  
G01 X-1.8838 Y0.5138  
G01 X-1.8851 Y0.5205  
G01 X-1.8851 Y0.5795  
G01 X-1.8838 Y0.5862  
G01 X-1.8811 Y0.5926  
G01 X-1.8773 Y0.5984  
G01 X-1.8724 Y0.6033  
G01 X-1.8666 Y0.6071  
G01 X-1.8602 Y0.6098  
G01 X-1.8535 Y0.6111  
G01 X-1.8465 Y0.6111  
G01 X-1.8398 Y0.6098  
G01 X-1.8334 Y0.6071  
G01 X-1.8276 Y0.6033  
G01 X-1.8227 Y0.5984  
G01 X-1.8189 Y0.5926  
G01 X-1.8162 Y0.5862  
G01 X-1.8149 Y0.5795  
G01 X-1.8149 Y0.5431  
G01 X-1.7975 Y0.5257  
G01 X-1.7943 Y0.5225  
G01 X-1.7921 Y0.5186  
G01 X-1.7909 Y0.5143  
G01 X-1.7909 Y0.5031  
G01 X-1.3849 Y0.0971  
G01 X-0.6311 Y0.0971  
G01 X-0.5961 Y0.1321  
G01 X-0.5961 Y0.1691  
G01 X-0.5771 Y0.1881  
G01 X-0.5771 Y0.2119  
G01 X-0.5961 Y0.2309  
G01 X-0.5961 Y0.2691  
G01 X-0.5691 Y0.2961  
G01 X-0.5309 Y0.2961  
G01 X-0.5079 Y0.2731  
G01 X-0.4921 Y0.2731  
G01 X-0.4691 Y0.2961  
G01 X-0.4651 Y0.2961  
G01 X-0.4651 Y0.4655  
G01 X-0.4851 Y0.4855  
G01 X-0.4851 Y0.5145  
G01 X-0.4645 Y0.5351  
G01 X-0.4491 Y0.5351  
G01 X-0.3051 Y0.6791  
G01 X-0.3051 Y0.8089  
G01 X-0.3431 Y0.8469  
G01 X-0.3769 Y0.8469  
G01 X-0.5623 Y0.6615  
G01 X-0.7149 Y0.5089  
G01 X-0.7149 Y0.4855  
G01 X-0.7353 Y0.4651  
G01 X-0.6151 Y0.4651  
G01 X-0.5851 Y0.4951  
G01 X-0.5851 Y0.5145  
G01 X-0.5645 Y0.5351  
G01 X-0.5611 Y0.5351  
G01 X-0.5611 Y0.6263  
G01 X-0.5599 Y0.6306  
G01 X-0.5577 Y0.6345  
G01 X-0.3941 Y0.7981  
G01 X-0.3941 Y0.8039  
G01 X-0.3926 Y0.8114  
G01 X-0.3896 Y0.8185  
G01 X-0.3854 Y0.8249  
G01 X-0.3799 Y0.8304  
G01 X-0.3735 Y0.8346  
G01 X-0.3664 Y0.8376  
G01 X-0.3589 Y0.8391  
G01 X-0.3511 Y0.8391  
G01 X-0.3436 Y0.8376  
G01 X-0.3365 Y0.8346  
G01 X-0.3301 Y0.8304  
G01 X-0.3246 Y0.8249  
G01 X-0.3204 Y0.8185  
G01 X-0.3174 Y0.8114  
G01 X-0.3159 Y0.8039  
G01 X-0.3159 Y0.7961  
G01 X-0.3174 Y0.7886  
G01 X-0.3204 Y0.7815  
G01 X-0.3246 Y0.7751  
G01 X-0.3301 Y0.7696  
G01 X-0.3365 Y0.7654  
G01 X-0.3436 Y0.7624  
G01 X-0.3511 Y0.7609  
G01 X-0.3589 Y0.7609  
G01 X-0.3664 Y0.7624  
G01 X-0.3735 Y0.7654  
G01 X-0.3765 Y0.7673  
G01 X-0.5269 Y0.6169  
G01 X-0.5269 Y0.5265  
G01 X-0.5149 Y0.5145  
G01 X-0.5149 Y0.4855  
G01 X-0.5355 Y0.4649  
G01 X-0.5645 Y0.4649  
G01 X-0.5657 Y0.4661  
G01 X-0.5975 Y0.4343  
G01 X-0.6014 Y0.4321  
G01 X-0.6057 Y0.4309  
G01 X-0.7863 Y0.4309  
G01 X-0.7906 Y0.4321  
G01 X-0.7945 Y0.4343  
G01 X-0.7977 Y0.4375  
G01 X-0.8137 Y0.4535  
G01 X-0.8159 Y0.4574  
G01 X-0.8171 Y0.4617  
G01 X-0.8171 Y0.4833  
G01 X-0.8355 Y0.4649  
G01 X-0.8645 Y0.4649  
G01 X-0.8851 Y0.4855  
G01 X-0.8851 Y0.5145  
G01 X-0.8651 Y0.5345  
G01 X-0.8651 Y0.6229  
G01 X-1.8649 Y0.6229  
G01 X-1.8869 Y0.6009  
G01 X-1.8869 Y0.5897  
G01 X-1.8881 Y0.5854  
G01 X-1.8903 Y0.5815  
G01 X-1.8935 Y0.5783  
G01 X-1.9149 Y0.5569  
G01 X-1.9149 Y0.5205  
G01 X-1.9162 Y0.5138  
G01 X-1.9189 Y0.5074  
G01 X-1.9227 Y0.5016  
G01 X-1.9276 Y0.4967  
G01 X-1.9334 Y0.4929  
G01 X-1.9398 Y0.4902  
G01 X-1.9465 Y0.4889  
G01 X-1.9535 Y0.4889  
G01 X-1.9602 Y0.4902  
G01 X-1.9666 Y0.4929  
G01 X-1.9724 Y0.4967  
G01 X-1.9773 Y0.5016  
G01 X-1.9811 Y0.5074  
G01 X-1.9838 Y0.5138  
G01 X-1.9851 Y0.5205  
G01 X-1.9851 Y0.5795  
G01 X-1.9838 Y0.5862  
G01 X-1.9811 Y0.5926  
G01 X-1.9773 Y0.5984  
G01 X-1.9724 Y0.6033  
G01 X-1.9666 Y0.6071  
G01 X-1.9602 Y0.6098  
G01 X-1.9535 Y0.6111  
G01 X-1.9465 Y0.6111  
G01 X-1.9398 Y0.6098  
G01 X-1.9334 Y0.6071  
G01 X-1.9276 Y0.6033  
G01 X-1.9227 Y0.5984  
G01 X-1.9224 Y0.5978  
G01 X-1.9211 Y0.5991  
G01 X-1.9211 Y0.6103  
G01 X-1.9199 Y0.6146  
G01 X-1.9177 Y0.6185  
G01 X-1.8857 Y0.6505  
G01 X-1.8825 Y0.6537  
G01 X-1.8786 Y0.6559  
G01 X-1.8743 Y0.6571  
G01 X-0.8651 Y0.6571  
G01 X-0.8651 Y0.7664  
G01 X-0.8699 Y0.7696  
G01 X-0.8754 Y0.7751  
G01 X-0.8796 Y0.7815  
G01 X-0.8826 Y0.7886  
G01 X-0.8841 Y0.7961  
G01 X-0.8841 Y0.8039  
G01 X-0.8826 Y0.8114  
G01 X-0.8796 Y0.8185  
G01 X-0.8754 Y0.8249  
G01 X-0.8699 Y0.8304  
G01 X-0.8635 Y0.8346  
G01 X-0.8564 Y0.8376  
G01 X-0.8489 Y0.8391  
G01 X-0.8411 Y0.8391  
G01 X-0.8336 Y0.8376  
G01 X-0.8271 Y0.8349  
G01 X-0.8391 Y0.8469  
G01 X-0.8569 Y0.8469  
G01 X-0.9495 Y0.7543  
G01 X-0.9534 Y0.7521  
G01 X-0.9577 Y0.7509  
G01 X-1.8329 Y0.7509  
G01 X-2.0149 Y0.5689  
G01 X-2.0149 Y0.5205  
G01 X-2.0162 Y0.5138  
G01 X-2.0189 Y0.5074  
G01 X-2.0227 Y0.5016  
G01 X-2.0276 Y0.4967  
G01 X-2.0334 Y0.4929  
G01 X-2.0398 Y0.4902  
G01 X-2.0465 Y0.4889  
G01 X-2.0535 Y0.4889  
G01 X-2.0602 Y0.4902  
G01 X-2.0666 Y0.4929  
G01 X-2.0724 Y0.4967  
G01 X-2.0773 Y0.5016  
G01 X-2.0811 Y0.5074  
G01 X-2.0838 Y0.5138  
G01 X-2.0851 Y0.5205  
G01 X-2.0851 Y0.5795  
G01 X-2.0838 Y0.5862  
G01 X-2.0811 Y0.5926  
G01 X-2.0773 Y0.5984  
G01 X-2.0724 Y0.6033  
G01 X-2.0666 Y0.6071  
G01 X-2.0602 Y0.6098  
G01 X-2.0535 Y0.6111  
G01 X-2.0465 Y0.6111  
G01 X-2.0398 Y0.6098  
G01 X-2.0334 Y0.6071  
G01 X-2.0284 Y0.6038  
G01 X-1.8537 Y0.7785  
G01 X-1.8505 Y0.7817  
G01 X-1.8466 Y0.7839  
G01 X-1.8423 Y0.7851  
G01 X-0.9671 Y0.7851  
G01 X-0.8777 Y0.8745  
G01 X-0.8745 Y0.8777  
G01 X-0.8706 Y0.8799  
G01 X-0.8663 Y0.8811  
G01 X-0.8297 Y0.8811  
G01 X-0.8254 Y0.8799  
G01 X-0.8215 Y0.8777  
G01 X-0.7703 Y0.8265  
G01 X-0.7681 Y0.8226  
G01 X-0.7669 Y0.8183  
G01 X-0.7669 Y0.5417  
G01 X-0.7681 Y0.5374  
G01 X-0.7703 Y0.5335  
G01 X-0.7829 Y0.5209  
G01 X-0.7829 Y0.5167  
G01 X-0.7645 Y0.5351  
G01 X-0.7371 Y0.5351  
G01 X-0.6002 Y0.6720  
G01 X-0.8391 Y0.9109  
G01 X-1.1455 Y0.9109  
G01 X-1.1398 Y0.9098  
G01 X-1.1334 Y0.9071  
G01 X-1.1276 Y0.9033  
G01 X-1.1227 Y0.8984  
G01 X-1.1189 Y0.8926  
G01 X-1.1162 Y0.8862  
G01 X-1.1149 Y0.8795  
G01 X-1.1149 Y0.8205  
G01 X-1.1162 Y0.8138  
G01 X-1.1189 Y0.8074  
G01 X-1.1227 Y0.8016  
G01 X-1.1276 Y0.7967  
G01 X-1.1334 Y0.7929  
G01 X-1.1398 Y0.7902  
G01 X-1.1465 Y0.7889  
G01 X-1.1535 Y0.7889  
G01 X-1.1602 Y0.7902  
G01 X-1.1666 Y0.7929  
G01 X-1.1724 Y0.7967  
G01 X-1.1773 Y0.8016  
G01 X-1.1811 Y0.8074  
G01 X-1.1838 Y0.8138  
G01 X-1.1851 Y0.8205  
G01 X-1.1851 Y0.8795  
G01 X-1.1838 Y0.8862  
G01 X-1.1811 Y0.8926  
G01 X-1.1773 Y0.8984  
G01 X-1.1724 Y0.9033  
G01 X-1.1666 Y0.9071  
G01 X-1.1602 Y0.9098  
G01 X-1.1545 Y0.9109  
G01 X-1.2455 Y0.9109  
G01 X-1.2398 Y0.9098  
G01 X-1.2334 Y0.9071  
G01 X-1.2276 Y0.9033  
G01 X-1.2227 Y0.8984  
G01 X-1.2189 Y0.8926  
G01 X-1.2162 Y0.8862  
G01 X-1.2149 Y0.8795  
G01 X-1.2149 Y0.8205  
G01 X-1.2162 Y0.8138  
G01 X-1.2189 Y0.8074  
G01 X-1.2227 Y0.8016  
G01 X-1.2276 Y0.7967  
G01 X-1.2334 Y0.7929  
G01 X-1.2398 Y0.7902  
G01 X-1.2465 Y0.7889  
G01 X-1.2535 Y0.7889  
G01 X-1.2602 Y0.7902  
G01 X-1.2666 Y0.7929  
G01 X-1.2724 Y0.7967  
G01 X-1.2773 Y0.8016  
G01 X-1.2811 Y0.8074  
G01 X-1.2838 Y0.8138  
G01 X-1.2851 Y0.8205  
G01 X-1.2851 Y0.8795  
G01 X-1.2838 Y0.8862  
G01 X-1.2811 Y0.8926  
G01 X-1.2773 Y0.8984  
G01 X-1.2724 Y0.9033  
G01 X-1.2666 Y0.9071  
G01 X-1.2602 Y0.9098  
G01 X-1.2545 Y0.9109  
G01 X-1.3455 Y0.9109  
G01 X-1.3398 Y0.9098  
G01 X-1.3334 Y0.9071  
G01 X-1.3276 Y0.9033  
G01 X-1.3227 Y0.8984  
G01 X-1.3189 Y0.8926  
G01 X-1.3162 Y0.8862  
G01 X-1.3149 Y0.8795  
G01 X-1.3149 Y0.8205  
G01 X-1.3162 Y0.8138  
G01 X-1.3189 Y0.8074  
G01 X-1.3227 Y0.8016  
G01 X-1.3276 Y0.7967  
G01 X-1.3334 Y0.7929  
G01 X-1.3398 Y0.7902  
G01 X-1.3465 Y0.7889  
G01 X-1.3535 Y0.7889  
G01 X-1.3602 Y0.7902  
G01 X-1.3666 Y0.7929  
G01 X-1.3724 Y0.7967  
G01 X-1.3773 Y0.8016  
G01 X-1.3811 Y0.8074  
G01 X-1.3838 Y0.8138  
G01 X-1.3851 Y0.8205  
G01 X-1.3851 Y0.8795  
G01 X-1.3838 Y0.8862  
G01 X-1.3811 Y0.8926  
G01 X-1.3773 Y0.8984  
G01 X-1.3724 Y0.9033  
G01 X-1.3666 Y0.9071  
G01 X-1.3602 Y0.9098  
G01 X-1.3545 Y0.9109  
G01 X-1.4455 Y0.9109  
G01 X-1.4398 Y0.9098  
G01 X-1.4334 Y0.9071  
G01 X-1.4276 Y0.9033  
G01 X-1.4227 Y0.8984  
G01 X-1.4189 Y0.8926  
G01 X-1.4162 Y0.8862  
G01 X-1.4149 Y0.8795  
G01 X-1.4149 Y0.8205  
G01 X-1.4162 Y0.8138  
G01 X-1.4189 Y0.8074  
G01 X-1.4227 Y0.8016  
G01 X-1.4276 Y0.7967  
G01 X-1.4334 Y0.7929  
G01 X-1.4398 Y0.7902  
G01 X-1.4465 Y0.7889  
G01 X-1.4535 Y0.7889  
G01 X-1.4602 Y0.7902  
G01 X-1.4666 Y0.7929  
G01 X-1.4724 Y0.7967  
G01 X-1.4773 Y0.8016  
G01 X-1.4811 Y0.8074  
G01 X-1.4838 Y0.8138  
G01 X-1.4851 Y0.8205  
G01 X-1.4851 Y0.8795  
G01 X-1.4838 Y0.8862  
G01 X-1.4811 Y0.8926  
G01 X-1.4773 Y0.8984  
G01 X-1.4724 Y0.9033  
G01 X-1.4666 Y0.9071  
G01 X-1.4602 Y0.9098  
G01 X-1.4545 Y0.9109  
G01 X-1.5455 Y0.9109  
G01 X-1.5398 Y0.9098  
G01 X-1.5334 Y0.9071  
G01 X-1.5276 Y0.9033  
G01 X-1.5227 Y0.8984  
G01 X-1.5189 Y0.8926  
G01 X-1.5162 Y0.8862  
G01 X-1.5149 Y0.8795  
G01 X-1.5149 Y0.8205  
G01 X-1.5162 Y0.8138  
G01 X-1.5189 Y0.8074  
G01 X-1.5227 Y0.8016  
G01 X-1.5276 Y0.7967  
G01 X-1.5334 Y0.7929  
G01 X-1.5398 Y0.7902  
G01 X-1.5465 Y0.7889  
G01 X-1.5535 Y0.7889  
G01 X-1.5602 Y0.7902  
G01 X-1.5666 Y0.7929  
G01 X-1.5724 Y0.7967  
G01 X-1.5773 Y0.8016  
G01 X-1.5811 Y0.8074  
G01 X-1.5838 Y0.8138  
G01 X-1.5851 Y0.8205  
G01 X-1.5851 Y0.8795  
G01 X-1.5838 Y0.8862  
G01 X-1.5811 Y0.8926  
G01 X-1.5773 Y0.8984  
G01 X-1.5724 Y0.9033  
G01 X-1.5666 Y0.9071  
G01 X-1.5602 Y0.9098  
G01 X-1.5545 Y0.9109  
G01 X-1.6455 Y0.9109  
G01 X-1.6398 Y0.9098  
G01 X-1.6334 Y0.9071  
G01 X-1.6276 Y0.9033  
G01 X-1.6227 Y0.8984  
G01 X-1.6189 Y0.8926  
G01 X-1.6162 Y0.8862  
G01 X-1.6149 Y0.8795  
G01 X-1.6149 Y0.8205  
G01 X-1.6162 Y0.8138  
G01 X-1.6189 Y0.8074  
G01 X-1.6227 Y0.8016  
G01 X-1.6276 Y0.7967  
G01 X-1.6334 Y0.7929  
G01 X-1.6398 Y0.7902  
G01 X-1.6465 Y0.7889  
G01 X-1.6535 Y0.7889  
G01 X-1.6602 Y0.7902  
G01 X-1.6666 Y0.7929  
G01 X-1.6724 Y0.7967  
G01 X-1.6773 Y0.8016  
G01 X-1.6811 Y0.8074  
G01 X-1.6838 Y0.8138  
G01 X-1.6851 Y0.8205  
G01 X-1.6851 Y0.8795  
G01 X-1.6838 Y0.8862  
G01 X-1.6811 Y0.8926  
G01 X-1.6773 Y0.8984  
G01 X-1.6724 Y0.9033  
G01 X-1.6666 Y0.9071  
G01 X-1.6602 Y0.9098  
G01 X-1.6545 Y0.9109  
G01 X-1.6729 Y0.9109  
G01 X-1.7149 Y0.8689  
G01 X-1.7149 Y0.8205  
G01 X-1.7162 Y0.8138  
G01 X-1.7189 Y0.8074  
G01 X-1.7227 Y0.8016  
G01 X-1.7276 Y0.7967  
G01 X-1.7334 Y0.7929  
G01 X-1.7398 Y0.7902  
G01 X-1.7465 Y0.7889  
G01 X-1.7535 Y0.7889  
G01 X-1.7602 Y0.7902  
G01 X-1.7666 Y0.7929  
G01 X-1.7724 Y0.7967  
G01 X-1.7773 Y0.8016  
G01 X-1.7811 Y0.8074  
G01 X-1.7838 Y0.8138  
G01 X-1.7851 Y0.8205  
G01 X-1.7851 Y0.8795  
G01 X-1.7838 Y0.8862  
G01 X-1.7811 Y0.8926  
G01 X-1.7773 Y0.8984  
G01 X-1.7724 Y0.9033  
G01 X-1.7666 Y0.9071  
G01 X-1.7602 Y0.9098  
G01 X-1.7535 Y0.9111  
G01 X-1.7465 Y0.9111  
G01 X-1.7398 Y0.9098  
G01 X-1.7334 Y0.9071  
G01 X-1.7284 Y0.9038  
G01 X-1.6937 Y0.9385  
G01 X-1.6905 Y0.9417  
G01 X-1.6866 Y0.9439  
G01 X-1.6823 Y0.9451  
G01 X-0.8297 Y0.9451  
G01 X-0.8254 Y0.9439  
G01 X-0.8215 Y0.9417  
G01 X-0.5760 Y0.6962  
G01 X-0.3977 Y0.8745  
G01 X-0.3945 Y0.8777  
G01 X-0.3906 Y0.8799  
G01 X-0.3863 Y0.8811  
G01 X-0.3337 Y0.8811  
G01 X-0.3294 Y0.8799  
G01 X-0.3255 Y0.8777  
G01 X-0.2775 Y0.8297  
G01 X-0.2743 Y0.8265  
G01 X-0.2721 Y0.8226  
G01 X-0.2709 Y0.8183  
G01 X-0.2709 Y0.6697  
G01 X-0.2721 Y0.6654  
G01 X-0.2743 Y0.6615  
G01 X-0.2775 Y0.6583  
G01 X-0.4181 Y0.5177  
G01 X-0.4149 Y0.5145  
G01 X-0.4149 Y0.4855  
G01 X-0.4309 Y0.4695  
G01 X-0.4309 Y0.2961  
G01 X-0.4039 Y0.2691  
G01 X-0.4039 Y0.2309  
G01 X-0.4309 Y0.2039  
G01 X-0.4309 Y0.1961  
G01 X-0.4119 Y0.1771  
G01 X-0.3881 Y0.1771  
G01 X-0.3691 Y0.1961  
G01 X-0.3691 Y0.2039  
G01 X-0.3961 Y0.2309  
G01 X-0.3961 Y0.2691  
G01 X-0.3691 Y0.2961  
G01 X-0.3309 Y0.2961  
G01 X-0.3039 Y0.2691  
G01 X-0.3039 Y0.2309  
G00 Z0.1000  
G00 X-0.6039 Y0.2309  
G01 Z-0.0020 F10    
G01 X-0.6309 Y0.2039  F20    
G01 X-0.6389 Y0.2039  
G01 X-0.6389 Y0.1961  
G01 X-0.6309 Y0.1961  
G01 X-0.6039 Y0.1691  
G01 X-0.6039 Y0.1309  
G01 X-0.6309 Y0.1039  
G01 X-0.6691 Y0.1039  
G01 X-0.6961 Y0.1309  
G01 X-0.6961 Y0.1691  
G01 X-0.6731 Y0.1921  
G01 X-0.6731 Y0.2079  
G01 X-0.6961 Y0.2309  
G01 X-0.6961 Y0.2691  
G01 X-0.6947 Y0.2705  
G01 X-0.7271 Y0.3029  
G01 X-1.5223 Y0.3029  
G01 X-1.5266 Y0.3041  
G01 X-1.5305 Y0.3063  
G01 X-1.5337 Y0.3095  
G01 X-1.7243 Y0.5001  
G01 X-1.7276 Y0.4967  
G01 X-1.7334 Y0.4929  
G01 X-1.7398 Y0.4902  
G01 X-1.7465 Y0.4889  
G01 X-1.7535 Y0.4889  
G01 X-1.7602 Y0.4902  
G01 X-1.7666 Y0.4929  
G01 X-1.7724 Y0.4967  
G01 X-1.7773 Y0.5016  
G01 X-1.7811 Y0.5074  
G01 X-1.7838 Y0.5138  
G01 X-1.7851 Y0.5205  
G01 X-1.7851 Y0.5795  
G01 X-1.7838 Y0.5862  
G01 X-1.7811 Y0.5926  
G01 X-1.7773 Y0.5984  
G01 X-1.7724 Y0.6033  
G01 X-1.7666 Y0.6071  
G01 X-1.7602 Y0.6098  
G01 X-1.7535 Y0.6111  
G01 X-1.7465 Y0.6111  
G01 X-1.7398 Y0.6098  
G01 X-1.7334 Y0.6071  
G01 X-1.7276 Y0.6033  
G01 X-1.7227 Y0.5984  
G01 X-1.7189 Y0.5926  
G01 X-1.7162 Y0.5862  
G01 X-1.7149 Y0.5795  
G01 X-1.7149 Y0.5391  
G01 X-1.5129 Y0.3371  
G01 X-0.7177 Y0.3371  
G01 X-0.7134 Y0.3359  
G01 X-0.7095 Y0.3337  
G01 X-0.6705 Y0.2947  
G01 X-0.6691 Y0.2961  
G01 X-0.6309 Y0.2961  
G01 X-0.6039 Y0.2691  
G01 X-0.6039 Y0.2309  
G00 Z0.1000  
G00 X-0.7039 Y0.2309  
G01 Z-0.0020 F10    
G01 X-0.7309 Y0.2039  F20    
G01 X-0.7691 Y0.2039  
G01 X-0.7961 Y0.2309  
G01 X-0.7961 Y0.2691  
G01 X-0.7691 Y0.2961  
G01 X-0.7309 Y0.2961  
G01 X-0.7039 Y0.2691  
G01 X-0.7039 Y0.2309  
G00 Z0.1000  
G00 X-0.7309 Y0.1961  
G01 Z-0.0020 F10    
G01 X-0.7039 Y0.1691  F20    
G01 X-0.7039 Y0.1309  
G01 X-0.7309 Y0.1039  
G01 X-0.7691 Y0.1039  
G01 X-0.7961 Y0.1309  
G01 X-0.7961 Y0.1691  
G01 X-0.7691 Y0.1961  
G01 X-0.7309 Y0.1961  
G00 Z0.1000  
G00 X-0.8309 Y0.1961  
G01 Z-0.0020 F10    
G01 X-0.8039 Y0.1691  F20    
G01 X-0.8039 Y0.1309  
G01 X-0.8309 Y0.1039  
G01 X-0.8691 Y0.1039  
G01 X-0.8961 Y0.1309  
G01 X-0.8961 Y0.1691  
G01 X-0.8691 Y0.1961  
G01 X-0.8309 Y0.1961  
G00 Z0.1000  
G00 X-0.8309 Y0.2039  
G01 Z-0.0020 F10    
G01 X-0.8691 Y0.2039  F20    
G01 X-0.8961 Y0.2309  
G01 X-0.8961 Y0.2691  
G01 X-0.8691 Y0.2961  
G01 X-0.8309 Y0.2961  
G01 X-0.8039 Y0.2691  
G01 X-0.8039 Y0.2309  
G01 X-0.8309 Y0.2039  
G00 Z0.1000  
G00 X-0.9039 Y0.2309  
G01 Z-0.0020 F10    
G01 X-0.9309 Y0.2039  F20    
G01 X-0.9691 Y0.2039  
G01 X-0.9961 Y0.2309  
G01 X-0.9961 Y0.2691  
G01 X-0.9691 Y0.2961  
G01 X-0.9309 Y0.2961  
G01 X-0.9039 Y0.2691  
G01 X-0.9039 Y0.2309  
G00 Z0.1000  
G00 X-0.9309 Y0.1961  
G01 Z-0.0020 F10    
G01 X-0.9039 Y0.1691  F20    
G01 X-0.9039 Y0.1309  
G01 X-0.9309 Y0.1039  
G01 X-0.9691 Y0.1039  
G01 X-0.9961 Y0.1309  
G01 X-0.9961 Y0.1691  
G01 X-0.9691 Y0.1961  
G01 X-0.9309 Y0.1961  
G00 Z0.1000  
G00 X-0.7829 Y0.4711  
G01 Z-0.0020 F10    
G01 X-0.7769 Y0.4651  F20    
G01 X-0.7647 Y0.4651  
G01 X-0.7829 Y0.4833  
G01 X-0.7829 Y0.4711  
G00 Z0.1000  
G00 X-0.8171 Y0.5167  
G01 Z-0.0020 F10    
G01 X-0.8171 Y0.5303  F20    
G01 X-0.8159 Y0.5346  
G01 X-0.8137 Y0.5385  
G01 X-0.8105 Y0.5417  
G01 X-0.8011 Y0.5511  
G01 X-0.8011 Y0.8089  
G01 X-0.8101 Y0.8179  
G01 X-0.8074 Y0.8114  
G01 X-0.8059 Y0.8039  
G01 X-0.8059 Y0.7961  
G01 X-0.8074 Y0.7886  
G01 X-0.8104 Y0.7815  
G01 X-0.8146 Y0.7751  
G01 X-0.8201 Y0.7696  
G01 X-0.8265 Y0.7654  
G01 X-0.8309 Y0.7635  
G01 X-0.8309 Y0.5305  
G01 X-0.8171 Y0.5167  
G00 Z0.1000  
G00 X-1.1149 Y0.5205  
G01 Z-0.0020 F10    
G01 X-1.1162 Y0.5138  F20    
G01 X-1.1189 Y0.5074  
G01 X-1.1227 Y0.5016  
G01 X-1.1276 Y0.4967  
G01 X-1.1334 Y0.4929  
G01 X-1.1398 Y0.4902  
G01 X-1.1465 Y0.4889  
G01 X-1.1535 Y0.4889  
G01 X-1.1602 Y0.4902  
G01 X-1.1666 Y0.4929  
G01 X-1.1724 Y0.4967  
G01 X-1.1773 Y0.5016  
G01 X-1.1811 Y0.5074  
G01 X-1.1838 Y0.5138  
G01 X-1.1851 Y0.5205  
G01 X-1.1851 Y0.5795  
G01 X-1.1838 Y0.5862  
G01 X-1.1811 Y0.5926  
G01 X-1.1773 Y0.5984  
G01 X-1.1724 Y0.6033  
G01 X-1.1666 Y0.6071  
G01 X-1.1602 Y0.6098  
G01 X-1.1535 Y0.6111  
G01 X-1.1465 Y0.6111  
G01 X-1.1398 Y0.6098  
G01 X-1.1334 Y0.6071  
G01 X-1.1276 Y0.6033  
G01 X-1.1227 Y0.5984  
G01 X-1.1189 Y0.5926  
G01 X-1.1162 Y0.5862  
G01 X-1.1149 Y0.5795  
G01 X-1.1149 Y0.5205  
G00 Z0.1000  
G00 X-1.2149 Y0.5205  
G01 Z-0.0020 F10    
G01 X-1.2162 Y0.5138  F20    
G01 X-1.2189 Y0.5074  
G01 X-1.2227 Y0.5016  
G01 X-1.2276 Y0.4967  
G01 X-1.2334 Y0.4929  
G01 X-1.2398 Y0.4902  
G01 X-1.2465 Y0.4889  
G01 X-1.2535 Y0.4889  
G01 X-1.2602 Y0.4902  
G01 X-1.2666 Y0.4929  
G01 X-1.2724 Y0.4967  
G01 X-1.2773 Y0.5016  
G01 X-1.2811 Y0.5074  
G01 X-1.2838 Y0.5138  
G01 X-1.2851 Y0.5205  
G01 X-1.2851 Y0.5795  
G01 X-1.2838 Y0.5862  
G01 X-1.2811 Y0.5926  
G01 X-1.2773 Y0.5984  
G01 X-1.2724 Y0.6033  
G01 X-1.2666 Y0.6071  
G01 X-1.2602 Y0.6098  
G01 X-1.2535 Y0.6111  
G01 X-1.2465 Y0.6111  
G01 X-1.2398 Y0.6098  
G01 X-1.2334 Y0.6071  
G01 X-1.2276 Y0.6033  
G01 X-1.2227 Y0.5984  
G01 X-1.2189 Y0.5926  
G01 X-1.2162 Y0.5862  
G01 X-1.2149 Y0.5795  
G01 X-1.2149 Y0.5205  
G00 Z0.1000  
G00 X-1.3149 Y0.5205  
G01 Z-0.0020 F10    
G01 X-1.3162 Y0.5138  F20    
G01 X-1.3189 Y0.5074  
G01 X-1.3227 Y0.5016  
G01 X-1.3276 Y0.4967  
G01 X-1.3334 Y0.4929  
G01 X-1.3398 Y0.4902  
G01 X-1.3465 Y0.4889  
G01 X-1.3535 Y0.4889  
G01 X-1.3602 Y0.4902  
G01 X-1.3666 Y0.4929  
G01 X-1.3724 Y0.4967  
G01 X-1.3773 Y0.5016  
G01 X-1.3811 Y0.5074  
G01 X-1.3838 Y0.5138  
G01 X-1.3851 Y0.5205  
G01 X-1.3851 Y0.5795  
G01 X-1.3838 Y0.5862  
G01 X-1.3811 Y0.5926  
G01 X-1.3773 Y0.5984  
G01 X-1.3724 Y0.6033  
G01 X-1.3666 Y0.6071  
G01 X-1.3602 Y0.6098  
G01 X-1.3535 Y0.6111  
G01 X-1.3465 Y0.6111  
G01 X-1.3398 Y0.6098  
G01 X-1.3334 Y0.6071  
G01 X-1.3276 Y0.6033  
G01 X-1.3227 Y0.5984  
G01 X-1.3189 Y0.5926  
G01 X-1.3162 Y0.5862  
G01 X-1.3149 Y0.5795  
G01 X-1.3149 Y0.5205  
G00 Z0.1000  
G00 X-1.4149 Y0.5205  
G01 Z-0.0020 F10    
G01 X-1.4162 Y0.5138  F20    
G01 X-1.4189 Y0.5074  
G01 X-1.4227 Y0.5016  
G01 X-1.4276 Y0.4967  
G01 X-1.4334 Y0.4929  
G01 X-1.4398 Y0.4902  
G01 X-1.4465 Y0.4889  
G01 X-1.4535 Y0.4889  
G01 X-1.4602 Y0.4902  
G01 X-1.4666 Y0.4929  
G01 X-1.4724 Y0.4967  
G01 X-1.4773 Y0.5016  
G01 X-1.4811 Y0.5074  
G01 X-1.4838 Y0.5138  
G01 X-1.4851 Y0.5205  
G01 X-1.4851 Y0.5795  
G01 X-1.4838 Y0.5862  
G01 X-1.4811 Y0.5926  
G01 X-1.4773 Y0.5984  
G01 X-1.4724 Y0.6033  
G01 X-1.4666 Y0.6071  
G01 X-1.4602 Y0.6098  
G01 X-1.4535 Y0.6111  
G01 X-1.4465 Y0.6111  
G01 X-1.4398 Y0.6098  
G01 X-1.4334 Y0.6071  
G01 X-1.4276 Y0.6033  
G01 X-1.4227 Y0.5984  
G01 X-1.4189 Y0.5926  
G01 X-1.4162 Y0.5862  
G01 X-1.4149 Y0.5795  
G01 X-1.4149 Y0.5205  
G00 Z0.1000  
G00 X-1.5149 Y0.5205  
G01 Z-0.0020 F10    
G01 X-1.5162 Y0.5138  F20    
G01 X-1.5189 Y0.5074  
G01 X-1.5227 Y0.5016  
G01 X-1.5276 Y0.4967  
G01 X-1.5334 Y0.4929  
G01 X-1.5398 Y0.4902  
G01 X-1.5465 Y0.4889  
G01 X-1.5535 Y0.4889  
G01 X-1.5602 Y0.4902  
G01 X-1.5666 Y0.4929  
G01 X-1.5724 Y0.4967  
G01 X-1.5773 Y0.5016  
G01 X-1.5811 Y0.5074  
G01 X-1.5838 Y0.5138  
G01 X-1.5851 Y0.5205  
G01 X-1.5851 Y0.5795  
G01 X-1.5838 Y0.5862  
G01 X-1.5811 Y0.5926  
G01 X-1.5773 Y0.5984  
G01 X-1.5724 Y0.6033  
G01 X-1.5666 Y0.6071  
G01 X-1.5602 Y0.6098  
G01 X-1.5535 Y0.6111  
G01 X-1.5465 Y0.6111  
G01 X-1.5398 Y0.6098  
G01 X-1.5334 Y0.6071  
G01 X-1.5276 Y0.6033  
G01 X-1.5227 Y0.5984  
G01 X-1.5189 Y0.5926  
G01 X-1.5162 Y0.5862  
G01 X-1.5149 Y0.5795  
G01 X-1.5149 Y0.5205  
G00 Z0.1000  
G00 X-1.6149 Y0.5205  
G01 Z-0.0020 F10    
G01 X-1.6162 Y0.5138  F20    
G01 X-1.6189 Y0.5074  
G01 X-1.6227 Y0.5016  
G01 X-1.6276 Y0.4967  
G01 X-1.6334 Y0.4929  
G01 X-1.6398 Y0.4902  
G01 X-1.6465 Y0.4889  
G01 X-1.6535 Y0.4889  
G01 X-1.6602 Y0.4902  
G01 X-1.6666 Y0.4929  
G01 X-1.6724 Y0.4967  
G01 X-1.6773 Y0.5016  
G01 X-1.6811 Y0.5074  
G01 X-1.6838 Y0.5138  
G01 X-1.6851 Y0.5205  
G01 X-1.6851 Y0.5795  
G01 X-1.6838 Y0.5862  
G01 X-1.6811 Y0.5926  
G01 X-1.6773 Y0.5984  
G01 X-1.6724 Y0.6033  
G01 X-1.6666 Y0.6071  
G01 X-1.6602 Y0.6098  
G01 X-1.6535 Y0.6111  
G01 X-1.6465 Y0.6111  
G01 X-1.6398 Y0.6098  
G01 X-1.6334 Y0.6071  
G01 X-1.6276 Y0.6033  
G01 X-1.6227 Y0.5984  
G01 X-1.6189 Y0.5926  
G01 X-1.6162 Y0.5862  
G01 X-1.6149 Y0.5795  
G01 X-1.6149 Y0.5205  
G00 Z0.1000  
G00 X-1.8227 Y0.8016  
G01 Z-0.0020 F10    
G01 X-1.8276 Y0.7967  F20    
G01 X-1.8334 Y0.7929  
G01 X-1.8398 Y0.7902  
G01 X-1.8465 Y0.7889  
G01 X-1.8535 Y0.7889  
G01 X-1.8602 Y0.7902  
G01 X-1.8666 Y0.7929  
G01 X-1.8724 Y0.7967  
G01 X-1.8773 Y0.8016  
G01 X-1.8811 Y0.8074  
G01 X-1.8838 Y0.8138  
G01 X-1.8851 Y0.8205  
G01 X-1.8851 Y0.8795  
G01 X-1.8838 Y0.8862  
G01 X-1.8811 Y0.8926  
G01 X-1.8773 Y0.8984  
G01 X-1.8724 Y0.9033  
G01 X-1.8666 Y0.9071  
G01 X-1.8602 Y0.9098  
G01 X-1.8535 Y0.9111  
G01 X-1.8465 Y0.9111  
G01 X-1.8398 Y0.9098  
G01 X-1.8334 Y0.9071  
G01 X-1.8276 Y0.9033  
G01 X-1.8227 Y0.8984  
G01 X-1.8189 Y0.8926  
G01 X-1.8162 Y0.8862  
G01 X-1.8149 Y0.8795  
G01 X-1.8149 Y0.8205  
G01 X-1.8162 Y0.8138  
G01 X-1.8189 Y0.8074  
G01 X-1.8227 Y0.8016  
G00 Z0.1000  
G00 X-1.9227 Y0.8016  
G01 Z-0.0020 F10    
G01 X-1.9276 Y0.7967  F20    
G01 X-1.9334 Y0.7929  
G01 X-1.9398 Y0.7902  
G01 X-1.9465 Y0.7889  
G01 X-1.9535 Y0.7889  
G01 X-1.9602 Y0.7902  
G01 X-1.9666 Y0.7929  
G01 X-1.9724 Y0.7967  
G01 X-1.9773 Y0.8016  
G01 X-1.9811 Y0.8074  
G01 X-1.9838 Y0.8138  
G01 X-1.9851 Y0.8205  
G01 X-1.9851 Y0.8795  
G01 X-1.9838 Y0.8862  
G01 X-1.9811 Y0.8926  
G01 X-1.9773 Y0.8984  
G01 X-1.9724 Y0.9033  
G01 X-1.9666 Y0.9071  
G01 X-1.9602 Y0.9098  
G01 X-1.9535 Y0.9111  
G01 X-1.9465 Y0.9111  
G01 X-1.9398 Y0.9098  
G01 X-1.9334 Y0.9071  
G01 X-1.9276 Y0.9033  
G01 X-1.9227 Y0.8984  
G01 X-1.9189 Y0.8926  
G01 X-1.9162 Y0.8862  
G01 X-1.9149 Y0.8795  
G01 X-1.9149 Y0.8205  
G01 X-1.9162 Y0.8138  
G01 X-1.9189 Y0.8074  
G01 X-1.9227 Y0.8016  
G00 Z0.1000  
G00 X-2.0227 Y0.8016  
G01 Z-0.0020 F10    
G01 X-2.0276 Y0.7967  F20    
G01 X-2.0334 Y0.7929  
G01 X-2.0398 Y0.7902  
G01 X-2.0465 Y0.7889  
G01 X-2.0535 Y0.7889  
G01 X-2.0602 Y0.7902  
G01 X-2.0666 Y0.7929  
G01 X-2.0724 Y0.7967  
G01 X-2.0773 Y0.8016  
G01 X-2.0811 Y0.8074  
G01 X-2.0838 Y0.8138  
G01 X-2.0851 Y0.8205  
G01 X-2.0851 Y0.8795  
G01 X-2.0838 Y0.8862  
G01 X-2.0811 Y0.8926  
G01 X-2.0773 Y0.8984  
G01 X-2.0724 Y0.9033  
G01 X-2.0666 Y0.9071  
G01 X-2.0602 Y0.9098  
G01 X-2.0535 Y0.9111  
G01 X-2.0465 Y0.9111  
G01 X-2.0398 Y0.9098  
G01 X-2.0334 Y0.9071  
G01 X-2.0276 Y0.9033  
G01 X-2.0227 Y0.8984  
G01 X-2.0189 Y0.8926  
G01 X-2.0162 Y0.8862  
G01 X-2.0149 Y0.8795  
G01 X-2.0149 Y0.8205  
G01 X-2.0162 Y0.8138  
G01 X-2.0189 Y0.8074  
G01 X-2.0227 Y0.8016  
G00 Z0.1000  
G00 X-2.1227 Y0.8016  
G01 Z-0.0020 F10    
G01 X-2.1276 Y0.7967  F20    
G01 X-2.1334 Y0.7929  
G01 X-2.1398 Y0.7902  
G01 X-2.1465 Y0.7889  
G01 X-2.1535 Y0.7889  
G01 X-2.1602 Y0.7902  
G01 X-2.1666 Y0.7929  
G01 X-2.1724 Y0.7967  
G01 X-2.1773 Y0.8016  
G01 X-2.1811 Y0.8074  
G01 X-2.1838 Y0.8138  
G01 X-2.1851 Y0.8205  
G01 X-2.1851 Y0.8795  
G01 X-2.1838 Y0.8862  
G01 X-2.1811 Y0.8926  
G01 X-2.1773 Y0.8984  
G01 X-2.1724 Y0.9033  
G01 X-2.1666 Y0.9071  
G01 X-2.1602 Y0.9098  
G01 X-2.1535 Y0.9111  
G01 X-2.1465 Y0.9111  
G01 X-2.1398 Y0.9098  
G01 X-2.1334 Y0.9071  
G01 X-2.1276 Y0.9033  
G01 X-2.1227 Y0.8984  
G01 X-2.1189 Y0.8926  
G01 X-2.1162 Y0.8862  
G01 X-2.1149 Y0.8795  
G01 X-2.1149 Y0.8205  
G01 X-2.1162 Y0.8138  
G01 X-2.1189 Y0.8074  
G01 X-2.1227 Y0.8016  
G00 Z0.1000  
G00 X-2.2227 Y0.8016  
G01 Z-0.0020 F10    
G01 X-2.2276 Y0.7967  F20    
G01 X-2.2334 Y0.7929  
G01 X-2.2398 Y0.7902  
G01 X-2.2465 Y0.7889  
G01 X-2.2535 Y0.7889  
G01 X-2.2602 Y0.7902  
G01 X-2.2666 Y0.7929  
G01 X-2.2724 Y0.7967  
G01 X-2.2773 Y0.8016  
G01 X-2.2811 Y0.8074  
G01 X-2.2838 Y0.8138  
G01 X-2.2851 Y0.8205  
G01 X-2.2851 Y0.8795  
G01 X-2.2838 Y0.8862  
G01 X-2.2811 Y0.8926  
G01 X-2.2773 Y0.8984  
G01 X-2.2724 Y0.9033  
G01 X-2.2666 Y0.9071  
G01 X-2.2602 Y0.9098  
G01 X-2.2535 Y0.9111  
G01 X-2.2465 Y0.9111  
G01 X-2.2398 Y0.9098  
G01 X-2.2334 Y0.9071  
G01 X-2.2276 Y0.9033  
G01 X-2.2227 Y0.8984  
G01 X-2.2189 Y0.8926  
G01 X-2.2162 Y0.8862  
G01 X-2.2149 Y0.8795  
G01 X-2.2149 Y0.8205  
G01 X-2.2162 Y0.8138  
G01 X-2.2189 Y0.8074  
G01 X-2.2227 Y0.8016  
G00 Z0.1000  
G00 X-2.3227 Y0.8016  
G01 Z-0.0020 F10    
G01 X-2.3276 Y0.7967  F20    
G01 X-2.3334 Y0.7929  
G01 X-2.3398 Y0.7902  
G01 X-2.3465 Y0.7889  
G01 X-2.3535 Y0.7889  
G01 X-2.3602 Y0.7902  
G01 X-2.3666 Y0.7929  
G01 X-2.3724 Y0.7967  
G01 X-2.3773 Y0.8016  
G01 X-2.3811 Y0.8074  
G01 X-2.3838 Y0.8138  
G01 X-2.3851 Y0.8205  
G01 X-2.3851 Y0.8795  
G01 X-2.3838 Y0.8862  
G01 X-2.3811 Y0.8926  
G01 X-2.3773 Y0.8984  
G01 X-2.3724 Y0.9033  
G01 X-2.3666 Y0.9071  
G01 X-2.3602 Y0.9098  
G01 X-2.3535 Y0.9111  
G01 X-2.3465 Y0.9111  
G01 X-2.3398 Y0.9098  
G01 X-2.3334 Y0.9071  
G01 X-2.3276 Y0.9033  
G01 X-2.3227 Y0.8984  
G01 X-2.3189 Y0.8926  
G01 X-2.3162 Y0.8862  
G01 X-2.3149 Y0.8795  
G01 X-2.3149 Y0.8205  
G01 X-2.3162 Y0.8138  
G01 X-2.3189 Y0.8074  
G01 X-2.3227 Y0.8016  
G00 Z0.1000  
G00 X-2.4227 Y0.8016  
G01 Z-0.0020 F10    
G01 X-2.4276 Y0.7967  F20    
G01 X-2.4334 Y0.7929  
G01 X-2.4398 Y0.7902  
G01 X-2.4465 Y0.7889  
G01 X-2.4535 Y0.7889  
G01 X-2.4602 Y0.7902  
G01 X-2.4666 Y0.7929  
G01 X-2.4724 Y0.7967  
G01 X-2.4773 Y0.8016  
G01 X-2.4811 Y0.8074  
G01 X-2.4838 Y0.8138  
G01 X-2.4851 Y0.8205  
G01 X-2.4851 Y0.8795  
G01 X-2.4838 Y0.8862  
G01 X-2.4811 Y0.8926  
G01 X-2.4773 Y0.8984  
G01 X-2.4724 Y0.9033  
G01 X-2.4666 Y0.9071  
G01 X-2.4602 Y0.9098  
G01 X-2.4535 Y0.9111  
G01 X-2.4465 Y0.9111  
G01 X-2.4398 Y0.9098  
G01 X-2.4334 Y0.9071  
G01 X-2.4276 Y0.9033  
G01 X-2.4227 Y0.8984  
G01 X-2.4189 Y0.8926  
G01 X-2.4162 Y0.8862  
G01 X-2.4149 Y0.8795  
G01 X-2.4149 Y0.8205  
G01 X-2.4162 Y0.8138  
G01 X-2.4189 Y0.8074  
G01 X-2.4227 Y0.8016  
G00 Z0.1000  
G00 X-2.4276 Y0.6033  
G01 Z-0.0020 F10    
G01 X-2.4227 Y0.5984  F20    
G01 X-2.4189 Y0.5926  
G01 X-2.4162 Y0.5862  
G01 X-2.4149 Y0.5795  
G01 X-2.4149 Y0.5205  
G01 X-2.4162 Y0.5138  
G01 X-2.4189 Y0.5074  
G01 X-2.4227 Y0.5016  
G01 X-2.4276 Y0.4967  
G01 X-2.4334 Y0.4929  
G01 X-2.4398 Y0.4902  
G01 X-2.4465 Y0.4889  
G01 X-2.4535 Y0.4889  
G01 X-2.4602 Y0.4902  
G01 X-2.4666 Y0.4929  
G01 X-2.4724 Y0.4967  
G01 X-2.4773 Y0.5016  
G01 X-2.4811 Y0.5074  
G01 X-2.4838 Y0.5138  
G01 X-2.4851 Y0.5205  
G01 X-2.4851 Y0.5795  
G01 X-2.4838 Y0.5862  
G01 X-2.4811 Y0.5926  
G01 X-2.4773 Y0.5984  
G01 X-2.4724 Y0.6033  
G01 X-2.4666 Y0.6071  
G01 X-2.4602 Y0.6098  
G01 X-2.4535 Y0.6111  
G01 X-2.4465 Y0.6111  
G01 X-2.4398 Y0.6098  
G01 X-2.4334 Y0.6071  
G01 X-2.4276 Y0.6033  
G00 Z0.1000  
G00 X-2.3773 Y0.5984  
G01 Z-0.0020 F10    
G01 X-2.3724 Y0.6033  F20    
G01 X-2.3666 Y0.6071  
G01 X-2.3602 Y0.6098  
G01 X-2.3535 Y0.6111  
G01 X-2.3465 Y0.6111  
G01 X-2.3398 Y0.6098  
G01 X-2.3334 Y0.6071  
G01 X-2.3276 Y0.6033  
G01 X-2.3227 Y0.5984  
G01 X-2.3189 Y0.5926  
G01 X-2.3162 Y0.5862  
G01 X-2.3149 Y0.5795  
G01 X-2.3149 Y0.5205  
G01 X-2.3162 Y0.5138  
G01 X-2.3189 Y0.5074  
G01 X-2.3227 Y0.5016  
G01 X-2.3276 Y0.4967  
G01 X-2.3334 Y0.4929  
G01 X-2.3398 Y0.4902  
G01 X-2.3465 Y0.4889  
G01 X-2.3535 Y0.4889  
G01 X-2.3602 Y0.4902  
G01 X-2.3666 Y0.4929  
G01 X-2.3724 Y0.4967  
G01 X-2.3773 Y0.5016  
G01 X-2.3811 Y0.5074  
G01 X-2.3838 Y0.5138  
G01 X-2.3851 Y0.5205  
G01 X-2.3851 Y0.5795  
G01 X-2.3838 Y0.5862  
G01 X-2.3811 Y0.5926  
G01 X-2.3773 Y0.5984  
G00 Z0.1000  
G00 X-2.2773 Y0.5984  
G01 Z-0.0020 F10    
G01 X-2.2724 Y0.6033  F20    
G01 X-2.2666 Y0.6071  
G01 X-2.2602 Y0.6098  
G01 X-2.2535 Y0.6111  
G01 X-2.2465 Y0.6111  
G01 X-2.2398 Y0.6098  
G01 X-2.2334 Y0.6071  
G01 X-2.2276 Y0.6033  
G01 X-2.2227 Y0.5984  
G01 X-2.2189 Y0.5926  
G01 X-2.2162 Y0.5862  
G01 X-2.2149 Y0.5795  
G01 X-2.2149 Y0.5205  
G01 X-2.2162 Y0.5138  
G01 X-2.2189 Y0.5074  
G01 X-2.2227 Y0.5016  
G01 X-2.2276 Y0.4967  
G01 X-2.2334 Y0.4929  
G01 X-2.2398 Y0.4902  
G01 X-2.2465 Y0.4889  
G01 X-2.2535 Y0.4889  
G01 X-2.2602 Y0.4902  
G01 X-2.2666 Y0.4929  
G01 X-2.2724 Y0.4967  
G01 X-2.2773 Y0.5016  
G01 X-2.2811 Y0.5074  
G01 X-2.2838 Y0.5138  
G01 X-2.2851 Y0.5205  
G01 X-2.2851 Y0.5795  
G01 X-2.2838 Y0.5862  
G01 X-2.2811 Y0.5926  
G01 X-2.2773 Y0.5984  
G00 Z0.1000  
G00 X-2.1773 Y0.5984  
G01 Z-0.0020 F10    
G01 X-2.1724 Y0.6033  F20    
G01 X-2.1666 Y0.6071  
G01 X-2.1602 Y0.6098  
G01 X-2.1535 Y0.6111  
G01 X-2.1465 Y0.6111  
G01 X-2.1398 Y0.6098  
G01 X-2.1334 Y0.6071  
G01 X-2.1276 Y0.6033  
G01 X-2.1227 Y0.5984  
G01 X-2.1189 Y0.5926  
G01 X-2.1162 Y0.5862  
G01 X-2.1149 Y0.5795  
G01 X-2.1149 Y0.5205  
G01 X-2.1162 Y0.5138  
G01 X-2.1189 Y0.5074  
G01 X-2.1227 Y0.5016  
G01 X-2.1276 Y0.4967  
G01 X-2.1334 Y0.4929  
G01 X-2.1398 Y0.4902  
G01 X-2.1465 Y0.4889  
G01 X-2.1535 Y0.4889  
G01 X-2.1602 Y0.4902  
G01 X-2.1666 Y0.4929  
G01 X-2.1724 Y0.4967  
G01 X-2.1773 Y0.5016  
G01 X-2.1811 Y0.5074  
G01 X-2.1838 Y0.5138  
G01 X-2.1851 Y0.5205  
G01 X-2.1851 Y0.5795  
G01 X-2.1838 Y0.5862  
G01 X-2.1811 Y0.5926  
G01 X-2.1773 Y0.5984  
G00 Z0.1000  
G00 X-0.1989 Y0.1288  
G01 Z-0.0020 F10    
G01 X-0.2288 Y0.0989  F20    
G01 X-0.2712 Y0.0989  
G01 X-0.3000 Y0.1277  
G01 X-0.3288 Y0.0989  
G01 X-0.3712 Y0.0989  
G01 X-0.4000 Y0.1277  
G01 X-0.4288 Y0.0989  
G01 X-0.4712 Y0.0989  
G01 X-0.5000 Y0.1277  
G01 X-0.5288 Y0.0989  
G01 X-0.5712 Y0.0989  
G01 X-0.5725 Y0.1002  
G01 X-0.6104 Y0.0623  
G01 X-0.6155 Y0.0594  
G01 X-0.6211 Y0.0579  
G01 X-1.3949 Y0.0579  
G01 X-1.4005 Y0.0594  
G01 X-1.4056 Y0.0623  
G01 X-1.4097 Y0.0664  
G01 X-1.8257 Y0.4824  
G01 X-1.8286 Y0.4875  
G01 X-1.8292 Y0.4897  
G01 X-1.8310 Y0.4885  
G01 X-1.8383 Y0.4854  
G01 X-1.8461 Y0.4839  
G01 X-1.8539 Y0.4839  
G01 X-1.8617 Y0.4854  
G01 X-1.8690 Y0.4885  
G01 X-1.8756 Y0.4929  
G01 X-1.8811 Y0.4984  
G01 X-1.8855 Y0.5050  
G01 X-1.8886 Y0.5123  
G01 X-1.8901 Y0.5201  
G01 X-1.8901 Y0.5746  
G01 X-1.8904 Y0.5743  
G01 X-1.9099 Y0.5548  
G01 X-1.9099 Y0.5201  
G01 X-1.9114 Y0.5123  
G01 X-1.9145 Y0.5050  
G01 X-1.9189 Y0.4984  
G01 X-1.9244 Y0.4929  
G01 X-1.9310 Y0.4885  
G01 X-1.9383 Y0.4854  
G01 X-1.9461 Y0.4839  
G01 X-1.9539 Y0.4839  
G01 X-1.9617 Y0.4854  
G01 X-1.9690 Y0.4885  
G01 X-1.9756 Y0.4929  
G01 X-1.9811 Y0.4984  
G01 X-1.9855 Y0.5050  
G01 X-1.9886 Y0.5123  
G01 X-1.9901 Y0.5201  
G01 X-1.9901 Y0.5799  
G01 X-1.9886 Y0.5877  
G01 X-1.9882 Y0.5885  
G01 X-2.0099 Y0.5668  
G01 X-2.0099 Y0.5201  
G01 X-2.0114 Y0.5123  
G01 X-2.0145 Y0.5050  
G01 X-2.0189 Y0.4984  
G01 X-2.0244 Y0.4929  
G01 X-2.0310 Y0.4885  
G01 X-2.0383 Y0.4854  
G01 X-2.0461 Y0.4839  
G01 X-2.0539 Y0.4839  
G01 X-2.0617 Y0.4854  
G01 X-2.0690 Y0.4885  
G01 X-2.0756 Y0.4929  
G01 X-2.0811 Y0.4984  
G01 X-2.0855 Y0.5050  
G01 X-2.0886 Y0.5123  
G01 X-2.0901 Y0.5201  
G01 X-2.0901 Y0.5799  
G01 X-2.0886 Y0.5877  
G01 X-2.0855 Y0.5950  
G01 X-2.0811 Y0.6016  
G01 X-2.0756 Y0.6071  
G01 X-2.0690 Y0.6115  
G01 X-2.0617 Y0.6146  
G01 X-2.0539 Y0.6161  
G01 X-2.0461 Y0.6161  
G01 X-2.0383 Y0.6146  
G01 X-2.0310 Y0.6115  
G01 X-2.0290 Y0.6102  
G01 X-1.8577 Y0.7816  
G01 X-1.8551 Y0.7841  
G01 X-1.8617 Y0.7854  
G01 X-1.8690 Y0.7885  
G01 X-1.8756 Y0.7929  
G01 X-1.8811 Y0.7984  
G01 X-1.8855 Y0.8050  
G01 X-1.8886 Y0.8123  
G01 X-1.8901 Y0.8201  
G01 X-1.8901 Y0.8799  
G01 X-1.8886 Y0.8877  
G01 X-1.8855 Y0.8950  
G01 X-1.8811 Y0.9016  
G01 X-1.8756 Y0.9071  
G01 X-1.8690 Y0.9115  
G01 X-1.8617 Y0.9146  
G01 X-1.8539 Y0.9161  
G01 X-1.8461 Y0.9161  
G01 X-1.8383 Y0.9146  
G01 X-1.8310 Y0.9115  
G01 X-1.8244 Y0.9071  
G01 X-1.8189 Y0.9016  
G01 X-1.8145 Y0.8950  
G01 X-1.8114 Y0.8877  
G01 X-1.8099 Y0.8799  
G01 X-1.8099 Y0.8201  
G01 X-1.8114 Y0.8123  
G01 X-1.8145 Y0.8050  
G01 X-1.8189 Y0.7984  
G01 X-1.8244 Y0.7929  
G01 X-1.8286 Y0.7901  
G01 X-1.7714 Y0.7901  
G01 X-1.7756 Y0.7929  
G01 X-1.7811 Y0.7984  
G01 X-1.7855 Y0.8050  
G01 X-1.7886 Y0.8123  
G01 X-1.7901 Y0.8201  
G01 X-1.7901 Y0.8799  
G01 X-1.7886 Y0.8877  
G01 X-1.7855 Y0.8950  
G01 X-1.7811 Y0.9016  
G01 X-1.7756 Y0.9071  
G01 X-1.7690 Y0.9115  
G01 X-1.7617 Y0.9146  
G01 X-1.7539 Y0.9161  
G01 X-1.7461 Y0.9161  
G01 X-1.7383 Y0.9146  
G01 X-1.7310 Y0.9115  
G01 X-1.7290 Y0.9102  
G01 X-1.6977 Y0.9416  
G01 X-1.6936 Y0.9457  
G01 X-1.6885 Y0.9486  
G01 X-1.6829 Y0.9501  
G01 X-0.8291 Y0.9501  
G01 X-0.8235 Y0.9486  
G01 X-0.8184 Y0.9457  
G01 X-0.5760 Y0.7033  
G01 X-0.4017 Y0.8776  
G01 X-0.3976 Y0.8817  
G01 X-0.3925 Y0.8846  
G01 X-0.3869 Y0.8861  
G01 X-0.3331 Y0.8861  
G01 X-0.3275 Y0.8846  
G01 X-0.3224 Y0.8817  
G01 X-0.2744 Y0.8337  
G01 X-0.2703 Y0.8296  
G01 X-0.2674 Y0.8245  
G01 X-0.2659 Y0.8189  
G01 X-0.2659 Y0.6691  
G01 X-0.2674 Y0.6635  
G01 X-0.2703 Y0.6584  
G01 X-0.2744 Y0.6543  
G01 X-0.4110 Y0.5177  
G01 X-0.4099 Y0.5166  
G01 X-0.4099 Y0.4834  
G01 X-0.4259 Y0.4674  
G01 X-0.4259 Y0.2982  
G01 X-0.4000 Y0.2723  
G01 X-0.3712 Y0.3011  
G01 X-0.3288 Y0.3011  
G01 X-0.3000 Y0.2723  
G01 X-0.2712 Y0.3011  
G01 X-0.2288 Y0.3011  
G01 X-0.1989 Y0.2712  
G01 X-0.1989 Y0.2288  
G01 X-0.2277 Y0.2000  
G01 X-0.1989 Y0.1712  
G01 X-0.1989 Y0.1288  
G00 Z0.1000  
G00 X-0.2723 Y0.2000  
G01 Z-0.0020 F10    
G01 X-0.3000 Y0.2277  F20    
G01 X-0.3277 Y0.2000  
G01 X-0.3000 Y0.1723  
G01 X-0.2723 Y0.2000  
G00 Z0.1000  
G00 X-0.3741 Y0.1982  
G01 Z-0.0020 F10    
G01 X-0.3741 Y0.2018  F20    
G01 X-0.4000 Y0.2277  
G01 X-0.4259 Y0.2018  
G01 X-0.4259 Y0.1982  
G01 X-0.4098 Y0.1821  
G01 X-0.3902 Y0.1821  
G01 X-0.3741 Y0.1982  
G00 Z0.1000  
G00 X-0.4723 Y0.2000  
G01 Z-0.0020 F10    
G01 X-0.5000 Y0.2277  F20    
G01 X-0.5277 Y0.2000  
G01 X-0.5000 Y0.1723  
G01 X-0.4723 Y0.2000  
G00 Z0.1000  
G00 X-0.4942 Y0.2781  
G01 Z-0.0020 F10    
G01 X-0.4712 Y0.3011  F20    
G01 X-0.4701 Y0.3011  
G01 X-0.4701 Y0.4634  
G01 X-0.4901 Y0.4834  
G01 X-0.4901 Y0.5166  
G01 X-0.4666 Y0.5401  
G01 X-0.4512 Y0.5401  
G01 X-0.3101 Y0.6812  
G01 X-0.3101 Y0.8068  
G01 X-0.3117 Y0.8084  
G01 X-0.3109 Y0.8035  
G01 X-0.3109 Y0.7965  
G01 X-0.3120 Y0.7897  
G01 X-0.3141 Y0.7831  
G01 X-0.3173 Y0.7769  
G01 X-0.3214 Y0.7713  
G01 X-0.3263 Y0.7664  
G01 X-0.3319 Y0.7623  
G01 X-0.3381 Y0.7591  
G01 X-0.3447 Y0.7570  
G01 X-0.3515 Y0.7559  
G01 X-0.3585 Y0.7559  
G01 X-0.3653 Y0.7570  
G01 X-0.3719 Y0.7591  
G01 X-0.3757 Y0.7611  
G01 X-0.5219 Y0.6148  
G01 X-0.5219 Y0.5286  
G01 X-0.5099 Y0.5166  
G01 X-0.5099 Y0.4834  
G01 X-0.5334 Y0.4599  
G01 X-0.5648 Y0.4599  
G01 X-0.5944 Y0.4303  
G01 X-0.5995 Y0.4274  
G01 X-0.6051 Y0.4259  
G01 X-0.7869 Y0.4259  
G01 X-0.7925 Y0.4274  
G01 X-0.7976 Y0.4303  
G01 X-0.8017 Y0.4344  
G01 X-0.8177 Y0.4504  
G01 X-0.8206 Y0.4555  
G01 X-0.8221 Y0.4611  
G01 X-0.8221 Y0.4712  
G01 X-0.8334 Y0.4599  
G01 X-0.8666 Y0.4599  
G01 X-0.8901 Y0.4834  
G01 X-0.8901 Y0.5166  
G01 X-0.8701 Y0.5366  
G01 X-0.8701 Y0.6179  
G01 X-1.8628 Y0.6179  
G01 X-1.8696 Y0.6111  
G01 X-1.8690 Y0.6115  
G01 X-1.8617 Y0.6146  
G01 X-1.8539 Y0.6161  
G01 X-1.8461 Y0.6161  
G01 X-1.8383 Y0.6146  
G01 X-1.8310 Y0.6115  
G01 X-1.8244 Y0.6071  
G01 X-1.8189 Y0.6016  
G01 X-1.8145 Y0.5950  
G01 X-1.8114 Y0.5877  
G01 X-1.8099 Y0.5799  
G01 X-1.8099 Y0.5452  
G01 X-1.7944 Y0.5297  
G01 X-1.7903 Y0.5256  
G01 X-1.7901 Y0.5252  
G01 X-1.7901 Y0.5799  
G01 X-1.7886 Y0.5877  
G01 X-1.7855 Y0.5950  
G01 X-1.7811 Y0.6016  
G01 X-1.7756 Y0.6071  
G01 X-1.7690 Y0.6115  
G01 X-1.7617 Y0.6146  
G01 X-1.7539 Y0.6161  
G01 X-1.7461 Y0.6161  
G01 X-1.7383 Y0.6146  
G01 X-1.7310 Y0.6115  
G01 X-1.7244 Y0.6071  
G01 X-1.7189 Y0.6016  
G01 X-1.7145 Y0.5950  
G01 X-1.7114 Y0.5877  
G01 X-1.7099 Y0.5799  
G01 X-1.7099 Y0.5412  
G01 X-1.6901 Y0.5214  
G01 X-1.6901 Y0.5799  
G01 X-1.6886 Y0.5877  
G01 X-1.6855 Y0.5950  
G01 X-1.6811 Y0.6016  
G01 X-1.6756 Y0.6071  
G01 X-1.6690 Y0.6115  
G01 X-1.6617 Y0.6146  
G01 X-1.6539 Y0.6161  
G01 X-1.6461 Y0.6161  
G01 X-1.6383 Y0.6146  
G01 X-1.6310 Y0.6115  
G01 X-1.6244 Y0.6071  
G01 X-1.6189 Y0.6016  
G01 X-1.6145 Y0.5950  
G01 X-1.6114 Y0.5877  
G01 X-1.6099 Y0.5799  
G01 X-1.6099 Y0.5201  
G01 X-1.6114 Y0.5123  
G01 X-1.6145 Y0.5050  
G01 X-1.6189 Y0.4984  
G01 X-1.6244 Y0.4929  
G01 X-1.6310 Y0.4885  
G01 X-1.6383 Y0.4854  
G01 X-1.6461 Y0.4839  
G01 X-1.6526 Y0.4839  
G01 X-1.5108 Y0.3421  
G01 X-0.7171 Y0.3421  
G01 X-0.7115 Y0.3406  
G01 X-0.7064 Y0.3377  
G01 X-0.6698 Y0.3011  
G01 X-0.6288 Y0.3011  
G01 X-0.6000 Y0.2723  
G01 X-0.5712 Y0.3011  
G01 X-0.5288 Y0.3011  
G01 X-0.5058 Y0.2781  
G01 X-0.4942 Y0.2781  
G00 Z0.1000  
G00 X-0.6000 Y0.2277  
G01 Z-0.0020 F10    
G01 X-0.6277 Y0.2000  F20    
G01 X-0.6000 Y0.1723  
G01 X-0.5821 Y0.1902  
G01 X-0.5821 Y0.2098  
G01 X-0.6000 Y0.2277  
G00 Z0.1000  
G00 X-0.7000 Y0.2277  
G01 Z-0.0020 F10    
G01 X-0.7277 Y0.2000  F20    
G01 X-0.7000 Y0.1723  
G01 X-0.6781 Y0.1942  
G01 X-0.6781 Y0.2058  
G01 X-0.7000 Y0.2277  
G00 Z0.1000  
G00 X-0.7000 Y0.1277  
G01 Z-0.0020 F10    
G01 X-0.7256 Y0.1021  F20    
G01 X-0.6744 Y0.1021  
G01 X-0.7000 Y0.1277  
G00 Z0.1000  
G00 X-0.8000 Y0.1277  
G01 Z-0.0020 F10    
G01 X-0.8256 Y0.1021  F20    
G01 X-0.7744 Y0.1021  
G01 X-0.8000 Y0.1277  
G00 Z0.1000  
G00 X-0.8000 Y0.1723  
G01 Z-0.0020 F10    
G01 X-0.7723 Y0.2000  F20    
G01 X-0.8000 Y0.2277  
G01 X-0.8277 Y0.2000  
G01 X-0.8000 Y0.1723  
G00 Z0.1000  
G00 X-0.9000 Y0.1723  
G01 Z-0.0020 F10    
G01 X-0.8723 Y0.2000  F20    
G01 X-0.9000 Y0.2277  
G01 X-0.9277 Y0.2000  
G01 X-0.9000 Y0.1723  
G00 Z0.1000  
G00 X-0.9000 Y0.1277  
G01 Z-0.0020 F10    
G01 X-0.9256 Y0.1021  F20    
G01 X-0.8744 Y0.1021  
G01 X-0.9000 Y0.1277  
G00 Z0.1000  
G00 X-0.9744 Y0.1021  
G01 Z-0.0020 F10    
G01 X-1.0011 Y0.1288  F20    
G01 X-1.0011 Y0.1712  
G01 X-0.9723 Y0.2000  
G01 X-1.0011 Y0.2288  
G01 X-1.0011 Y0.2712  
G01 X-0.9744 Y0.2979  
G01 X-1.5229 Y0.2979  
G01 X-1.5285 Y0.2994  
G01 X-1.5336 Y0.3023  
G01 X-1.5377 Y0.3064  
G01 X-1.7243 Y0.4930  
G01 X-1.7244 Y0.4929  
G01 X-1.7310 Y0.4885  
G01 X-1.7383 Y0.4854  
G01 X-1.7461 Y0.4839  
G01 X-1.7539 Y0.4839  
G01 X-1.7617 Y0.4854  
G01 X-1.7690 Y0.4885  
G01 X-1.7696 Y0.4889  
G01 X-1.3828 Y0.1021  
G01 X-0.9744 Y0.1021  
G00 Z0.1000  
G00 X-0.9256 Y0.2979  
G01 Z-0.0020 F10    
G01 X-0.9000 Y0.2723  F20    
G01 X-0.8744 Y0.2979  
G01 X-0.9256 Y0.2979  
G00 Z0.1000  
G00 X-0.8256 Y0.2979  
G01 Z-0.0020 F10    
G01 X-0.8000 Y0.2723  F20    
G01 X-0.7744 Y0.2979  
G01 X-0.8256 Y0.2979  
G00 Z0.1000  
G00 X-0.8221 Y0.5288  
G01 Z-0.0020 F10    
G01 X-0.8221 Y0.5309  F20    
G01 X-0.8206 Y0.5365  
G01 X-0.8177 Y0.5416  
G01 X-0.8136 Y0.5457  
G01 X-0.8061 Y0.5532  
G01 X-0.8061 Y0.7792  
G01 X-0.8073 Y0.7769  
G01 X-0.8114 Y0.7713  
G01 X-0.8163 Y0.7664  
G01 X-0.8219 Y0.7623  
G01 X-0.8259 Y0.7602  
G01 X-0.8259 Y0.5326  
G01 X-0.8221 Y0.5288  
G00 Z0.1000  
G00 X-0.7622 Y0.5401  
G01 Z-0.0020 F10    
G01 X-0.7392 Y0.5401  F20    
G01 X-0.6073 Y0.6720  
G01 X-0.8412 Y0.9059  
G01 X-1.1232 Y0.9059  
G01 X-1.1189 Y0.9016  
G01 X-1.1145 Y0.8950  
G01 X-1.1114 Y0.8877  
G01 X-1.1099 Y0.8799  
G01 X-1.1099 Y0.8201  
G01 X-1.1114 Y0.8123  
G01 X-1.1145 Y0.8050  
G01 X-1.1189 Y0.7984  
G01 X-1.1244 Y0.7929  
G01 X-1.1286 Y0.7901  
G01 X-0.9692 Y0.7901  
G01 X-0.8817 Y0.8776  
G01 X-0.8776 Y0.8817  
G01 X-0.8725 Y0.8846  
G01 X-0.8669 Y0.8861  
G01 X-0.8291 Y0.8861  
G01 X-0.8235 Y0.8846  
G01 X-0.8184 Y0.8817  
G01 X-0.7663 Y0.8296  
G01 X-0.7634 Y0.8245  
G01 X-0.7619 Y0.8189  
G01 X-0.7619 Y0.5411  
G01 X-0.7622 Y0.5401  
G00 Z0.1000  
G00 X-0.7099 Y0.5068  
G01 Z-0.0020 F10    
G01 X-0.7099 Y0.4834  F20    
G01 X-0.7232 Y0.4701  
G01 X-0.6172 Y0.4701  
G01 X-0.5901 Y0.4972  
G01 X-0.5901 Y0.5166  
G01 X-0.5666 Y0.5401  
G01 X-0.5661 Y0.5401  
G01 X-0.5661 Y0.6269  
G01 X-0.5646 Y0.6325  
G01 X-0.5617 Y0.6376  
G01 X-0.3991 Y0.8002  
G01 X-0.3991 Y0.8035  
G01 X-0.3980 Y0.8103  
G01 X-0.3959 Y0.8169  
G01 X-0.3927 Y0.8231  
G01 X-0.3903 Y0.8265  
G01 X-0.5583 Y0.6584  
G01 X-0.7099 Y0.5068  
G00 Z0.1000  
G00 X-0.8701 Y0.6621  
G01 Z-0.0020 F10    
G01 X-0.8701 Y0.7637  F20    
G01 X-0.8737 Y0.7664  
G01 X-0.8786 Y0.7713  
G01 X-0.8827 Y0.7769  
G01 X-0.8859 Y0.7831  
G01 X-0.8880 Y0.7897  
G01 X-0.8891 Y0.7965  
G01 X-0.8891 Y0.8035  
G01 X-0.8883 Y0.8084  
G01 X-0.9464 Y0.7503  
G01 X-0.9515 Y0.7474  
G01 X-0.9571 Y0.7459  
G01 X-1.8308 Y0.7459  
G01 X-1.9625 Y0.6142  
G01 X-1.9617 Y0.6146  
G01 X-1.9539 Y0.6161  
G01 X-1.9461 Y0.6161  
G01 X-1.9383 Y0.6146  
G01 X-1.9310 Y0.6115  
G01 X-1.9261 Y0.6083  
G01 X-1.9261 Y0.6109  
G01 X-1.9246 Y0.6165  
G01 X-1.9217 Y0.6216  
G01 X-1.8897 Y0.6536  
G01 X-1.8856 Y0.6577  
G01 X-1.8805 Y0.6606  
G01 X-1.8749 Y0.6621  
G01 X-0.8701 Y0.6621  
G00 Z0.1000  
G00 X-1.1244 Y0.6071  
G01 Z-0.0020 F10    
G01 X-1.1189 Y0.6016  F20    
G01 X-1.1145 Y0.5950  
G01 X-1.1114 Y0.5877  
G01 X-1.1099 Y0.5799  
G01 X-1.1099 Y0.5201  
G01 X-1.1114 Y0.5123  
G01 X-1.1145 Y0.5050  
G01 X-1.1189 Y0.4984  
G01 X-1.1244 Y0.4929  
G01 X-1.1310 Y0.4885  
G01 X-1.1383 Y0.4854  
G01 X-1.1461 Y0.4839  
G01 X-1.1539 Y0.4839  
G01 X-1.1617 Y0.4854  
G01 X-1.1690 Y0.4885  
G01 X-1.1756 Y0.4929  
G01 X-1.1811 Y0.4984  
G01 X-1.1855 Y0.5050  
G01 X-1.1886 Y0.5123  
G01 X-1.1901 Y0.5201  
G01 X-1.1901 Y0.5799  
G01 X-1.1886 Y0.5877  
G01 X-1.1855 Y0.5950  
G01 X-1.1811 Y0.6016  
G01 X-1.1756 Y0.6071  
G01 X-1.1690 Y0.6115  
G01 X-1.1617 Y0.6146  
G01 X-1.1539 Y0.6161  
G01 X-1.1461 Y0.6161  
G01 X-1.1383 Y0.6146  
G01 X-1.1310 Y0.6115  
G01 X-1.1244 Y0.6071  
G00 Z0.1000  
G00 X-1.2244 Y0.6071  
G01 Z-0.0020 F10    
G01 X-1.2189 Y0.6016  F20    
G01 X-1.2145 Y0.5950  
G01 X-1.2114 Y0.5877  
G01 X-1.2099 Y0.5799  
G01 X-1.2099 Y0.5201  
G01 X-1.2114 Y0.5123  
G01 X-1.2145 Y0.5050  
G01 X-1.2189 Y0.4984  
G01 X-1.2244 Y0.4929  
G01 X-1.2310 Y0.4885  
G01 X-1.2383 Y0.4854  
G01 X-1.2461 Y0.4839  
G01 X-1.2539 Y0.4839  
G01 X-1.2617 Y0.4854  
G01 X-1.2690 Y0.4885  
G01 X-1.2756 Y0.4929  
G01 X-1.2811 Y0.4984  
G01 X-1.2855 Y0.5050  
G01 X-1.2886 Y0.5123  
G01 X-1.2901 Y0.5201  
G01 X-1.2901 Y0.5799  
G01 X-1.2886 Y0.5877  
G01 X-1.2855 Y0.5950  
G01 X-1.2811 Y0.6016  
G01 X-1.2756 Y0.6071  
G01 X-1.2690 Y0.6115  
G01 X-1.2617 Y0.6146  
G01 X-1.2539 Y0.6161  
G01 X-1.2461 Y0.6161  
G01 X-1.2383 Y0.6146  
G01 X-1.2310 Y0.6115  
G01 X-1.2244 Y0.6071  
G00 Z0.1000  
G00 X-1.3244 Y0.6071  
G01 Z-0.0020 F10    
G01 X-1.3189 Y0.6016  F20    
G01 X-1.3145 Y0.5950  
G01 X-1.3114 Y0.5877  
G01 X-1.3099 Y0.5799  
G01 X-1.3099 Y0.5201  
G01 X-1.3114 Y0.5123  
G01 X-1.3145 Y0.5050  
G01 X-1.3189 Y0.4984  
G01 X-1.3244 Y0.4929  
G01 X-1.3310 Y0.4885  
G01 X-1.3383 Y0.4854  
G01 X-1.3461 Y0.4839  
G01 X-1.3539 Y0.4839  
G01 X-1.3617 Y0.4854  
G01 X-1.3690 Y0.4885  
G01 X-1.3756 Y0.4929  
G01 X-1.3811 Y0.4984  
G01 X-1.3855 Y0.5050  
G01 X-1.3886 Y0.5123  
G01 X-1.3901 Y0.5201  
G01 X-1.3901 Y0.5799  
G01 X-1.3886 Y0.5877  
G01 X-1.3855 Y0.5950  
G01 X-1.3811 Y0.6016  
G01 X-1.3756 Y0.6071  
G01 X-1.3690 Y0.6115  
G01 X-1.3617 Y0.6146  
G01 X-1.3539 Y0.6161  
G01 X-1.3461 Y0.6161  
G01 X-1.3383 Y0.6146  
G01 X-1.3310 Y0.6115  
G01 X-1.3244 Y0.6071  
G00 Z0.1000  
G00 X-1.4244 Y0.6071  
G01 Z-0.0020 F10    
G01 X-1.4189 Y0.6016  F20    
G01 X-1.4145 Y0.5950  
G01 X-1.4114 Y0.5877  
G01 X-1.4099 Y0.5799  
G01 X-1.4099 Y0.5201  
G01 X-1.4114 Y0.5123  
G01 X-1.4145 Y0.5050  
G01 X-1.4189 Y0.4984  
G01 X-1.4244 Y0.4929  
G01 X-1.4310 Y0.4885  
G01 X-1.4383 Y0.4854  
G01 X-1.4461 Y0.4839  
G01 X-1.4539 Y0.4839  
G01 X-1.4617 Y0.4854  
G01 X-1.4690 Y0.4885  
G01 X-1.4756 Y0.4929  
G01 X-1.4811 Y0.4984  
G01 X-1.4855 Y0.5050  
G01 X-1.4886 Y0.5123  
G01 X-1.4901 Y0.5201  
G01 X-1.4901 Y0.5799  
G01 X-1.4886 Y0.5877  
G01 X-1.4855 Y0.5950  
G01 X-1.4811 Y0.6016  
G01 X-1.4756 Y0.6071  
G01 X-1.4690 Y0.6115  
G01 X-1.4617 Y0.6146  
G01 X-1.4539 Y0.6161  
G01 X-1.4461 Y0.6161  
G01 X-1.4383 Y0.6146  
G01 X-1.4310 Y0.6115  
G01 X-1.4244 Y0.6071  
G00 Z0.1000  
G00 X-1.5244 Y0.6071  
G01 Z-0.0020 F10    
G01 X-1.5189 Y0.6016  F20    
G01 X-1.5145 Y0.5950  
G01 X-1.5114 Y0.5877  
G01 X-1.5099 Y0.5799  
G01 X-1.5099 Y0.5201  
G01 X-1.5114 Y0.5123  
G01 X-1.5145 Y0.5050  
G01 X-1.5189 Y0.4984  
G01 X-1.5244 Y0.4929  
G01 X-1.5310 Y0.4885  
G01 X-1.5383 Y0.4854  
G01 X-1.5461 Y0.4839  
G01 X-1.5539 Y0.4839  
G01 X-1.5617 Y0.4854  
G01 X-1.5690 Y0.4885  
G01 X-1.5756 Y0.4929  
G01 X-1.5811 Y0.4984  
G01 X-1.5855 Y0.5050  
G01 X-1.5886 Y0.5123  
G01 X-1.5901 Y0.5201  
G01 X-1.5901 Y0.5799  
G01 X-1.5886 Y0.5877  
G01 X-1.5855 Y0.5950  
G01 X-1.5811 Y0.6016  
G01 X-1.5756 Y0.6071  
G01 X-1.5690 Y0.6115  
G01 X-1.5617 Y0.6146  
G01 X-1.5539 Y0.6161  
G01 X-1.5461 Y0.6161  
G01 X-1.5383 Y0.6146  
G01 X-1.5310 Y0.6115  
G01 X-1.5244 Y0.6071  
G00 Z0.1000  
G00 X-1.5244 Y0.7929  
G01 Z-0.0020 F10    
G01 X-1.5286 Y0.7901  F20    
G01 X-1.4714 Y0.7901  
G01 X-1.4756 Y0.7929  
G01 X-1.4811 Y0.7984  
G01 X-1.4855 Y0.8050  
G01 X-1.4886 Y0.8123  
G01 X-1.4901 Y0.8201  
G01 X-1.4901 Y0.8799  
G01 X-1.4886 Y0.8877  
G01 X-1.4855 Y0.8950  
G01 X-1.4811 Y0.9016  
G01 X-1.4768 Y0.9059  
G01 X-1.5232 Y0.9059  
G01 X-1.5189 Y0.9016  
G01 X-1.5145 Y0.8950  
G01 X-1.5114 Y0.8877  
G01 X-1.5099 Y0.8799  
G01 X-1.5099 Y0.8201  
G01 X-1.5114 Y0.8123  
G01 X-1.5145 Y0.8050  
G01 X-1.5189 Y0.7984  
G01 X-1.5244 Y0.7929  
G00 Z0.1000  
G00 X-1.5714 Y0.7901  
G01 Z-0.0020 F10    
G01 X-1.5756 Y0.7929  F20    
G01 X-1.5811 Y0.7984  
G01 X-1.5855 Y0.8050  
G01 X-1.5886 Y0.8123  
G01 X-1.5901 Y0.8201  
G01 X-1.5901 Y0.8799  
G01 X-1.5886 Y0.8877  
G01 X-1.5855 Y0.8950  
G01 X-1.5811 Y0.9016  
G01 X-1.5768 Y0.9059  
G01 X-1.6232 Y0.9059  
G01 X-1.6189 Y0.9016  
G01 X-1.6145 Y0.8950  
G01 X-1.6114 Y0.8877  
G01 X-1.6099 Y0.8799  
G01 X-1.6099 Y0.8201  
G01 X-1.6114 Y0.8123  
G01 X-1.6145 Y0.8050  
G01 X-1.6189 Y0.7984  
G01 X-1.6244 Y0.7929  
G01 X-1.6286 Y0.7901  
G01 X-1.5714 Y0.7901  
G00 Z0.1000  
G00 X-1.6714 Y0.7901  
G01 Z-0.0020 F10    
G01 X-1.6756 Y0.7929  F20    
G01 X-1.6811 Y0.7984  
G01 X-1.6855 Y0.8050  
G01 X-1.6886 Y0.8123  
G01 X-1.6901 Y0.8201  
G01 X-1.6901 Y0.8799  
G01 X-1.6886 Y0.8877  
G01 X-1.6882 Y0.8885  
G01 X-1.7099 Y0.8668  
G01 X-1.7099 Y0.8201  
G01 X-1.7114 Y0.8123  
G01 X-1.7145 Y0.8050  
G01 X-1.7189 Y0.7984  
G01 X-1.7244 Y0.7929  
G01 X-1.7286 Y0.7901  
G01 X-1.6714 Y0.7901  
G00 Z0.1000  
G00 X-1.4286 Y0.7901  
G01 Z-0.0020 F10    
G01 X-1.3714 Y0.7901  F20    
G01 X-1.3756 Y0.7929  
G01 X-1.3811 Y0.7984  
G01 X-1.3855 Y0.8050  
G01 X-1.3886 Y0.8123  
G01 X-1.3901 Y0.8201  
G01 X-1.3901 Y0.8799  
G01 X-1.3886 Y0.8877  
G01 X-1.3855 Y0.8950  
G01 X-1.3811 Y0.9016  
G01 X-1.3768 Y0.9059  
G01 X-1.4232 Y0.9059  
G01 X-1.4189 Y0.9016  
G01 X-1.4145 Y0.8950  
G01 X-1.4114 Y0.8877  
G01 X-1.4099 Y0.8799  
G01 X-1.4099 Y0.8201  
G01 X-1.4114 Y0.8123  
G01 X-1.4145 Y0.8050  
G01 X-1.4189 Y0.7984  
G01 X-1.4244 Y0.7929  
G01 X-1.4286 Y0.7901  
G00 Z0.1000  
G00 X-1.3286 Y0.7901  
G01 Z-0.0020 F10    
G01 X-1.2714 Y0.7901  F20    
G01 X-1.2756 Y0.7929  
G01 X-1.2811 Y0.7984  
G01 X-1.2855 Y0.8050  
G01 X-1.2886 Y0.8123  
G01 X-1.2901 Y0.8201  
G01 X-1.2901 Y0.8799  
G01 X-1.2886 Y0.8877  
G01 X-1.2855 Y0.8950  
G01 X-1.2811 Y0.9016  
G01 X-1.2768 Y0.9059  
G01 X-1.3232 Y0.9059  
G01 X-1.3189 Y0.9016  
G01 X-1.3145 Y0.8950  
G01 X-1.3114 Y0.8877  
G01 X-1.3099 Y0.8799  
G01 X-1.3099 Y0.8201  
G01 X-1.3114 Y0.8123  
G01 X-1.3145 Y0.8050  
G01 X-1.3189 Y0.7984  
G01 X-1.3244 Y0.7929  
G01 X-1.3286 Y0.7901  
G00 Z0.1000  
G00 X-1.2286 Y0.7901  
G01 Z-0.0020 F10    
G01 X-1.1714 Y0.7901  F20    
G01 X-1.1756 Y0.7929  
G01 X-1.1811 Y0.7984  
G01 X-1.1855 Y0.8050  
G01 X-1.1886 Y0.8123  
G01 X-1.1901 Y0.8201  
G01 X-1.1901 Y0.8799  
G01 X-1.1886 Y0.8877  
G01 X-1.1855 Y0.8950  
G01 X-1.1811 Y0.9016  
G01 X-1.1768 Y0.9059  
G01 X-1.2232 Y0.9059  
G01 X-1.2189 Y0.9016  
G01 X-1.2145 Y0.8950  
G01 X-1.2114 Y0.8877  
G01 X-1.2099 Y0.8799  
G01 X-1.2099 Y0.8201  
G01 X-1.2114 Y0.8123  
G01 X-1.2145 Y0.8050  
G01 X-1.2189 Y0.7984  
G01 X-1.2244 Y0.7929  
G01 X-1.2286 Y0.7901  
G00 Z0.1000  
G00 X-1.9189 Y0.7984  
G01 Z-0.0020 F10    
G01 X-1.9244 Y0.7929  F20    
G01 X-1.9310 Y0.7885  
G01 X-1.9383 Y0.7854  
G01 X-1.9461 Y0.7839  
G01 X-1.9539 Y0.7839  
G01 X-1.9617 Y0.7854  
G01 X-1.9690 Y0.7885  
G01 X-1.9756 Y0.7929  
G01 X-1.9811 Y0.7984  
G01 X-1.9855 Y0.8050  
G01 X-1.9886 Y0.8123  
G01 X-1.9901 Y0.8201  
G01 X-1.9901 Y0.8799  
G01 X-1.9886 Y0.8877  
G01 X-1.9855 Y0.8950  
G01 X-1.9811 Y0.9016  
G01 X-1.9756 Y0.9071  
G01 X-1.9690 Y0.9115  
G01 X-1.9617 Y0.9146  
G01 X-1.9539 Y0.9161  
G01 X-1.9461 Y0.9161  
G01 X-1.9383 Y0.9146  
G01 X-1.9310 Y0.9115  
G01 X-1.9244 Y0.9071  
G01 X-1.9189 Y0.9016  
G01 X-1.9145 Y0.8950  
G01 X-1.9114 Y0.8877  
G01 X-1.9099 Y0.8799  
G01 X-1.9099 Y0.8201  
G01 X-1.9114 Y0.8123  
G01 X-1.9145 Y0.8050  
G01 X-1.9189 Y0.7984  
G00 Z0.1000  
G00 X-2.0189 Y0.7984  
G01 Z-0.0020 F10    
G01 X-2.0244 Y0.7929  F20    
G01 X-2.0310 Y0.7885  
G01 X-2.0383 Y0.7854  
G01 X-2.0461 Y0.7839  
G01 X-2.0539 Y0.7839  
G01 X-2.0617 Y0.7854  
G01 X-2.0690 Y0.7885  
G01 X-2.0756 Y0.7929  
G01 X-2.0811 Y0.7984  
G01 X-2.0855 Y0.8050  
G01 X-2.0886 Y0.8123  
G01 X-2.0901 Y0.8201  
G01 X-2.0901 Y0.8799  
G01 X-2.0886 Y0.8877  
G01 X-2.0855 Y0.8950  
G01 X-2.0811 Y0.9016  
G01 X-2.0756 Y0.9071  
G01 X-2.0690 Y0.9115  
G01 X-2.0617 Y0.9146  
G01 X-2.0539 Y0.9161  
G01 X-2.0461 Y0.9161  
G01 X-2.0383 Y0.9146  
G01 X-2.0310 Y0.9115  
G01 X-2.0244 Y0.9071  
G01 X-2.0189 Y0.9016  
G01 X-2.0145 Y0.8950  
G01 X-2.0114 Y0.8877  
G01 X-2.0099 Y0.8799  
G01 X-2.0099 Y0.8201  
G01 X-2.0114 Y0.8123  
G01 X-2.0145 Y0.8050  
G01 X-2.0189 Y0.7984  
G00 Z0.1000  
G00 X-2.1189 Y0.7984  
G01 Z-0.0020 F10    
G01 X-2.1244 Y0.7929  F20    
G01 X-2.1310 Y0.7885  
G01 X-2.1383 Y0.7854  
G01 X-2.1461 Y0.7839  
G01 X-2.1539 Y0.7839  
G01 X-2.1617 Y0.7854  
G01 X-2.1690 Y0.7885  
G01 X-2.1756 Y0.7929  
G01 X-2.1811 Y0.7984  
G01 X-2.1855 Y0.8050  
G01 X-2.1886 Y0.8123  
G01 X-2.1901 Y0.8201  
G01 X-2.1901 Y0.8799  
G01 X-2.1886 Y0.8877  
G01 X-2.1855 Y0.8950  
G01 X-2.1811 Y0.9016  
G01 X-2.1756 Y0.9071  
G01 X-2.1690 Y0.9115  
G01 X-2.1617 Y0.9146  
G01 X-2.1539 Y0.9161  
G01 X-2.1461 Y0.9161  
G01 X-2.1383 Y0.9146  
G01 X-2.1310 Y0.9115  
G01 X-2.1244 Y0.9071  
G01 X-2.1189 Y0.9016  
G01 X-2.1145 Y0.8950  
G01 X-2.1114 Y0.8877  
G01 X-2.1099 Y0.8799  
G01 X-2.1099 Y0.8201  
G01 X-2.1114 Y0.8123  
G01 X-2.1145 Y0.8050  
G01 X-2.1189 Y0.7984  
G00 Z0.1000  
G00 X-2.2189 Y0.7984  
G01 Z-0.0020 F10    
G01 X-2.2244 Y0.7929  F20    
G01 X-2.2310 Y0.7885  
G01 X-2.2383 Y0.7854  
G01 X-2.2461 Y0.7839  
G01 X-2.2539 Y0.7839  
G01 X-2.2617 Y0.7854  
G01 X-2.2690 Y0.7885  
G01 X-2.2756 Y0.7929  
G01 X-2.2811 Y0.7984  
G01 X-2.2855 Y0.8050  
G01 X-2.2886 Y0.8123  
G01 X-2.2901 Y0.8201  
G01 X-2.2901 Y0.8799  
G01 X-2.2886 Y0.8877  
G01 X-2.2855 Y0.8950  
G01 X-2.2811 Y0.9016  
G01 X-2.2756 Y0.9071  
G01 X-2.2690 Y0.9115  
G01 X-2.2617 Y0.9146  
G01 X-2.2539 Y0.9161  
G01 X-2.2461 Y0.9161  
G01 X-2.2383 Y0.9146  
G01 X-2.2310 Y0.9115  
G01 X-2.2244 Y0.9071  
G01 X-2.2189 Y0.9016  
G01 X-2.2145 Y0.8950  
G01 X-2.2114 Y0.8877  
G01 X-2.2099 Y0.8799  
G01 X-2.2099 Y0.8201  
G01 X-2.2114 Y0.8123  
G01 X-2.2145 Y0.8050  
G01 X-2.2189 Y0.7984  
G00 Z0.1000  
G00 X-2.3189 Y0.7984  
G01 Z-0.0020 F10    
G01 X-2.3244 Y0.7929  F20    
G01 X-2.3310 Y0.7885  
G01 X-2.3383 Y0.7854  
G01 X-2.3461 Y0.7839  
G01 X-2.3539 Y0.7839  
G01 X-2.3617 Y0.7854  
G01 X-2.3690 Y0.7885  
G01 X-2.3756 Y0.7929  
G01 X-2.3811 Y0.7984  
G01 X-2.3855 Y0.8050  
G01 X-2.3886 Y0.8123  
G01 X-2.3901 Y0.8201  
G01 X-2.3901 Y0.8799  
G01 X-2.3886 Y0.8877  
G01 X-2.3855 Y0.8950  
G01 X-2.3811 Y0.9016  
G01 X-2.3756 Y0.9071  
G01 X-2.3690 Y0.9115  
G01 X-2.3617 Y0.9146  
G01 X-2.3539 Y0.9161  
G01 X-2.3461 Y0.9161  
G01 X-2.3383 Y0.9146  
G01 X-2.3310 Y0.9115  
G01 X-2.3244 Y0.9071  
G01 X-2.3189 Y0.9016  
G01 X-2.3145 Y0.8950  
G01 X-2.3114 Y0.8877  
G01 X-2.3099 Y0.8799  
G01 X-2.3099 Y0.8201  
G01 X-2.3114 Y0.8123  
G01 X-2.3145 Y0.8050  
G01 X-2.3189 Y0.7984  
G00 Z0.1000  
G00 X-2.4189 Y0.7984  
G01 Z-0.0020 F10    
G01 X-2.4244 Y0.7929  F20    
G01 X-2.4310 Y0.7885  
G01 X-2.4383 Y0.7854  
G01 X-2.4461 Y0.7839  
G01 X-2.4539 Y0.7839  
G01 X-2.4617 Y0.7854  
G01 X-2.4690 Y0.7885  
G01 X-2.4756 Y0.7929  
G01 X-2.4811 Y0.7984  
G01 X-2.4855 Y0.8050  
G01 X-2.4886 Y0.8123  
G01 X-2.4901 Y0.8201  
G01 X-2.4901 Y0.8799  
G01 X-2.4886 Y0.8877  
G01 X-2.4855 Y0.8950  
G01 X-2.4811 Y0.9016  
G01 X-2.4756 Y0.9071  
G01 X-2.4690 Y0.9115  
G01 X-2.4617 Y0.9146  
G01 X-2.4539 Y0.9161  
G01 X-2.4461 Y0.9161  
G01 X-2.4383 Y0.9146  
G01 X-2.4310 Y0.9115  
G01 X-2.4244 Y0.9071  
G01 X-2.4189 Y0.9016  
G01 X-2.4145 Y0.8950  
G01 X-2.4114 Y0.8877  
G01 X-2.4099 Y0.8799  
G01 X-2.4099 Y0.8201  
G01 X-2.4114 Y0.8123  
G01 X-2.4145 Y0.8050  
G01 X-2.4189 Y0.7984  
G00 Z0.1000  
G00 X-2.4244 Y0.6071  
G01 Z-0.0020 F10    
G01 X-2.4189 Y0.6016  F20    
G01 X-2.4145 Y0.5950  
G01 X-2.4114 Y0.5877  
G01 X-2.4099 Y0.5799  
G01 X-2.4099 Y0.5201  
G01 X-2.4114 Y0.5123  
G01 X-2.4145 Y0.5050  
G01 X-2.4189 Y0.4984  
G01 X-2.4244 Y0.4929  
G01 X-2.4310 Y0.4885  
G01 X-2.4383 Y0.4854  
G01 X-2.4461 Y0.4839  
G01 X-2.4539 Y0.4839  
G01 X-2.4617 Y0.4854  
G01 X-2.4690 Y0.4885  
G01 X-2.4756 Y0.4929  
G01 X-2.4811 Y0.4984  
G01 X-2.4855 Y0.5050  
G01 X-2.4886 Y0.5123  
G01 X-2.4901 Y0.5201  
G01 X-2.4901 Y0.5799  
G01 X-2.4886 Y0.5877  
G01 X-2.4855 Y0.5950  
G01 X-2.4811 Y0.6016  
G01 X-2.4756 Y0.6071  
G01 X-2.4690 Y0.6115  
G01 X-2.4617 Y0.6146  
G01 X-2.4539 Y0.6161  
G01 X-2.4461 Y0.6161  
G01 X-2.4383 Y0.6146  
G01 X-2.4310 Y0.6115  
G01 X-2.4244 Y0.6071  
G00 Z0.1000  
G00 X-2.3811 Y0.6016  
G01 Z-0.0020 F10    
G01 X-2.3756 Y0.6071  F20    
G01 X-2.3690 Y0.6115  
G01 X-2.3617 Y0.6146  
G01 X-2.3539 Y0.6161  
G01 X-2.3461 Y0.6161  
G01 X-2.3383 Y0.6146  
G01 X-2.3310 Y0.6115  
G01 X-2.3244 Y0.6071  
G01 X-2.3189 Y0.6016  
G01 X-2.3145 Y0.5950  
G01 X-2.3114 Y0.5877  
G01 X-2.3099 Y0.5799  
G01 X-2.3099 Y0.5201  
G01 X-2.3114 Y0.5123  
G01 X-2.3145 Y0.5050  
G01 X-2.3189 Y0.4984  
G01 X-2.3244 Y0.4929  
G01 X-2.3310 Y0.4885  
G01 X-2.3383 Y0.4854  
G01 X-2.3461 Y0.4839  
G01 X-2.3539 Y0.4839  
G01 X-2.3617 Y0.4854  
G01 X-2.3690 Y0.4885  
G01 X-2.3756 Y0.4929  
G01 X-2.3811 Y0.4984  
G01 X-2.3855 Y0.5050  
G01 X-2.3886 Y0.5123  
G01 X-2.3901 Y0.5201  
G01 X-2.3901 Y0.5799  
G01 X-2.3886 Y0.5877  
G01 X-2.3855 Y0.5950  
G01 X-2.3811 Y0.6016  
G00 Z0.1000  
G00 X-2.2811 Y0.6016  
G01 Z-0.0020 F10    
G01 X-2.2756 Y0.6071  F20    
G01 X-2.2690 Y0.6115  
G01 X-2.2617 Y0.6146  
G01 X-2.2539 Y0.6161  
G01 X-2.2461 Y0.6161  
G01 X-2.2383 Y0.6146  
G01 X-2.2310 Y0.6115  
G01 X-2.2244 Y0.6071  
G01 X-2.2189 Y0.6016  
G01 X-2.2145 Y0.5950  
G01 X-2.2114 Y0.5877  
G01 X-2.2099 Y0.5799  
G01 X-2.2099 Y0.5201  
G01 X-2.2114 Y0.5123  
G01 X-2.2145 Y0.5050  
G01 X-2.2189 Y0.4984  
G01 X-2.2244 Y0.4929  
G01 X-2.2310 Y0.4885  
G01 X-2.2383 Y0.4854  
G01 X-2.2461 Y0.4839  
G01 X-2.2539 Y0.4839  
G01 X-2.2617 Y0.4854  
G01 X-2.2690 Y0.4885  
G01 X-2.2756 Y0.4929  
G01 X-2.2811 Y0.4984  
G01 X-2.2855 Y0.5050  
G01 X-2.2886 Y0.5123  
G01 X-2.2901 Y0.5201  
G01 X-2.2901 Y0.5799  
G01 X-2.2886 Y0.5877  
G01 X-2.2855 Y0.5950  
G01 X-2.2811 Y0.6016  
G00 Z0.1000  
G00 X-2.1811 Y0.6016  
G01 Z-0.0020 F10    
G01 X-2.1756 Y0.6071  F20    
G01 X-2.1690 Y0.6115  
G01 X-2.1617 Y0.6146  
G01 X-2.1539 Y0.6161  
G01 X-2.1461 Y0.6161  
G01 X-2.1383 Y0.6146  
G01 X-2.1310 Y0.6115  
G01 X-2.1244 Y0.6071  
G01 X-2.1189 Y0.6016  
G01 X-2.1145 Y0.5950  
G01 X-2.1114 Y0.5877  
G01 X-2.1099 Y0.5799  
G01 X-2.1099 Y0.5201  
G01 X-2.1114 Y0.5123  
G01 X-2.1145 Y0.5050  
G01 X-2.1189 Y0.4984  
G01 X-2.1244 Y0.4929  
G01 X-2.1310 Y0.4885  
G01 X-2.1383 Y0.4854  
G01 X-2.1461 Y0.4839  
G01 X-2.1539 Y0.4839  
G01 X-2.1617 Y0.4854  
G01 X-2.1690 Y0.4885  
G01 X-2.1756 Y0.4929  
G01 X-2.1811 Y0.4984  
G01 X-2.1855 Y0.5050  
G01 X-2.1886 Y0.5123  
G01 X-2.1901 Y0.5201  
G01 X-2.1901 Y0.5799  
G01 X-2.1886 Y0.5877  
G01 X-2.1855 Y0.5950  
G01 X-2.1811 Y0.6016  
G00 Z0.1000  
G00 X-1.7859 Y0.5059  
G01 Z-0.0020 F10    
G01 X-1.7859 Y0.5052  F20    
G01 X-1.7851 Y0.5044  
G01 X-1.7855 Y0.5050  
G01 X-1.7859 Y0.5059  
G00 Z0.1000  
G00 X-0.3815 Y0.8353  
G01 Z-0.0020 F10    
G01 X-0.3781 Y0.8377  F20    
G01 X-0.3719 Y0.8409  
G01 X-0.3688 Y0.8419  
G01 X-0.3748 Y0.8419  
G01 X-0.3815 Y0.8353  
G00 Z0.1000  
G00 X-0.1939 Y0.1268  
G01 Z-0.0020 F10    
G01 X-0.2268 Y0.0939  F20    
G01 X-0.2732 Y0.0939  
G01 X-0.3000 Y0.1207  
G01 X-0.3268 Y0.0939  
G01 X-0.3732 Y0.0939  
G01 X-0.4000 Y0.1207  
G01 X-0.4268 Y0.0939  
G01 X-0.4732 Y0.0939  
G01 X-0.5000 Y0.1207  
G01 X-0.5268 Y0.0939  
G01 X-0.5718 Y0.0939  
G01 X-0.6067 Y0.0590  
G01 X-0.6112 Y0.0560  
G01 X-0.6161 Y0.0539  
G01 X-0.6213 Y0.0529  
G01 X-1.3947 Y0.0529  
G01 X-1.3999 Y0.0539  
G01 X-1.4048 Y0.0560  
G01 X-1.4093 Y0.0590  
G01 X-1.4130 Y0.0627  
G01 X-1.8290 Y0.4787  
G01 X-1.8317 Y0.4827  
G01 X-1.8327 Y0.4822  
G01 X-1.8394 Y0.4800  
G01 X-1.8465 Y0.4789  
G01 X-1.8535 Y0.4789  
G01 X-1.8606 Y0.4800  
G01 X-1.8673 Y0.4822  
G01 X-1.8736 Y0.4854  
G01 X-1.8794 Y0.4896  
G01 X-1.8844 Y0.4946  
G01 X-1.8886 Y0.5004  
G01 X-1.8918 Y0.5067  
G01 X-1.8940 Y0.5134  
G01 X-1.8951 Y0.5205  
G01 X-1.8951 Y0.5626  
G01 X-1.9049 Y0.5528  
G01 X-1.9049 Y0.5205  
G01 X-1.9060 Y0.5134  
G01 X-1.9082 Y0.5067  
G01 X-1.9114 Y0.5004  
G01 X-1.9156 Y0.4946  
G01 X-1.9206 Y0.4896  
G01 X-1.9264 Y0.4854  
G01 X-1.9327 Y0.4822  
G01 X-1.9394 Y0.4800  
G01 X-1.9465 Y0.4789  
G01 X-1.9535 Y0.4789  
G01 X-1.9606 Y0.4800  
G01 X-1.9673 Y0.4822  
G01 X-1.9736 Y0.4854  
G01 X-1.9794 Y0.4896  
G01 X-1.9844 Y0.4946  
G01 X-1.9886 Y0.5004  
G01 X-1.9918 Y0.5067  
G01 X-1.9940 Y0.5134  
G01 X-1.9951 Y0.5205  
G01 X-1.9951 Y0.5746  
G01 X-2.0049 Y0.5648  
G01 X-2.0049 Y0.5205  
G01 X-2.0060 Y0.5134  
G01 X-2.0082 Y0.5067  
G01 X-2.0114 Y0.5004  
G01 X-2.0156 Y0.4946  
G01 X-2.0206 Y0.4896  
G01 X-2.0264 Y0.4854  
G01 X-2.0327 Y0.4822  
G01 X-2.0394 Y0.4800  
G01 X-2.0465 Y0.4789  
G01 X-2.0535 Y0.4789  
G01 X-2.0606 Y0.4800  
G01 X-2.0673 Y0.4822  
G01 X-2.0736 Y0.4854  
G01 X-2.0794 Y0.4896  
G01 X-2.0844 Y0.4946  
G01 X-2.0886 Y0.5004  
G01 X-2.0918 Y0.5067  
G01 X-2.0940 Y0.5134  
G01 X-2.0951 Y0.5205  
G01 X-2.0951 Y0.5795  
G01 X-2.0940 Y0.5866  
G01 X-2.0918 Y0.5933  
G01 X-2.0886 Y0.5996  
G01 X-2.0844 Y0.6054  
G01 X-2.0794 Y0.6104  
G01 X-2.0736 Y0.6146  
G01 X-2.0673 Y0.6178  
G01 X-2.0606 Y0.6200  
G01 X-2.0535 Y0.6211  
G01 X-2.0465 Y0.6211  
G01 X-2.0394 Y0.6200  
G01 X-2.0327 Y0.6178  
G01 X-2.0299 Y0.6164  
G01 X-1.8649 Y0.7814  
G01 X-1.8673 Y0.7822  
G01 X-1.8736 Y0.7854  
G01 X-1.8794 Y0.7896  
G01 X-1.8844 Y0.7946  
G01 X-1.8886 Y0.8004  
G01 X-1.8918 Y0.8067  
G01 X-1.8940 Y0.8134  
G01 X-1.8951 Y0.8205  
G01 X-1.8951 Y0.8795  
G01 X-1.8940 Y0.8866  
G01 X-1.8918 Y0.8933  
G01 X-1.8886 Y0.8996  
G01 X-1.8844 Y0.9054  
G01 X-1.8794 Y0.9104  
G01 X-1.8736 Y0.9146  
G01 X-1.8673 Y0.9178  
G01 X-1.8606 Y0.9200  
G01 X-1.8535 Y0.9211  
G01 X-1.8465 Y0.9211  
G01 X-1.8394 Y0.9200  
G01 X-1.8327 Y0.9178  
G01 X-1.8264 Y0.9146  
G01 X-1.8206 Y0.9104  
G01 X-1.8156 Y0.9054  
G01 X-1.8114 Y0.8996  
G01 X-1.8082 Y0.8933  
G01 X-1.8060 Y0.8866  
G01 X-1.8049 Y0.8795  
G01 X-1.8049 Y0.8205  
G01 X-1.8060 Y0.8134  
G01 X-1.8082 Y0.8067  
G01 X-1.8114 Y0.8004  
G01 X-1.8153 Y0.7951  
G01 X-1.7847 Y0.7951  
G01 X-1.7886 Y0.8004  
G01 X-1.7918 Y0.8067  
G01 X-1.7940 Y0.8134  
G01 X-1.7951 Y0.8205  
G01 X-1.7951 Y0.8795  
G01 X-1.7940 Y0.8866  
G01 X-1.7918 Y0.8933  
G01 X-1.7886 Y0.8996  
G01 X-1.7844 Y0.9054  
G01 X-1.7794 Y0.9104  
G01 X-1.7736 Y0.9146  
G01 X-1.7673 Y0.9178  
G01 X-1.7606 Y0.9200  
G01 X-1.7535 Y0.9211  
G01 X-1.7465 Y0.9211  
G01 X-1.7394 Y0.9200  
G01 X-1.7327 Y0.9178  
G01 X-1.7299 Y0.9164  
G01 X-1.7010 Y0.9453  
G01 X-1.6973 Y0.9490  
G01 X-1.6928 Y0.9520  
G01 X-1.6879 Y0.9541  
G01 X-1.6827 Y0.9551  
G01 X-0.8293 Y0.9551  
G01 X-0.8241 Y0.9541  
G01 X-0.8192 Y0.9520  
G01 X-0.8147 Y0.9490  
G01 X-0.5760 Y0.7103  
G01 X-0.4050 Y0.8813  
G01 X-0.4013 Y0.8850  
G01 X-0.3968 Y0.8880  
G01 X-0.3919 Y0.8901  
G01 X-0.3867 Y0.8911  
G01 X-0.3333 Y0.8911  
G01 X-0.3281 Y0.8901  
G01 X-0.3232 Y0.8880  
G01 X-0.3187 Y0.8850  
G01 X-0.2707 Y0.8370  
G01 X-0.2670 Y0.8333  
G01 X-0.2640 Y0.8288  
G01 X-0.2619 Y0.8239  
G01 X-0.2609 Y0.8187  
G01 X-0.2609 Y0.6693  
G01 X-0.2619 Y0.6641  
G01 X-0.2640 Y0.6592  
G01 X-0.2670 Y0.6547  
G01 X-0.2707 Y0.6510  
G01 X-0.4049 Y0.5168  
G01 X-0.4049 Y0.4813  
G01 X-0.4209 Y0.4653  
G01 X-0.4209 Y0.3002  
G01 X-0.4000 Y0.2793  
G01 X-0.3732 Y0.3061  
G01 X-0.3268 Y0.3061  
G01 X-0.3000 Y0.2793  
G01 X-0.2732 Y0.3061  
G01 X-0.2268 Y0.3061  
G01 X-0.1939 Y0.2732  
G01 X-0.1939 Y0.2268  
G01 X-0.2207 Y0.2000  
G01 X-0.1939 Y0.1732  
G01 X-0.1939 Y0.1268  
G00 Z0.1000  
G00 X-0.2793 Y0.2000  
G01 Z-0.0020 F10    
G01 X-0.3000 Y0.2207  F20    
G01 X-0.3207 Y0.2000  
G01 X-0.3000 Y0.1793  
G01 X-0.2793 Y0.2000  
G00 Z0.1000  
G00 X-0.3793 Y0.2000  
G01 Z-0.0020 F10    
G01 X-0.4000 Y0.2207  F20    
G01 X-0.4207 Y0.2000  
G01 X-0.4078 Y0.1871  
G01 X-0.3922 Y0.1871  
G01 X-0.3793 Y0.2000  
G00 Z0.1000  
G00 X-0.4793 Y0.2000  
G01 Z-0.0020 F10    
G01 X-0.5000 Y0.2207  F20    
G01 X-0.5207 Y0.2000  
G01 X-0.5000 Y0.1793  
G01 X-0.4793 Y0.2000  
G00 Z0.1000  
G00 X-0.4962 Y0.2831  
G01 Z-0.0020 F10    
G01 X-0.4751 Y0.3042  F20    
G01 X-0.4751 Y0.4613  
G01 X-0.4951 Y0.4813  
G01 X-0.4951 Y0.5187  
G01 X-0.4687 Y0.5451  
G01 X-0.4532 Y0.5451  
G01 X-0.3151 Y0.6832  
G01 X-0.3151 Y0.7714  
G01 X-0.3175 Y0.7680  
G01 X-0.3230 Y0.7625  
G01 X-0.3293 Y0.7580  
G01 X-0.3362 Y0.7545  
G01 X-0.3435 Y0.7521  
G01 X-0.3511 Y0.7509  
G01 X-0.3589 Y0.7509  
G01 X-0.3665 Y0.7521  
G01 X-0.3738 Y0.7545  
G01 X-0.3747 Y0.7549  
G01 X-0.5169 Y0.6128  
G01 X-0.5169 Y0.5307  
G01 X-0.5049 Y0.5187  
G01 X-0.5049 Y0.4813  
G01 X-0.5313 Y0.4549  
G01 X-0.5628 Y0.4549  
G01 X-0.5907 Y0.4270  
G01 X-0.5952 Y0.4240  
G01 X-0.6001 Y0.4219  
G01 X-0.6053 Y0.4209  
G01 X-0.7867 Y0.4209  
G01 X-0.7919 Y0.4219  
G01 X-0.7968 Y0.4240  
G01 X-0.8013 Y0.4270  
G01 X-0.8050 Y0.4307  
G01 X-0.8210 Y0.4467  
G01 X-0.8240 Y0.4512  
G01 X-0.8261 Y0.4561  
G01 X-0.8267 Y0.4595  
G01 X-0.8313 Y0.4549  
G01 X-0.8687 Y0.4549  
G01 X-0.8951 Y0.4813  
G01 X-0.8951 Y0.5187  
G01 X-0.8751 Y0.5387  
G01 X-0.8751 Y0.6129  
G01 X-1.1241 Y0.6129  
G01 X-1.1206 Y0.6104  
G01 X-1.1156 Y0.6054  
G01 X-1.1114 Y0.5996  
G01 X-1.1082 Y0.5933  
G01 X-1.1060 Y0.5866  
G01 X-1.1049 Y0.5795  
G01 X-1.1049 Y0.5205  
G01 X-1.1060 Y0.5134  
G01 X-1.1082 Y0.5067  
G01 X-1.1114 Y0.5004  
G01 X-1.1156 Y0.4946  
G01 X-1.1206 Y0.4896  
G01 X-1.1264 Y0.4854  
G01 X-1.1327 Y0.4822  
G01 X-1.1394 Y0.4800  
G01 X-1.1465 Y0.4789  
G01 X-1.1535 Y0.4789  
G01 X-1.1606 Y0.4800  
G01 X-1.1673 Y0.4822  
G01 X-1.1736 Y0.4854  
G01 X-1.1794 Y0.4896  
G01 X-1.1844 Y0.4946  
G01 X-1.1886 Y0.5004  
G01 X-1.1918 Y0.5067  
G01 X-1.1940 Y0.5134  
G01 X-1.1951 Y0.5205  
G01 X-1.1951 Y0.5795  
G01 X-1.1940 Y0.5866  
G01 X-1.1918 Y0.5933  
G01 X-1.1886 Y0.5996  
G01 X-1.1844 Y0.6054  
G01 X-1.1794 Y0.6104  
G01 X-1.1759 Y0.6129  
G01 X-1.2241 Y0.6129  
G01 X-1.2206 Y0.6104  
G01 X-1.2156 Y0.6054  
G01 X-1.2114 Y0.5996  
G01 X-1.2082 Y0.5933  
G01 X-1.2060 Y0.5866  
G01 X-1.2049 Y0.5795  
G01 X-1.2049 Y0.5205  
G01 X-1.2060 Y0.5134  
G01 X-1.2082 Y0.5067  
G01 X-1.2114 Y0.5004  
G01 X-1.2156 Y0.4946  
G01 X-1.2206 Y0.4896  
G01 X-1.2264 Y0.4854  
G01 X-1.2327 Y0.4822  
G01 X-1.2394 Y0.4800  
G01 X-1.2465 Y0.4789  
G01 X-1.2535 Y0.4789  
G01 X-1.2606 Y0.4800  
G01 X-1.2673 Y0.4822  
G01 X-1.2736 Y0.4854  
G01 X-1.2794 Y0.4896  
G01 X-1.2844 Y0.4946  
G01 X-1.2886 Y0.5004  
G01 X-1.2918 Y0.5067  
G01 X-1.2940 Y0.5134  
G01 X-1.2951 Y0.5205  
G01 X-1.2951 Y0.5795  
G01 X-1.2940 Y0.5866  
G01 X-1.2918 Y0.5933  
G01 X-1.2886 Y0.5996  
G01 X-1.2844 Y0.6054  
G01 X-1.2794 Y0.6104  
G01 X-1.2759 Y0.6129  
G01 X-1.3241 Y0.6129  
G01 X-1.3206 Y0.6104  
G01 X-1.3156 Y0.6054  
G01 X-1.3114 Y0.5996  
G01 X-1.3082 Y0.5933  
G01 X-1.3060 Y0.5866  
G01 X-1.3049 Y0.5795  
G01 X-1.3049 Y0.5205  
G01 X-1.3060 Y0.5134  
G01 X-1.3082 Y0.5067  
G01 X-1.3114 Y0.5004  
G01 X-1.3156 Y0.4946  
G01 X-1.3206 Y0.4896  
G01 X-1.3264 Y0.4854  
G01 X-1.3327 Y0.4822  
G01 X-1.3394 Y0.4800  
G01 X-1.3465 Y0.4789  
G01 X-1.3535 Y0.4789  
G01 X-1.3606 Y0.4800  
G01 X-1.3673 Y0.4822  
G01 X-1.3736 Y0.4854  
G01 X-1.3794 Y0.4896  
G01 X-1.3844 Y0.4946  
G01 X-1.3886 Y0.5004  
G01 X-1.3918 Y0.5067  
G01 X-1.3940 Y0.5134  
G01 X-1.3951 Y0.5205  
G01 X-1.3951 Y0.5795  
G01 X-1.3940 Y0.5866  
G01 X-1.3918 Y0.5933  
G01 X-1.3886 Y0.5996  
G01 X-1.3844 Y0.6054  
G01 X-1.3794 Y0.6104  
G01 X-1.3759 Y0.6129  
G01 X-1.4241 Y0.6129  
G01 X-1.4206 Y0.6104  
G01 X-1.4156 Y0.6054  
G01 X-1.4114 Y0.5996  
G01 X-1.4082 Y0.5933  
G01 X-1.4060 Y0.5866  
G01 X-1.4049 Y0.5795  
G01 X-1.4049 Y0.5205  
G01 X-1.4060 Y0.5134  
G01 X-1.4082 Y0.5067  
G01 X-1.4114 Y0.5004  
G01 X-1.4156 Y0.4946  
G01 X-1.4206 Y0.4896  
G01 X-1.4264 Y0.4854  
G01 X-1.4327 Y0.4822  
G01 X-1.4394 Y0.4800  
G01 X-1.4465 Y0.4789  
G01 X-1.4535 Y0.4789  
G01 X-1.4606 Y0.4800  
G01 X-1.4673 Y0.4822  
G01 X-1.4736 Y0.4854  
G01 X-1.4794 Y0.4896  
G01 X-1.4844 Y0.4946  
G01 X-1.4886 Y0.5004  
G01 X-1.4918 Y0.5067  
G01 X-1.4940 Y0.5134  
G01 X-1.4951 Y0.5205  
G01 X-1.4951 Y0.5795  
G01 X-1.4940 Y0.5866  
G01 X-1.4918 Y0.5933  
G01 X-1.4886 Y0.5996  
G01 X-1.4844 Y0.6054  
G01 X-1.4794 Y0.6104  
G01 X-1.4759 Y0.6129  
G01 X-1.5241 Y0.6129  
G01 X-1.5206 Y0.6104  
G01 X-1.5156 Y0.6054  
G01 X-1.5114 Y0.5996  
G01 X-1.5082 Y0.5933  
G01 X-1.5060 Y0.5866  
G01 X-1.5049 Y0.5795  
G01 X-1.5049 Y0.5205  
G01 X-1.5060 Y0.5134  
G01 X-1.5082 Y0.5067  
G01 X-1.5114 Y0.5004  
G01 X-1.5156 Y0.4946  
G01 X-1.5206 Y0.4896  
G01 X-1.5264 Y0.4854  
G01 X-1.5327 Y0.4822  
G01 X-1.5394 Y0.4800  
G01 X-1.5465 Y0.4789  
G01 X-1.5535 Y0.4789  
G01 X-1.5606 Y0.4800  
G01 X-1.5673 Y0.4822  
G01 X-1.5736 Y0.4854  
G01 X-1.5794 Y0.4896  
G01 X-1.5844 Y0.4946  
G01 X-1.5886 Y0.5004  
G01 X-1.5918 Y0.5067  
G01 X-1.5940 Y0.5134  
G01 X-1.5951 Y0.5205  
G01 X-1.5951 Y0.5795  
G01 X-1.5940 Y0.5866  
G01 X-1.5918 Y0.5933  
G01 X-1.5886 Y0.5996  
G01 X-1.5844 Y0.6054  
G01 X-1.5794 Y0.6104  
G01 X-1.5759 Y0.6129  
G01 X-1.6241 Y0.6129  
G01 X-1.6206 Y0.6104  
G01 X-1.6156 Y0.6054  
G01 X-1.6114 Y0.5996  
G01 X-1.6082 Y0.5933  
G01 X-1.6060 Y0.5866  
G01 X-1.6049 Y0.5795  
G01 X-1.6049 Y0.5205  
G01 X-1.6060 Y0.5134  
G01 X-1.6082 Y0.5067  
G01 X-1.6114 Y0.5004  
G01 X-1.6156 Y0.4946  
G01 X-1.6206 Y0.4896  
G01 X-1.6264 Y0.4854  
G01 X-1.6327 Y0.4822  
